P3
400 225
255
163 200 237
163 200 237
163 200 237
163 200 237
163 200 237
163 200 237
163 200 237
163 200 237
163 200 237
163 200 237
163 200 237
162 200 237
162 200 237
162 200 237
162 199 237
162 199 237
162 199 237
162 199 237
162 199 237
162 199 237
162 199 237
161 199 237
161 199 237
161 199 237
161 199 237
161 199 237
161 199 237
161 199 237
161 199 237
161 199 237
161 199 237
161 199 237
160 198 236
160 198 236
160 198 236
160 198 236
160 198 236
160 198 236
160 198 236
160 198 236
160 198 236
160 198 236
159 198 236
159 198 236
159 198 236
159 198 236
159 198 236
159 198 236
159 197 236
159 197 236
159 197 236
159 197 236
158 197 236
158 197 236
158 197 236
158 197 236
158 197 236
158 197 236
158 197 236
158 197 236
158 197 236
157 197 236
157 197 236
157 197 236
157 196 236
157 196 236
157 196 236
157 196 236
157 196 236
157 196 236
157 196 236
156 196 236
156 196 236
156 196 236
156 196 236
156 196 236
156 196 236
156 196 236
156 196 236
156 196 236
155 195 235
155 195 235
155 195 235
155 195 235
155 195 235
155 195 235
155 195 235
155 195 235
155 195 235
154 195 235
154 195 235
154 195 235
154 195 235
154 195 235
154 195 235
154 194 235
154 194 235
154 194 235
153 194 235
153 194 235
153 194 235
153 194 235
153 194 235
153 194 235
153 194 235
153 194 235
153 194 235
152 194 235
152 194 235
152 194 235
152 193 235
152 193 235
152 193 235
152 193 235
152 193 235
152 193 235
152 193 235
151 193 235
151 193 235
151 193 235
151 193 235
151 193 235
151 193 235
151 193 235
151 193 235
151 193 235
151 193 235
150 192 234
150 192 234
150 192 234
150 192 234
150 192 234
150 192 234
150 192 234
150 192 234
150 192 234
150 192 234
149 192 234
149 192 234
149 192 234
149 192 234
149 192 234
149 192 234
149 192 234
149 192 234
149 191 234
149 191 234
149 191 234
149 191 234
148 191 234
148 191 234
148 191 234
148 191 234
148 191 234
148 191 234
148 191 234
148 191 234
148 191 234
148 191 234
148 191 234
148 191 234
148 191 234
148 191 234
148 191 234
147 191 234
147 191 234
147 191 234
147 191 234
147 191 234
147 190 234
147 190 234
147 190 234
147 190 234
147 190 234
147 190 234
147 190 234
147 190 234
147 190 234
147 190 234
147 190 234
147 190 234
147 190 234
147 190 234
147 190 234
147 190 234
147 190 234
147 190 234
146 190 234
146 190 234
146 190 234
146 190 234
146 190 234
146 190 234
146 190 234
146 190 234
146 190 234
146 190 234
146 190 234
146 190 234
146 190 234
146 190 234
146 190 234
146 190 234
146 190 234
146 190 234
146 190 234
146 190 234
146 190 234
146 190 234
146 190 234
146 190 234
146 190 234
146 190 234
147 190 234
147 190 234
147 190 234
147 190 234
147 190 234
147 190 234
147 190 234
147 190 234
147 190 234
147 190 234
147 190 234
147 190 234
147 190 234
147 190 234
147 190 234
147 190 234
147 190 234
147 190 234
147 191 234
147 191 234
147 191 234
147 191 234
147 191 234
147 191 234
148 191 234
148 191 234
148 191 234
148 191 234
148 191 234
148 191 234
148 191 234
148 191 234
148 191 234
148 191 234
148 191 234
148 191 234
148 191 234
148 191 234
149 191 234
149 191 234
149 191 234
149 191 234
149 192 234
149 192 234
149 192 234
149 192 234
149 192 234
149 192 234
149 192 234
149 192 234
150 192 234
150 192 234
150 192 234
150 192 234
150 192 234
150 192 234
150 192 234
150 192 234
150 192 234
150 192 234
151 193 235
151 193 235
151 193 235
151 193 235
151 193 235
151 193 235
151 193 235
151 193 235
151 193 235
151 193 235
152 193 235
152 193 235
152 193 235
152 193 235
152 193 235
152 193 235
152 194 235
152 194 235
152 194 235
152 194 235
153 194 235
153 194 235
153 194 235
153 194 235
153 194 235
153 194 235
153 194 235
153 194 235
153 194 235
154 194 235
154 194 235
154 194 235
154 195 235
154 195 235
154 195 235
154 195 235
154 195 235
154 195 235
155 195 235
155 195 235
155 195 235
155 195 235
155 195 235
155 195 235
155 195 235
155 195 235
155 195 235
156 196 236
156 196 236
156 196 236
156 196 236
156 196 236
156 196 236
156 196 236
156 196 236
156 196 236
156 196 236
157 196 236
157 196 236
157 196 236
157 196 236
157 196 236
157 196 236
157 197 236
157 197 236
157 197 236
158 197 236
158 197 236
158 197 236
158 197 236
158 197 236
158 197 236
158 197 236
158 197 236
158 197 236
159 197 236
159 197 236
159 197 236
159 198 236
159 198 236
159 198 236
159 198 236
159 198 236
159 198 236
159 198 236
160 198 236
160 198 236
160 198 236
160 198 236
160 198 236
160 198 236
160 198 236
160 198 236
160 198 236
160 198 236
161 199 237
161 199 237
161 199 237
161 199 237
161 199 237
161 199 237
161 199 237
161 199 237
161 199 237
161 199 237
161 199 237
162 199 237
162 199 237
162 199 237
162 199 237
162 199 237
162 199 237
162 199 237
162 200 237
162 200 237
162 200 237
163 200 237
163 200 237
163 200 237
163 200 237
163 200 237
163 200 237
163 200 237
163 200 237
163 200 237
163 200 237
163 200 237
164 200 237
163 200 237
163 200 237
163 200 237
163 200 237
163 200 237
163 200 237
163 200 237
163 200 237
163 200 237
163 200 237
163 200 237
163 200 237
162 200 237
162 200 237
162 200 237
162 199 237
162 199 237
162 199 237
162 199 237
162 199 237
162 199 237
162 199 237
162 199 237
161 199 237
161 199 237
161 199 237
161 199 237
161 199 237
161 199 237
161 199 237
161 199 237
161 199 237
161 199 237
160 198 236
160 198 236
160 198 236
160 198 236
160 198 236
160 198 236
160 198 236
160 198 236
160 198 236
160 198 236
159 198 236
159 198 236
159 198 236
159 198 236
159 198 236
159 198 236
159 198 236
159 197 236
159 197 236
159 197 236
158 197 236
158 197 236
158 197 236
158 197 236
158 197 236
158 197 236
158 197 236
158 197 236
158 197 236
157 197 236
157 197 236
157 197 236
157 196 236
157 196 236
157 196 236
157 196 236
157 196 236
157 196 236
157 196 236
156 196 236
156 196 236
156 196 236
156 196 236
156 196 236
156 196 236
156 196 236
156 196 236
156 196 236
155 195 235
155 195 235
155 195 235
155 195 235
155 195 235
155 195 235
155 195 235
155 195 235
155 195 235
154 195 235
154 195 235
154 195 235
154 195 235
154 195 235
154 195 235
154 194 235
154 194 235
154 194 235
153 194 235
153 194 235
153 194 235
153 194 235
153 194 235
153 194 235
153 194 235
153 194 235
153 194 235
152 194 235
152 194 235
152 194 235
152 194 235
152 193 235
152 193 235
152 193 235
152 193 235
152 193 235
152 193 235
151 193 235
151 193 235
151 193 235
151 193 235
151 193 235
151 193 235
151 193 235
151 193 235
151 193 235
151 193 235
150 192 234
150 192 234
150 192 234
150 192 234
150 192 234
150 192 234
150 192 234
150 192 234
150 192 234
150 192 234
150 192 234
149 192 234
149 192 234
149 192 234
149 192 234
149 192 234
149 192 234
149 192 234
149 192 234
149 191 234
149 191 234
149 191 234
149 191 234
148 191 234
148 191 234
148 191 234
148 191 234
148 191 234
148 191 234
148 191 234
148 191 234
148 191 234
148 191 234
148 191 234
148 191 234
148 191 234
148 191 234
148 191 234
147 191 234
147 191 234
147 191 234
147 191 234
147 191 234
147 191 234
147 190 234
147 190 234
147 190 234
147 190 234
147 190 234
147 190 234
147 190 234
147 190 234
147 190 234
147 190 234
147 190 234
147 190 234
147 190 234
147 190 234
147 190 234
147 190 234
147 190 234
147 190 234
147 190 234
147 190 234
147 190 234
147 190 234
147 190 234
147 190 234
147 190 234
147 190 234
147 190 234
147 190 234
147 190 234
147 190 234
147 190 234
147 190 234
147 190 234
147 190 234
147 190 234
147 190 234
147 190 234
147 190 234
147 190 234
147 190 234
147 190 234
147 190 234
147 190 234
147 190 234
147 190 234
147 190 234
147 190 234
147 190 234
147 190 234
147 190 234
147 190 234
147 190 234
147 190 234
147 191 234
147 191 234
147 191 234
147 191 234
147 191 234
147 191 234
147 191 234
148 191 234
148 191 234
148 191 234
148 191 234
148 191 234
148 191 234
148 191 234
148 191 234
148 191 234
148 191 234
148 191 234
148 191 234
148 191 234
148 191 234
148 191 234
149 191 234
149 191 234
149 191 234
149 191 234
149 192 234
149 192 234
149 192 234
149 192 234
149 192 234
149 192 234
149 192 234
149 192 234
150 192 234
150 192 234
150 192 234
150 192 234
150 192 234
150 192 234
150 192 234
150 192 234
150 192 234
150 192 234
150 192 234
151 193 235
151 193 235
151 193 235
151 193 235
151 193 235
151 193 235
151 193 235
151 193 235
151 193 235
151 193 235
152 193 235
152 193 235
152 193 235
152 193 235
152 193 235
152 193 235
152 193 235
152 194 235
152 194 235
152 194 235
153 194 235
153 194 235
153 194 235
153 194 235
153 194 235
153 194 235
153 194 235
153 194 235
153 194 235
154 194 235
154 194 235
154 194 235
154 195 235
154 195 235
154 195 235
154 195 235
154 195 235
154 195 235
155 195 235
155 195 235
155 195 235
155 195 235
155 195 235
155 195 235
155 195 235
155 195 235
155 195 235
156 196 236
156 196 236
156 196 236
156 196 236
156 196 236
156 196 236
156 196 236
156 196 236
156 196 236
157 196 236
157 196 236
157 196 236
157 196 236
157 196 236
157 196 236
157 196 236
157 197 236
157 197 236
157 197 236
158 197 236
158 197 236
158 197 236
158 197 236
158 197 236
158 197 236
158 197 236
158 197 236
158 197 236
159 197 236
159 197 236
159 197 236
159 198 236
159 198 236
159 198 236
159 198 236
159 198 236
159 198 236
159 198 236
160 198 236
160 198 236
160 198 236
160 198 236
160 198 236
160 198 236
160 198 236
160 198 236
160 198 236
160 198 236
161 199 237
161 199 237
161 199 237
161 199 237
161 199 237
161 199 237
161 199 237
161 199 237
161 199 237
161 199 237
162 199 237
162 199 237
162 199 237
162 199 237
162 199 237
162 199 237
162 199 237
162 199 237
162 200 237
162 200 237
162 200 237
163 200 237
163 200 237
163 200 237
163 200 237
163 200 237
163 200 237
163 200 237
163 200 237
163 200 237
163 200 237
163 200 237
163 200 237
164 200 237
164 200 237
164 200 237
164 200 237
164 200 237
163 200 237
163 200 237
163 200 237
163 200 237
163 200 237
163 200 237
163 200 237
163 200 237
163 200 237
163 200 237
163 200 237
162 200 237
162 200 237
162 200 237
162 200 237
162 199 237
162 199 237
162 199 237
162 199 237
162 199 237
162 199 237
162 199 237
161 199 237
161 199 237
161 199 237
161 199 237
161 199 237
161 199 237
161 199 237
161 199 237
161 199 237
161 199 237
160 198 236
160 198 236
160 198 236
160 198 236
160 198 236
160 198 236
160 198 236
160 198 236
160 198 236
160 198 236
159 198 236
159 198 236
159 198 236
159 198 236
159 198 236
159 198 236
159 198 236
159 197 236
159 197 236
159 197 236
158 197 236
158 197 236
158 197 236
158 197 236
158 197 236
158 197 236
158 197 236
158 197 236
158 197 236
157 197 236
157 197 236
157 197 236
157 197 236
157 196 236
157 196 236
157 196 236
157 196 236
157 196 236
157 196 236
156 196 236
156 196 236
156 196 236
156 196 236
156 196 236
156 196 236
156 196 236
156 196 236
156 196 236
155 195 235
155 195 235
155 195 235
155 195 235
155 195 235
155 195 235
155 195 235
155 195 235
155 195 235
154 195 235
154 195 235
154 195 235
154 195 235
154 195 235
154 195 235
154 194 235
154 194 235
154 194 235
153 194 235
153 194 235
153 194 235
153 194 235
153 194 235
153 194 235
153 194 235
153 194 235
153 194 235
153 194 235
152 194 235
152 194 235
152 194 235
152 193 235
152 193 235
152 193 235
152 193 235
152 193 235
152 193 235
151 193 235
151 193 235
151 193 235
151 193 235
151 193 235
151 193 235
151 193 235
151 193 235
151 193 235
151 193 235
150 192 234
150 192 234
150 192 234
150 192 234
150 192 234
150 192 234
150 192 234
150 192 234
150 192 234
150 192 234
150 192 234
149 192 234
149 192 234
149 192 234
149 192 234
149 192 234
149 192 234
149 192 234
149 192 234
149 191 234
149 191 234
149 191 234
149 191 234
149 191 234
148 191 234
148 191 234
148 191 234
148 191 234
148 191 234
148 191 234
148 191 234
148 191 234
148 191 234
148 191 234
148 191 234
148 191 234
148 191 234
148 191 234
148 191 234
148 191 234
147 191 234
147 191 234
147 191 234
147 191 234
147 191 234
147 191 234
147 191 234
147 190 234
147 190 234
147 190 234
147 190 234
147 190 234
147 190 234
147 190 234
147 190 234
147 190 234
147 190 234
147 190 234
147 190 234
147 190 234
147 190 234
147 190 234
147 190 234
147 190 234
147 190 234
147 190 234
147 190 234
147 190 234
147 190 234
147 190 234
147 190 234
147 190 234
147 190 234
147 190 234
147 190 234
147 190 234
147 190 234
147 190 234
147 190 234
147 190 234
147 190 234
147 190 234
147 190 234
147 190 234
147 190 234
147 190 234
147 190 234
147 190 234
147 190 234
147 190 234
147 191 234
147 191 234
147 191 234
147 191 234
147 191 234
147 191 234
147 191 234
147 191 234
148 191 234
148 191 234
148 191 234
148 191 234
148 191 234
148 191 234
148 191 234
148 191 234
148 191 234
148 191 234
148 191 234
148 191 234
148 191 234
148 191 234
148 191 234
148 191 234
149 191 234
149 191 234
149 191 234
149 191 234
149 191 234
149 192 234
149 192 234
149 192 234
149 192 234
149 192 234
149 192 234
149 192 234
149 192 234
150 192 234
150 192 234
150 192 234
150 192 234
150 192 234
150 192 234
150 192 234
150 192 234
150 192 234
150 192 234
150 192 234
151 193 235
151 193 235
151 193 235
151 193 235
151 193 235
151 193 235
151 193 235
151 193 235
151 193 235
151 193 235
152 193 235
152 193 235
152 193 235
152 193 235
152 193 235
152 193 235
152 194 235
152 194 235
152 194 235
152 194 235
153 194 235
153 194 235
153 194 235
153 194 235
153 194 235
153 194 235
153 194 235
153 194 235
153 194 235
154 194 235
154 194 235
154 194 235
154 195 235
154 195 235
154 195 235
154 195 235
154 195 235
154 195 235
155 195 235
155 195 235
155 195 235
155 195 235
155 195 235
155 195 235
155 195 235
155 195 235
155 195 235
156 196 236
156 196 236
156 196 236
156 196 236
156 196 236
156 196 236
156 196 236
156 196 236
156 196 236
157 196 236
157 196 236
157 196 236
157 196 236
157 196 236
157 196 236
157 197 236
157 197 236
157 197 236
157 197 236
158 197 236
158 197 236
158 197 236
158 197 236
158 197 236
158 197 236
158 197 236
158 197 236
158 197 236
159 197 236
159 197 236
159 197 236
159 198 236
159 198 236
159 198 236
159 198 236
159 198 236
159 198 236
159 198 236
160 198 236
160 198 236
160 198 236
160 198 236
160 198 236
160 198 236
160 198 236
160 198 236
160 198 236
160 198 236
161 199 237
161 199 237
161 199 237
161 199 237
161 199 237
161 199 237
161 199 237
161 199 237
161 199 237
161 199 237
162 199 237
162 199 237
162 199 237
162 199 237
162 199 237
162 199 237
162 199 237
162 200 237
162 200 237
162 200 237
162 200 237
163 200 237
163 200 237
163 200 237
163 200 237
163 200 237
163 200 237
163 200 237
163 200 237
163 200 237
163 200 237
163 200 237
164 200 237
164 200 237
164 200 237
164 200 237
164 201 237
164 201 237
164 200 237
164 200 237
164 200 237
164 200 237
163 200 237
163 200 237
163 200 237
163 200 237
163 200 237
163 200 237
163 200 237
163 200 237
163 200 237
163 200 237
163 200 237
163 200 237
162 200 237
162 200 237
162 200 237
162 199 237
162 199 237
162 199 237
162 199 237
162 199 237
162 199 237
162 199 237
161 199 237
161 199 237
161 199 237
161 199 237
161 199 237
161 199 237
161 199 237
161 199 237
161 199 237
161 199 237
160 198 236
160 198 236
160 198 236
160 198 236
160 198 236
160 198 236
160 198 236
160 198 236
160 198 236
160 198 236
159 198 236
159 198 236
159 198 236
159 198 236
159 198 236
159 198 236
159 198 236
159 197 236
159 197 236
159 197 236
158 197 236
158 197 236
158 197 236
158 197 236
158 197 236
158 197 236
158 197 236
158 197 236
158 197 236
157 197 236
157 197 236
157 197 236
157 197 236
157 196 236
157 196 236
157 196 236
157 196 236
157 196 236
157 196 236
156 196 236
156 196 236
156 196 236
156 196 236
156 196 236
156 196 236
156 196 236
156 196 236
156 196 236
155 195 235
155 195 235
155 195 235
155 195 235
155 195 235
155 195 235
155 195 235
155 195 235
155 195 235
154 195 235
154 195 235
154 195 235
154 195 235
154 195 235
154 195 235
154 194 235
154 194 235
154 194 235
153 194 235
153 194 235
153 194 235
153 194 235
153 194 235
153 194 235
153 194 235
153 194 235
153 194 235
153 194 235
152 194 235
152 194 235
152 194 235
152 193 235
152 193 235
152 193 235
152 193 235
152 193 235
152 193 235
151 193 235
151 193 235
151 193 235
151 193 235
151 193 235
151 193 235
151 193 235
151 193 235
151 193 235
151 193 235
151 193 235
150 192 234
150 192 234
150 192 234
150 192 234
150 192 234
150 192 234
150 192 234
150 192 234
150 192 234
150 192 234
150 192 234
149 192 234
149 192 234
149 192 234
149 192 234
149 192 234
149 192 234
149 192 234
149 192 234
149 191 234
149 191 234
149 191 234
149 191 234
149 191 234
148 191 234
148 191 234
148 191 234
148 191 234
148 191 234
148 191 234
148 191 234
148 191 234
148 191 234
148 191 234
148 191 234
148 191 234
148 191 234
148 191 234
148 191 234
148 191 234
148 191 234
147 191 234
147 191 234
147 191 234
147 191 234
147 191 234
147 191 234
147 191 234
147 191 234
147 191 234
147 191 234
147 190 234
147 190 234
147 190 234
147 190 234
147 190 234
147 190 234
147 190 234
147 190 234
147 190 234
147 190 234
147 190 234
147 190 234
147 190 234
147 190 234
147 190 234
147 190 234
147 190 234
147 190 234
147 190 234
147 190 234
147 190 234
147 190 234
147 190 234
147 190 234
147 190 234
147 190 234
147 190 234
147 190 234
147 190 234
147 190 234
147 191 234
147 191 234
147 191 234
147 191 234
147 191 234
147 191 234
147 191 234
147 191 234
147 191 234
148 191 234
148 191 234
148 191 234
148 191 234
148 191 234
148 191 234
148 191 234
148 191 234
148 191 234
148 191 234
148 191 234
148 191 234
148 191 234
148 191 234
148 191 234
148 191 234
148 191 234
148 191 234
149 191 234
149 191 234
149 191 234
149 191 234
149 191 234
149 192 234
149 192 234
149 192 234
149 192 234
149 192 234
149 192 234
149 192 234
149 192 234
150 192 234
150 192 234
150 192 234
150 192 234
150 192 234
150 192 234
150 192 234
150 192 234
150 192 234
150 192 234
150 192 234
150 192 234
151 193 235
151 193 235
151 193 235
151 193 235
151 193 235
151 193 235
151 193 235
151 193 235
151 193 235
151 193 235
152 193 235
152 193 235
152 193 235
152 193 235
152 193 235
152 193 235
152 194 235
152 194 235
152 194 235
153 194 235
153 194 235
153 194 235
153 194 235
153 194 235
153 194 235
153 194 235
153 194 235
153 194 235
153 194 235
154 194 235
154 194 235
154 194 235
154 195 235
154 195 235
154 195 235
154 195 235
154 195 235
154 195 235
155 195 235
155 195 235
155 195 235
155 195 235
155 195 235
155 195 235
155 195 235
155 195 235
155 195 235
156 196 236
156 196 236
156 196 236
156 196 236
156 196 236
156 196 236
156 196 236
156 196 236
156 196 236
157 196 236
157 196 236
157 196 236
157 196 236
157 196 236
157 196 236
157 197 236
157 197 236
157 197 236
157 197 236
158 197 236
158 197 236
158 197 236
158 197 236
158 197 236
158 197 236
158 197 236
158 197 236
158 197 236
159 197 236
159 197 236
159 197 236
159 198 236
159 198 236
159 198 236
159 198 236
159 198 236
159 198 236
159 198 236
160 198 236
160 198 236
160 198 236
160 198 236
160 198 236
160 198 236
160 198 236
160 198 236
160 198 236
160 198 236
161 199 237
161 199 237
161 199 237
161 199 237
161 199 237
161 199 237
161 199 237
161 199 237
161 199 237
161 199 237
162 199 237
162 199 237
162 199 237
162 199 237
162 199 237
162 199 237
162 199 237
162 200 237
162 200 237
162 200 237
162 200 237
163 200 237
163 200 237
163 200 237
163 200 237
163 200 237
163 200 237
163 200 237
163 200 237
163 200 237
163 200 237
163 200 237
164 200 237
164 200 237
164 200 237
164 200 237
164 201 237
164 201 237
164 201 237
164 201 237
164 201 237
164 201 237
164 201 237
164 200 237
164 200 237
164 200 237
164 200 237
163 200 237
163 200 237
163 200 237
163 200 237
163 200 237
163 200 237
163 200 237
163 200 237
163 200 237
163 200 237
163 200 237
162 200 237
162 200 237
162 200 237
162 199 237
162 199 237
162 199 237
162 199 237
162 199 237
162 199 237
162 199 237
161 199 237
161 199 237
161 199 237
161 199 237
161 199 237
161 199 237
161 199 237
161 199 237
161 199 237
161 199 237
161 199 237
160 198 236
160 198 236
160 198 236
160 198 236
160 198 236
160 198 236
160 198 236
160 198 236
160 198 236
160 198 236
159 198 236
159 198 236
159 198 236
159 198 236
159 198 236
159 198 236
159 197 236
159 197 236
159 197 236
158 197 236
158 197 236
158 197 236
158 197 236
158 197 236
158 197 236
158 197 236
158 197 236
158 197 236
158 197 236
157 197 236
157 197 236
157 197 236
157 196 236
157 196 236
157 196 236
157 196 236
157 196 236
157 196 236
156 196 236
156 196 236
156 196 236
156 196 236
156 196 236
156 196 236
156 196 236
156 196 236
156 196 236
155 195 235
155 195 235
155 195 235
155 195 235
155 195 235
155 195 235
155 195 235
155 195 235
155 195 235
154 195 235
154 195 235
154 195 235
154 195 235
154 195 235
154 195 235
154 194 235
154 194 235
154 194 235
153 194 235
153 194 235
153 194 235
153 194 235
153 194 235
153 194 235
153 194 235
153 194 235
153 194 235
153 194 235
152 194 235
152 194 235
152 194 235
152 193 235
152 193 235
152 193 235
152 193 235
152 193 235
152 193 235
152 193 235
151 193 235
151 193 235
151 193 235
151 193 235
151 193 235
151 193 235
151 193 235
151 193 235
151 193 235
151 193 235
150 192 234
150 192 234
150 192 234
150 192 234
150 192 234
150 192 234
150 192 234
150 192 234
150 192 234
150 192 234
150 192 234
149 192 234
149 192 234
149 192 234
149 192 234
149 192 234
149 192 234
149 192 234
149 192 234
149 192 234
149 191 234
149 191 234
149 191 234
149 191 234
149 191 234
148 191 234
148 191 234
148 191 234
148 191 234
148 191 234
148 191 234
148 191 234
148 191 234
148 191 234
148 191 234
148 191 234
148 191 234
148 191 234
148 191 234
148 191 234
148 191 234
148 191 234
148 191 234
148 191 234
148 191 234
147 191 234
147 191 234
147 191 234
147 191 234
147 191 234
147 191 234
147 191 234
147 191 234
147 191 234
147 191 234
147 191 234
147 191 234
147 191 234
147 191 234
147 191 234
147 191 234
147 191 234
147 191 234
147 191 234
147 191 234
147 191 234
147 191 234
147 191 234
147 191 234
147 191 234
147 191 234
147 191 234
147 191 234
147 191 234
147 191 234
147 191 234
147 191 234
147 191 234
147 191 234
147 191 234
147 191 234
147 191 234
147 191 234
148 191 234
148 191 234
148 191 234
148 191 234
148 191 234
148 191 234
148 191 234
148 191 234
148 191 234
148 191 234
148 191 234
148 191 234
148 191 234
148 191 234
148 191 234
148 191 234
148 191 234
148 191 234
148 191 234
148 191 234
149 191 234
149 191 234
149 191 234
149 191 234
149 191 234
149 192 234
149 192 234
149 192 234
149 192 234
149 192 234
149 192 234
149 192 234
149 192 234
150 192 234
150 192 234
150 192 234
150 192 234
150 192 234
150 192 234
150 192 234
150 192 234
150 192 234
150 192 234
150 192 234
150 192 234
151 193 235
151 193 235
151 193 235
151 193 235
151 193 235
151 193 235
151 193 235
151 193 235
151 193 235
151 193 235
152 193 235
152 193 235
152 193 235
152 193 235
152 193 235
152 193 235
152 193 235
152 194 235
152 194 235
152 194 235
153 194 235
153 194 235
153 194 235
153 194 235
153 194 235
153 194 235
153 194 235
153 194 235
153 194 235
153 194 235
154 194 235
154 194 235
154 194 235
154 195 235
154 195 235
154 195 235
154 195 235
154 195 235
154 195 235
155 195 235
155 195 235
155 195 235
155 195 235
155 195 235
155 195 235
155 195 235
155 195 235
155 195 235
156 196 236
156 196 236
156 196 236
156 196 236
156 196 236
156 196 236
156 196 236
156 196 236
156 196 236
157 196 236
157 196 236
157 196 236
157 196 236
157 196 236
157 196 236
157 197 236
157 197 236
157 197 236
158 197 236
158 197 236
158 197 236
158 197 236
158 197 236
158 197 236
158 197 236
158 197 236
158 197 236
158 197 236
159 197 236
159 197 236
159 197 236
159 198 236
159 198 236
159 198 236
159 198 236
159 198 236
159 198 236
160 198 236
160 198 236
160 198 236
160 198 236
160 198 236
160 198 236
160 198 236
160 198 236
160 198 236
160 198 236
161 199 237
161 199 237
161 199 237
161 199 237
161 199 237
161 199 237
161 199 237
161 199 237
161 199 237
161 199 237
161 199 237
162 199 237
162 199 237
162 199 237
162 199 237
162 199 237
162 199 237
162 199 237
162 200 237
162 200 237
162 200 237
163 200 237
163 200 237
163 200 237
163 200 237
163 200 237
163 200 237
163 200 237
163 200 237
163 200 237
163 200 237
163 200 237
164 200 237
164 200 237
164 200 237
164 200 237
164 201 237
164 201 237
164 201 237
164 201 237
164 201 237
164 201 237
164 201 237
164 201 237
164 201 237
164 201 237
164 201 237
164 201 237
164 200 237
164 200 237
164 200 237
164 200 237
163 200 237
163 200 237
163 200 237
163 200 237
163 200 237
163 200 237
163 200 237
163 200 237
163 200 237
163 200 237
163 200 237
162 200 237
162 200 237
162 200 237
162 200 237
162 199 237
162 199 237
162 199 237
162 199 237
162 199 237
162 199 237
162 199 237
161 199 237
161 199 237
161 199 237
161 199 237
161 199 237
161 199 237
161 199 237
161 199 237
161 199 237
161 199 237
160 198 236
160 198 236
160 198 236
160 198 236
160 198 236
160 198 236
160 198 236
160 198 236
160 198 236
160 198 236
159 198 236
159 198 236
159 198 236
159 198 236
159 198 236
159 198 236
159 197 236
159 197 236
159 197 236
158 197 236
158 197 236
158 197 236
158 197 236
158 197 236
158 197 236
158 197 236
158 197 236
158 197 236
158 197 236
157 197 236
157 197 236
157 197 236
157 196 236
157 196 236
157 196 236
157 196 236
157 196 236
157 196 236
156 196 236
156 196 236
156 196 236
156 196 236
156 196 236
156 196 236
156 196 236
156 196 236
156 196 236
155 195 235
155 195 235
155 195 235
155 195 235
155 195 235
155 195 235
155 195 235
155 195 235
155 195 235
154 195 235
154 195 235
154 195 235
154 195 235
154 195 235
154 195 235
154 194 235
154 194 235
154 194 235
154 194 235
153 194 235
153 194 235
153 194 235
153 194 235
153 194 235
153 194 235
153 194 235
153 194 235
153 194 235
152 194 235
152 194 235
152 194 235
152 193 235
152 193 235
152 193 235
152 193 235
152 193 235
152 193 235
152 193 235
151 193 235
151 193 235
151 193 235
151 193 235
151 193 235
151 193 235
151 193 235
151 193 235
151 193 235
151 193 235
151 193 235
150 192 234
150 192 234
150 192 234
150 192 234
150 192 234
150 192 234
150 192 234
150 192 234
150 192 234
150 192 234
150 192 234
149 192 234
149 192 234
149 192 234
149 192 234
149 192 234
149 192 234
149 192 234
149 192 234
149 192 234
149 191 234
149 191 234
149 191 234
149 191 234
149 191 234
149 191 234
148 191 234
148 191 234
148 191 234
148 191 234
148 191 234
148 191 234
148 191 234
148 191 234
148 191 234
148 191 234
148 191 234
148 191 234
148 191 234
148 191 234
148 191 234
148 191 234
148 191 234
148 191 234
148 191 234
148 191 234
148 191 234
148 191 234
148 191 234
147 191 234
147 191 234
147 191 234
147 191 234
147 191 234
147 191 234
147 191 234
147 191 234
147 191 234
147 191 234
147 191 234
147 191 234
147 191 234
147 191 234
147 191 234
147 191 234
147 191 234
147 191 234
147 191 234
147 191 234
147 191 234
147 191 234
147 191 234
147 191 234
148 191 234
148 191 234
148 191 234
148 191 234
148 191 234
148 191 234
148 191 234
148 191 234
148 191 234
148 191 234
148 191 234
148 191 234
148 191 234
148 191 234
148 191 234
148 191 234
148 191 234
148 191 234
148 191 234
148 191 234
148 191 234
148 191 234
148 191 234
149 191 234
149 191 234
149 191 234
149 191 234
149 191 234
149 191 234
149 192 234
149 192 234
149 192 234
149 192 234
149 192 234
149 192 234
149 192 234
149 192 234
149 192 234
150 192 234
150 192 234
150 192 234
150 192 234
150 192 234
150 192 234
150 192 234
150 192 234
150 192 234
150 192 234
150 192 234
150 192 234
151 193 235
151 193 235
151 193 235
151 193 235
151 193 235
151 193 235
151 193 235
151 193 235
151 193 235
151 193 235
152 193 235
152 193 235
152 193 235
152 193 235
152 193 235
152 193 235
152 193 235
152 194 235
152 194 235
152 194 235
153 194 235
153 194 235
153 194 235
153 194 235
153 194 235
153 194 235
153 194 235
153 194 235
153 194 235
153 194 235
154 194 235
154 194 235
154 194 235
154 195 235
154 195 235
154 195 235
154 195 235
154 195 235
154 195 235
155 195 235
155 195 235
155 195 235
155 195 235
155 195 235
155 195 235
155 195 235
155 195 235
155 195 235
156 196 236
156 196 236
156 196 236
156 196 236
156 196 236
156 196 236
156 196 236
156 196 236
156 196 236
157 196 236
157 196 236
157 196 236
157 196 236
157 196 236
157 196 236
157 197 236
157 197 236
157 197 236
158 197 236
158 197 236
158 197 236
158 197 236
158 197 236
158 197 236
158 197 236
158 197 236
158 197 236
158 197 236
159 197 236
159 197 236
159 197 236
159 198 236
159 198 236
159 198 236
159 198 236
159 198 236
159 198 236
160 198 236
160 198 236
160 198 236
160 198 236
160 198 236
160 198 236
160 198 236
160 198 236
160 198 236
160 198 236
161 199 237
161 199 237
161 199 237
161 199 237
161 199 237
161 199 237
161 199 237
161 199 237
161 199 237
161 199 237
162 199 237
162 199 237
162 199 237
162 199 237
162 199 237
162 199 237
162 199 237
162 200 237
162 200 237
162 200 237
162 200 237
163 200 237
163 200 237
163 200 237
163 200 237
163 200 237
163 200 237
163 200 237
163 200 237
163 200 237
163 200 237
163 200 237
164 200 237
164 200 237
164 200 237
164 200 237
164 201 237
164 201 237
164 201 237
164 201 237
164 201 237
164 201 237
164 201 237
165 201 237
165 201 237
164 201 237
164 201 237
164 201 237
164 201 237
164 201 237
164 201 237
164 201 237
164 201 237
164 200 237
164 200 237
164 200 237
163 200 237
163 200 237
163 200 237
163 200 237
163 200 237
163 200 237
163 200 237
163 200 237
163 200 237
163 200 237
163 200 237
162 200 237
162 200 237
162 200 237
162 200 237
162 199 237
162 199 237
162 199 237
162 199 237
162 199 237
162 199 237
162 199 237
161 199 237
161 199 237
161 199 237
161 199 237
161 199 237
161 199 237
161 199 237
161 199 237
161 199 237
161 199 237
160 198 236
160 198 236
160 198 236
160 198 236
160 198 236
160 198 236
160 198 236
160 198 236
160 198 236
160 198 236
159 198 236
159 198 236
159 198 236
159 198 236
159 198 236
159 198 236
159 197 236
159 197 236
159 197 236
158 197 236
158 197 236
158 197 236
158 197 236
158 197 236
158 197 236
158 197 236
158 197 236
158 197 236
158 197 236
157 197 236
157 197 236
157 197 236
157 196 236
157 196 236
157 196 236
157 196 236
157 196 236
157 196 236
156 196 236
156 196 236
156 196 236
156 196 236
156 196 236
156 196 236
156 196 236
156 196 236
156 196 236
155 195 235
155 195 235
155 195 235
155 195 235
155 195 235
155 195 235
155 195 235
155 195 235
155 195 235
154 195 235
154 195 235
154 195 235
154 195 235
154 195 235
154 195 235
154 194 235
154 194 235
154 194 235
154 194 235
153 194 235
153 194 235
153 194 235
153 194 235
153 194 235
153 194 235
153 194 235
153 194 235
153 194 235
152 194 235
152 194 235
152 194 235
152 194 235
152 193 235
152 193 235
152 193 235
152 193 235
152 193 235
152 193 235
151 193 235
151 193 235
151 193 235
151 193 235
151 193 235
151 193 235
151 193 235
151 193 235
151 193 235
151 193 235
151 193 235
150 192 234
150 192 234
150 192 234
150 192 234
150 192 234
150 192 234
150 192 234
150 192 234
150 192 234
150 192 234
150 192 234
150 192 234
149 192 234
149 192 234
149 192 234
149 192 234
149 192 234
149 192 234
149 192 234
149 192 234
149 192 234
149 192 234
149 191 234
149 191 234
149 191 234
149 191 234
149 191 234
148 191 234
148 191 234
148 191 234
148 191 234
148 191 234
148 191 234
148 191 234
148 191 234
148 191 234
148 191 234
148 191 234
148 191 234
148 191 234
148 191 234
148 191 234
148 191 234
148 191 234
148 191 234
148 191 234
148 191 234
148 191 234
148 191 234
148 191 234
148 191 234
148 191 234
148 191 234
148 191 234
148 191 234
148 191 234
148 191 234
148 191 234
148 191 234
148 191 234
148 191 234
148 191 234
148 191 234
148 191 234
148 191 234
148 191 234
148 191 234
148 191 234
148 191 234
148 191 234
148 191 234
148 191 234
148 191 234
148 191 234
148 191 234
148 191 234
148 191 234
148 191 234
148 191 234
148 191 234
148 191 234
148 191 234
148 191 234
148 191 234
148 191 234
148 191 234
148 191 234
148 191 234
148 191 234
148 191 234
148 191 234
149 191 234
149 191 234
149 191 234
149 191 234
149 191 234
149 192 234
149 192 234
149 192 234
149 192 234
149 192 234
149 192 234
149 192 234
149 192 234
149 192 234
149 192 234
150 192 234
150 192 234
150 192 234
150 192 234
150 192 234
150 192 234
150 192 234
150 192 234
150 192 234
150 192 234
150 192 234
150 192 234
151 193 235
151 193 235
151 193 235
151 193 235
151 193 235
151 193 235
151 193 235
151 193 235
151 193 235
151 193 235
151 193 235
152 193 235
152 193 235
152 193 235
152 193 235
152 193 235
152 193 235
152 193 235
152 194 235
152 194 235
152 194 235
153 194 235
153 194 235
153 194 235
153 194 235
153 194 235
153 194 235
153 194 235
153 194 235
153 194 235
154 194 235
154 194 235
154 194 235
154 195 235
154 195 235
154 195 235
154 195 235
154 195 235
154 195 235
154 195 235
155 195 235
155 195 235
155 195 235
155 195 235
155 195 235
155 195 235
155 195 235
155 195 235
155 195 235
156 196 236
156 196 236
156 196 236
156 196 236
156 196 236
156 196 236
156 196 236
156 196 236
156 196 236
157 196 236
157 196 236
157 196 236
157 196 236
157 196 236
157 196 236
157 197 236
157 197 236
157 197 236
158 197 236
158 197 236
158 197 236
158 197 236
158 197 236
158 197 236
158 197 236
158 197 236
158 197 236
158 197 236
159 197 236
159 197 236
159 197 236
159 198 236
159 198 236
159 198 236
159 198 236
159 198 236
159 198 236
160 198 236
160 198 236
160 198 236
160 198 236
160 198 236
160 198 236
160 198 236
160 198 236
160 198 236
160 198 236
161 199 237
161 199 237
161 199 237
161 199 237
161 199 237
161 199 237
161 199 237
161 199 237
161 199 237
161 199 237
162 199 237
162 199 237
162 199 237
162 199 237
162 199 237
162 199 237
162 199 237
162 200 237
162 200 237
162 200 237
162 200 237
163 200 237
163 200 237
163 200 237
163 200 237
163 200 237
163 200 237
163 200 237
163 200 237
163 200 237
163 200 237
163 200 237
164 200 237
164 200 237
164 200 237
164 201 237
164 201 237
164 201 237
164 201 237
164 201 237
164 201 237
164 201 237
164 201 237
165 201 237
165 201 237
165 201 237
165 201 237
165 201 237
165 201 237
164 201 237
164 201 237
164 201 237
164 201 237
164 201 237
164 201 237
164 201 237
164 201 237
164 200 237
164 200 237
164 200 237
164 200 237
163 200 237
163 200 237
163 200 237
163 200 237
163 200 237
163 200 237
163 200 237
163 200 237
163 200 237
163 200 237
163 200 237
162 200 237
162 200 237
162 200 237
162 199 237
162 199 237
162 199 237
162 199 237
162 199 237
162 199 237
162 199 237
161 199 237
161 199 237
161 199 237
161 199 237
161 199 237
161 199 237
161 199 237
161 199 237
161 199 237
161 199 237
160 198 236
160 198 236
160 198 236
160 198 236
160 198 236
160 198 236
160 198 236
160 198 236
160 198 236
160 198 236
159 198 236
159 198 236
159 198 236
159 198 236
159 198 236
159 198 236
159 197 236
159 197 236
159 197 236
159 197 236
158 197 236
158 197 236
158 197 236
158 197 236
158 197 236
158 197 236
158 197 236
158 197 236
158 197 236
157 197 236
157 197 236
157 197 236
157 196 236
157 196 236
157 196 236
157 196 236
157 196 236
157 196 236
156 196 236
156 196 236
156 196 236
156 196 236
156 196 236
156 196 236
156 196 236
156 196 236
156 196 236
155 195 235
155 195 235
155 195 235
155 195 235
155 195 235
155 195 235
155 195 235
155 195 235
155 195 235
154 195 235
154 195 235
154 195 235
154 195 235
154 195 235
154 195 235
154 195 235
154 194 235
154 194 235
154 194 235
153 194 235
153 194 235
153 194 235
153 194 235
153 194 235
153 194 235
153 194 235
153 194 235
153 194 235
152 194 235
152 194 235
152 194 235
152 194 235
152 193 235
152 193 235
152 193 235
152 193 235
152 193 235
152 193 235
152 193 235
151 193 235
151 193 235
151 193 235
151 193 235
151 193 235
151 193 235
151 193 235
151 193 235
151 193 235
151 193 235
151 193 235
150 192 234
150 192 234
150 192 234
150 192 234
150 192 234
150 192 234
150 192 234
150 192 234
150 192 234
150 192 234
150 192 234
150 192 234
149 192 234
149 192 234
149 192 234
149 192 234
149 192 234
149 192 234
149 192 234
149 192 234
149 192 234
149 192 234
149 192 234
149 191 234
149 191 234
149 191 234
149 191 234
149 191 234
149 191 234
148 191 234
148 191 234
148 191 234
148 191 234
148 191 234
148 191 234
148 191 234
148 191 234
148 191 234
148 191 234
148 191 234
148 191 234
148 191 234
148 191 234
148 191 234
148 191 234
148 191 234
148 191 234
148 191 234
148 191 234
148 191 234
148 191 234
148 191 234
148 191 234
148 191 234
148 191 234
148 191 234
148 191 234
148 191 234
148 191 234
148 191 234
148 191 234
148 191 234
148 191 234
148 191 234
148 191 234
148 191 234
148 191 234
148 191 234
148 191 234
148 191 234
148 191 234
148 191 234
148 191 234
148 191 234
148 191 234
148 191 234
148 191 234
148 191 234
148 191 234
148 191 234
148 191 234
148 191 234
148 191 234
149 191 234
149 191 234
149 191 234
149 191 234
149 191 234
149 191 234
149 192 234
149 192 234
149 192 234
149 192 234
149 192 234
149 192 234
149 192 234
149 192 234
149 192 234
149 192 234
149 192 234
150 192 234
150 192 234
150 192 234
150 192 234
150 192 234
150 192 234
150 192 234
150 192 234
150 192 234
150 192 234
150 192 234
150 192 234
151 193 235
151 193 235
151 193 235
151 193 235
151 193 235
151 193 235
151 193 235
151 193 235
151 193 235
151 193 235
151 193 235
152 193 235
152 193 235
152 193 235
152 193 235
152 193 235
152 193 235
152 193 235
152 194 235
152 194 235
152 194 235
153 194 235
153 194 235
153 194 235
153 194 235
153 194 235
153 194 235
153 194 235
153 194 235
153 194 235
153 194 235
154 194 235
154 194 235
154 194 235
154 195 235
154 195 235
154 195 235
154 195 235
154 195 235
154 195 235
155 195 235
155 195 235
155 195 235
155 195 235
155 195 235
155 195 235
155 195 235
155 195 235
155 195 235
155 195 235
156 196 236
156 196 236
156 196 236
156 196 236
156 196 236
156 196 236
156 196 236
156 196 236
156 196 236
157 196 236
157 196 236
157 196 236
157 196 236
157 196 236
157 196 236
157 197 236
157 197 236
157 197 236
158 197 236
158 197 236
158 197 236
158 197 236
158 197 236
158 197 236
158 197 236
158 197 236
158 197 236
159 197 236
159 197 236
159 197 236
159 198 236
159 198 236
159 198 236
159 198 236
159 198 236
159 198 236
159 198 236
160 198 236
160 198 236
160 198 236
160 198 236
160 198 236
160 198 236
160 198 236
160 198 236
160 198 236
160 198 236
161 199 237
161 199 237
161 199 237
161 199 237
161 199 237
161 199 237
161 199 237
161 199 237
161 199 237
161 199 237
162 199 237
162 199 237
162 199 237
162 199 237
162 199 237
162 199 237
162 199 237
162 200 237
162 200 237
162 200 237
163 200 237
163 200 237
163 200 237
163 200 237
163 200 237
163 200 237
163 200 237
163 200 237
163 200 237
163 200 237
163 200 237
164 200 237
164 200 237
164 200 237
164 200 237
164 201 237
164 201 237
164 201 237
164 201 237
164 201 237
164 201 237
164 201 237
164 201 237
165 201 237
165 201 237
165 201 237
165 201 237
165 201 237
165 201 237
165 201 237
165 201 237
165 201 237
165 201 237
165 201 237
164 201 237
164 201 237
164 201 237
164 201 237
164 201 237
164 201 237
164 201 237
164 201 237
164 200 237
164 200 237
164 200 237
163 200 237
163 200 237
163 200 237
163 200 237
163 200 237
163 200 237
163 200 237
163 200 237
163 200 237
163 200 237
163 200 237
162 200 237
162 200 237
162 200 237
162 200 237
162 199 237
162 199 237
162 199 237
162 199 237
162 199 237
162 199 237
162 199 237
161 199 237
161 199 237
161 199 237
161 199 237
161 199 237
161 199 237
161 199 237
161 199 237
161 199 237
160 198 236
160 198 236
160 198 236
160 198 236
160 198 236
160 198 236
160 198 236
160 198 236
160 198 236
160 198 236
159 198 236
159 198 236
159 198 236
159 198 236
159 198 236
159 198 236
159 198 236
159 197 236
159 197 236
159 197 236
158 197 236
158 197 236
158 197 236
158 197 236
158 197 236
158 197 236
158 197 236
158 197 236
158 197 236
157 197 236
157 197 236
157 197 236
157 196 236
157 196 236
157 196 236
157 196 236
157 196 236
157 196 236
156 196 236
156 196 236
156 196 236
156 196 236
156 196 236
156 196 236
156 196 236
156 196 236
156 196 236
155 195 235
155 195 235
155 195 235
155 195 235
155 195 235
155 195 235
155 195 235
155 195 235
155 195 235
155 195 235
154 195 235
154 195 235
154 195 235
154 195 235
154 195 235
154 195 235
154 194 235
154 194 235
154 194 235
153 194 235
153 194 235
153 194 235
153 194 235
153 194 235
153 194 235
153 194 235
153 194 235
153 194 235
153 194 235
152 194 235
152 194 235
152 194 235
152 193 235
152 193 235
152 193 235
152 193 235
152 193 235
152 193 235
152 193 235
151 193 235
151 193 235
151 193 235
151 193 235
151 193 235
151 193 235
151 193 235
151 193 235
151 193 235
151 193 235
151 193 235
150 192 234
150 192 234
150 192 234
150 192 234
150 192 234
150 192 234
150 192 234
150 192 234
150 192 234
150 192 234
150 192 234
150 192 234
150 192 234
149 192 234
149 192 234
149 192 234
149 192 234
149 192 234
149 192 234
149 192 234
149 192 234
149 192 234
149 192 234
149 192 234
149 192 234
149 191 234
149 191 234
149 191 234
149 191 234
149 191 234
149 191 234
149 191 234
148 191 234
148 191 234
148 191 234
148 191 234
148 191 234
148 191 234
148 191 234
148 191 234
148 191 234
148 191 234
148 191 234
148 191 234
148 191 234
148 191 234
148 191 234
148 191 234
148 191 234
148 191 234
148 191 234
148 191 234
148 191 234
148 191 234
148 191 234
148 191 234
148 191 234
148 191 234
148 191 234
148 191 234
148 191 234
148 191 234
148 191 234
148 191 234
148 191 234
148 191 234
148 191 234
148 191 234
148 191 234
148 191 234
148 191 234
148 191 234
148 191 234
148 191 234
148 191 234
148 191 234
149 191 234
149 191 234
149 191 234
149 191 234
149 191 234
149 191 234
149 191 234
149 192 234
149 192 234
149 192 234
149 192 234
149 192 234
149 192 234
149 192 234
149 192 234
149 192 234
149 192 234
149 192 234
150 192 234
150 192 234
150 192 234
150 192 234
150 192 234
150 192 234
150 192 234
150 192 234
150 192 234
150 192 234
150 192 234
150 192 234
150 192 234
150 192 234
151 193 235
151 193 235
151 193 235
151 193 235
151 193 235
151 193 235
151 193 235
151 193 235
151 193 235
151 193 235
151 193 235
152 193 235
152 193 235
152 193 235
152 193 235
152 193 235
152 193 235
152 193 235
152 194 235
152 194 235
152 194 235
153 194 235
153 194 235
153 194 235
153 194 235
153 194 235
153 194 235
153 194 235
153 194 235
153 194 235
153 194 235
154 194 235
154 194 235
154 194 235
154 195 235
154 195 235
154 195 235
154 195 235
154 195 235
154 195 235
155 195 235
155 195 235
155 195 235
155 195 235
155 195 235
155 195 235
155 195 235
155 195 235
155 195 235
155 195 235
156 196 236
156 196 236
156 196 236
156 196 236
156 196 236
156 196 236
156 196 236
156 196 236
156 196 236
157 196 236
157 196 236
157 196 236
157 196 236
157 196 236
157 196 236
157 197 236
157 197 236
157 197 236
158 197 236
158 197 236
158 197 236
158 197 236
158 197 236
158 197 236
158 197 236
158 197 236
158 197 236
159 197 236
159 197 236
159 197 236
159 198 236
159 198 236
159 198 236
159 198 236
159 198 236
159 198 236
159 198 236
160 198 236
160 198 236
160 198 236
160 198 236
160 198 236
160 198 236
160 198 236
160 198 236
160 198 236
161 199 237
161 199 237
161 199 237
161 199 237
161 199 237
161 199 237
161 199 237
161 199 237
161 199 237
161 199 237
162 199 237
162 199 237
162 199 237
162 199 237
162 199 237
162 199 237
162 199 237
162 200 237
162 200 237
162 200 237
162 200 237
163 200 237
163 200 237
163 200 237
163 200 237
163 200 237
163 200 237
163 200 237
163 200 237
163 200 237
163 200 237
163 200 237
164 200 237
164 200 237
164 200 237
164 201 237
164 201 237
164 201 237
164 201 237
164 201 237
164 201 237
164 201 237
164 201 237
165 201 237
165 201 237
165 201 237
165 201 237
165 201 237
165 201 237
165 201 237
165 201 237
165 201 237
165 201 237
165 201 237
165 201 237
165 201 237
165 201 237
165 201 237
165 201 237
165 201 237
164 201 237
164 201 237
164 201 237
164 201 237
164 201 237
164 201 237
164 201 237
164 200 237
164 200 237
164 200 237
164 200 237
163 200 237
163 200 237
163 200 237
163 200 237
163 200 237
163 200 237
163 200 237
163 200 237
163 200 237
163 200 237
162 200 237
162 200 237
162 200 237
162 200 237
162 199 237
162 199 237
162 199 237
162 199 237
162 199 237
162 199 237
162 199 237
161 199 237
161 199 237
161 199 237
161 199 237
161 199 237
161 199 237
161 199 237
161 199 237
161 199 237
161 199 237
160 198 236
160 198 236
160 198 236
160 198 236
160 198 236
160 198 236
160 198 236
160 198 236
160 198 236
160 198 236
159 198 236
159 198 236
159 198 236
159 198 236
159 198 236
159 198 236
159 197 236
159 197 236
159 197 236
158 197 236
158 197 236
158 197 236
158 197 236
158 197 236
158 197 236
158 197 236
158 197 236
158 197 236
157 197 236
157 197 236
157 197 236
157 196 236
157 196 236
157 196 236
157 196 236
157 196 236
157 196 236
157 196 236
156 196 236
156 196 236
156 196 236
156 196 236
156 196 236
156 196 236
156 196 236
156 196 236
156 196 236
155 195 235
155 195 235
155 195 235
155 195 235
155 195 235
155 195 235
155 195 235
155 195 235
155 195 235
154 195 235
154 195 235
154 195 235
154 195 235
154 195 235
154 195 235
154 194 235
154 194 235
154 194 235
153 194 235
153 194 235
153 194 235
153 194 235
153 194 235
153 194 235
153 194 235
153 194 235
153 194 235
153 194 235
152 194 235
152 194 235
152 194 235
152 194 235
152 193 235
152 193 235
152 193 235
152 193 235
152 193 235
152 193 235
152 193 235
151 193 235
151 193 235
151 193 235
151 193 235
151 193 235
151 193 235
151 193 235
151 193 235
151 193 235
151 193 235
151 193 235
150 192 234
150 192 234
150 192 234
150 192 234
150 192 234
150 192 234
150 192 234
150 192 234
150 192 234
150 192 234
150 192 234
150 192 234
150 192 234
150 192 234
149 192 234
149 192 234
149 192 234
149 192 234
149 192 234
149 192 234
149 192 234
149 192 234
149 192 234
149 192 234
149 192 234
149 192 234
149 191 234
149 191 234
149 191 234
149 191 234
149 191 234
149 191 234
149 191 234
149 191 234
149 191 234
149 191 234
148 191 234
148 191 234
148 191 234
148 191 234
148 191 234
148 191 234
148 191 234
148 191 234
148 191 234
148 191 234
148 191 234
148 191 234
148 191 234
148 191 234
148 191 234
148 191 234
148 191 234
148 191 234
148 191 234
148 191 234
148 191 234
148 191 234
148 191 234
148 191 234
148 191 234
148 191 234
148 191 234
148 191 234
148 191 234
148 191 234
149 191 234
149 191 234
149 191 234
149 191 234
149 191 234
149 191 234
149 191 234
149 191 234
149 191 234
149 191 234
149 192 234
149 192 234
149 192 234
149 192 234
149 192 234
149 192 234
149 192 234
149 192 234
149 192 234
149 192 234
149 192 234
149 192 234
150 192 234
150 192 234
150 192 234
150 192 234
150 192 234
150 192 234
150 192 234
150 192 234
150 192 234
150 192 234
150 192 234
150 192 234
150 192 234
150 192 234
151 193 235
151 193 235
151 193 235
151 193 235
151 193 235
151 193 235
151 193 235
151 193 235
151 193 235
151 193 235
151 193 235
152 193 235
152 193 235
152 193 235
152 193 235
152 193 235
152 193 235
152 193 235
152 194 235
152 194 235
152 194 235
152 194 235
153 194 235
153 194 235
153 194 235
153 194 235
153 194 235
153 194 235
153 194 235
153 194 235
153 194 235
153 194 235
154 194 235
154 194 235
154 194 235
154 195 235
154 195 235
154 195 235
154 195 235
154 195 235
154 195 235
155 195 235
155 195 235
155 195 235
155 195 235
155 195 235
155 195 235
155 195 235
155 195 235
155 195 235
156 196 236
156 196 236
156 196 236
156 196 236
156 196 236
156 196 236
156 196 236
156 196 236
156 196 236
157 196 236
157 196 236
157 196 236
157 196 236
157 196 236
157 196 236
157 196 236
157 197 236
157 197 236
157 197 236
158 197 236
158 197 236
158 197 236
158 197 236
158 197 236
158 197 236
158 197 236
158 197 236
158 197 236
159 197 236
159 197 236
159 197 236
159 198 236
159 198 236
159 198 236
159 198 236
159 198 236
159 198 236
160 198 236
160 198 236
160 198 236
160 198 236
160 198 236
160 198 236
160 198 236
160 198 236
160 198 236
160 198 236
161 199 237
161 199 237
161 199 237
161 199 237
161 199 237
161 199 237
161 199 237
161 199 237
161 199 237
161 199 237
162 199 237
162 199 237
162 199 237
162 199 237
162 199 237
162 199 237
162 199 237
162 200 237
162 200 237
162 200 237
163 200 237
163 200 237
163 200 237
163 200 237
163 200 237
163 200 237
163 200 237
163 200 237
163 200 237
163 200 237
163 200 237
164 200 237
164 200 237
164 200 237
164 200 237
164 201 237
164 201 237
164 201 237
164 201 237
164 201 237
164 201 237
164 201 237
164 201 237
165 201 237
165 201 237
165 201 237
165 201 237
165 201 237
165 201 237
165 201 237
165 201 237
165 201 237
165 201 237
165 201 237
165 201 237
165 201 237
165 201 237
165 201 237
165 201 237
165 201 237
165 201 237
165 201 237
165 201 237
165 201 237
164 201 237
164 201 237
164 201 237
164 201 237
164 201 237
164 201 237
164 201 237
164 200 237
164 200 237
164 200 237
164 200 237
163 200 237
163 200 237
163 200 237
163 200 237
163 200 237
163 200 237
163 200 237
163 200 237
163 200 237
163 200 237
163 200 237
162 200 237
162 200 237
162 200 237
162 199 237
162 199 237
162 199 237
162 199 237
162 199 237
162 199 237
162 199 237
161 199 237
161 199 237
161 199 237
161 199 237
161 199 237
161 199 237
161 199 237
161 199 237
161 199 237
161 199 237
160 198 236
160 198 236
160 198 236
160 198 236
160 198 236
160 198 236
160 198 236
160 198 236
160 198 236
160 198 236
159 198 236
159 198 236
159 198 236
159 198 236
159 198 236
159 198 236
159 197 236
159 197 236
159 197 236
158 197 236
158 197 236
158 197 236
158 197 236
158 197 236
158 197 236
158 197 236
158 197 236
158 197 236
158 197 236
157 197 236
157 197 236
157 197 236
157 196 236
157 196 236
157 196 236
157 196 236
157 196 236
157 196 236
156 196 236
156 196 236
156 196 236
156 196 236
156 196 236
156 196 236
156 196 236
156 196 236
156 196 236
155 195 235
155 195 235
155 195 235
155 195 235
155 195 235
155 195 235
155 195 235
155 195 235
155 195 235
154 195 235
154 195 235
154 195 235
154 195 235
154 195 235
154 195 235
154 194 235
154 194 235
154 194 235
154 194 235
153 194 235
153 194 235
153 194 235
153 194 235
153 194 235
153 194 235
153 194 235
153 194 235
153 194 235
153 194 235
152 194 235
152 194 235
152 194 235
152 193 235
152 193 235
152 193 235
152 193 235
152 193 235
152 193 235
152 193 235
151 193 235
151 193 235
151 193 235
151 193 235
151 193 235
151 193 235
151 193 235
151 193 235
151 193 235
151 193 235
151 193 235
151 193 235
150 192 234
150 192 234
150 192 234
150 192 234
150 192 234
150 192 234
150 192 234
150 192 234
150 192 234
150 192 234
150 192 234
150 192 234
150 192 234
150 192 234
150 192 234
149 192 234
149 192 234
149 192 234
149 192 234
149 192 234
149 192 234
149 192 234
149 192 234
149 192 234
149 192 234
149 192 234
149 192 234
149 192 234
149 192 234
149 191 234
149 191 234
149 191 234
149 191 234
149 191 234
149 191 234
149 191 234
149 191 234
149 191 234
149 191 234
149 191 234
149 191 234
149 191 234
149 191 234
149 191 234
149 191 234
149 191 234
149 191 234
149 191 234
149 191 234
149 191 234
149 191 234
149 191 234
149 191 234
149 191 234
149 191 234
149 191 234
149 191 234
149 191 234
149 191 234
149 191 234
149 191 234
149 191 234
149 191 234
149 191 234
149 191 234
149 191 234
149 191 234
149 192 234
149 192 234
149 192 234
149 192 234
149 192 234
149 192 234
149 192 234
149 192 234
149 192 234
149 192 234
149 192 234
149 192 234
149 192 234
149 192 234
150 192 234
150 192 234
150 192 234
150 192 234
150 192 234
150 192 234
150 192 234
150 192 234
150 192 234
150 192 234
150 192 234
150 192 234
150 192 234
150 192 234
150 192 234
151 193 235
151 193 235
151 193 235
151 193 235
151 193 235
151 193 235
151 193 235
151 193 235
151 193 235
151 193 235
151 193 235
151 193 235
152 193 235
152 193 235
152 193 235
152 193 235
152 193 235
152 193 235
152 193 235
152 194 235
152 194 235
152 194 235
153 194 235
153 194 235
153 194 235
153 194 235
153 194 235
153 194 235
153 194 235
153 194 235
153 194 235
153 194 235
154 194 235
154 194 235
154 194 235
154 194 235
154 195 235
154 195 235
154 195 235
154 195 235
154 195 235
154 195 235
155 195 235
155 195 235
155 195 235
155 195 235
155 195 235
155 195 235
155 195 235
155 195 235
155 195 235
156 196 236
156 196 236
156 196 236
156 196 236
156 196 236
156 196 236
156 196 236
156 196 236
156 196 236
157 196 236
157 196 236
157 196 236
157 196 236
157 196 236
157 196 236
157 197 236
157 197 236
157 197 236
158 197 236
158 197 236
158 197 236
158 197 236
158 197 236
158 197 236
158 197 236
158 197 236
158 197 236
158 197 236
159 197 236
159 197 236
159 197 236
159 198 236
159 198 236
159 198 236
159 198 236
159 198 236
159 198 236
160 198 236
160 198 236
160 198 236
160 198 236
160 198 236
160 198 236
160 198 236
160 198 236
160 198 236
160 198 236
161 199 237
161 199 237
161 199 237
161 199 237
161 199 237
161 199 237
161 199 237
161 199 237
161 199 237
161 199 237
162 199 237
162 199 237
162 199 237
162 199 237
162 199 237
162 199 237
162 199 237
162 200 237
162 200 237
162 200 237
163 200 237
163 200 237
163 200 237
163 200 237
163 200 237
163 200 237
163 200 237
163 200 237
163 200 237
163 200 237
163 200 237
164 200 237
164 200 237
164 200 237
164 200 237
164 201 237
164 201 237
164 201 237
164 201 237
164 201 237
164 201 237
164 201 237
165 201 237
165 201 237
165 201 237
165 201 237
165 201 237
165 201 237
165 201 237
165 201 237
165 201 237
165 201 237
165 201 237
165 201 237
166 202 238
166 202 238
166 202 238
165 201 237
165 201 237
165 201 237
165 201 237
165 201 237
165 201 237
165 201 237
165 201 237
165 201 237
165 201 237
165 201 237
164 201 237
164 201 237
164 201 237
164 201 237
164 201 237
164 201 237
164 201 237
164 201 237
164 200 237
164 200 237
164 200 237
163 200 237
163 200 237
163 200 237
163 200 237
163 200 237
163 200 237
163 200 237
163 200 237
163 200 237
163 200 237
163 200 237
162 200 237
162 200 237
162 200 237
162 200 237
162 199 237
162 199 237
162 199 237
162 199 237
162 199 237
162 199 237
161 199 237
161 199 237
161 199 237
161 199 237
161 199 237
161 199 237
161 199 237
161 199 237
161 199 237
161 199 237
160 198 236
160 198 236
160 198 236
160 198 236
160 198 236
160 198 236
160 198 236
160 198 236
160 198 236
160 198 236
159 198 236
159 198 236
159 198 236
159 198 236
159 198 236
159 198 236
159 197 236
159 197 236
159 197 236
158 197 236
158 197 236
158 197 236
158 197 236
158 197 236
158 197 236
158 197 236
158 197 236
158 197 236
158 197 236
157 197 236
157 197 236
157 197 236
157 196 236
157 196 236
157 196 236
157 196 236
157 196 236
157 196 236
156 196 236
156 196 236
156 196 236
156 196 236
156 196 236
156 196 236
156 196 236
156 196 236
156 196 236
155 195 235
155 195 235
155 195 235
155 195 235
155 195 235
155 195 235
155 195 235
155 195 235
155 195 235
154 195 235
154 195 235
154 195 235
154 195 235
154 195 235
154 195 235
154 195 235
154 194 235
154 194 235
154 194 235
153 194 235
153 194 235
153 194 235
153 194 235
153 194 235
153 194 235
153 194 235
153 194 235
153 194 235
153 194 235
152 194 235
152 194 235
152 194 235
152 194 235
152 193 235
152 193 235
152 193 235
152 193 235
152 193 235
152 193 235
152 193 235
151 193 235
151 193 235
151 193 235
151 193 235
151 193 235
151 193 235
151 193 235
151 193 235
151 193 235
151 193 235
151 193 235
151 193 235
150 192 234
150 192 234
150 192 234
150 192 234
150 192 234
150 192 234
150 192 234
150 192 234
150 192 234
150 192 234
150 192 234
150 192 234
150 192 234
150 192 234
150 192 234
150 192 234
149 192 234
149 192 234
149 192 234
149 192 234
149 192 234
149 192 234
149 192 234
149 192 234
149 192 234
149 192 234
149 192 234
149 192 234
149 192 234
149 192 234
149 192 234
149 192 234
149 192 234
149 192 234
149 192 234
149 192 234
149 191 234
149 191 234
149 191 234
149 191 234
149 191 234
149 191 234
149 191 234
149 191 234
149 191 234
149 191 234
149 191 234
149 191 234
149 191 234
149 191 234
149 191 234
149 191 234
149 191 234
149 191 234
149 191 234
149 192 234
149 192 234
149 192 234
149 192 234
149 192 234
149 192 234
149 192 234
149 192 234
149 192 234
149 192 234
149 192 234
149 192 234
149 192 234
149 192 234
149 192 234
149 192 234
149 192 234
149 192 234
149 192 234
150 192 234
150 192 234
150 192 234
150 192 234
150 192 234
150 192 234
150 192 234
150 192 234
150 192 234
150 192 234
150 192 234
150 192 234
150 192 234
150 192 234
150 192 234
150 192 234
151 193 235
151 193 235
151 193 235
151 193 235
151 193 235
151 193 235
151 193 235
151 193 235
151 193 235
151 193 235
151 193 235
151 193 235
152 193 235
152 193 235
152 193 235
152 193 235
152 193 235
152 193 235
152 193 235
152 193 235
152 194 235
152 194 235
152 194 235
153 194 235
153 194 235
153 194 235
153 194 235
153 194 235
153 194 235
153 194 235
153 194 235
153 194 235
153 194 235
154 194 235
154 194 235
154 194 235
154 195 235
154 195 235
154 195 235
154 195 235
154 195 235
154 195 235
155 195 235
155 195 235
155 195 235
155 195 235
155 195 235
155 195 235
155 195 235
155 195 235
155 195 235
155 195 235
156 196 236
156 196 236
156 196 236
156 196 236
156 196 236
156 196 236
156 196 236
156 196 236
156 196 236
157 196 236
157 196 236
157 196 236
157 196 236
157 196 236
157 196 236
157 197 236
157 197 236
157 197 236
158 197 236
158 197 236
158 197 236
158 197 236
158 197 236
158 197 236
158 197 236
158 197 236
158 197 236
158 197 236
159 197 236
159 197 236
159 197 236
159 198 236
159 198 236
159 198 236
159 198 236
159 198 236
159 198 236
160 198 236
160 198 236
160 198 236
160 198 236
160 198 236
160 198 236
160 198 236
160 198 236
160 198 236
161 199 237
161 199 237
161 199 237
161 199 237
161 199 237
161 199 237
161 199 237
161 199 237
161 199 237
161 199 237
161 199 237
162 199 237
162 199 237
162 199 237
162 199 237
162 199 237
162 199 237
162 200 237
162 200 237
162 200 237
162 200 237
163 200 237
163 200 237
163 200 237
163 200 237
163 200 237
163 200 237
163 200 237
163 200 237
163 200 237
163 200 237
164 200 237
164 200 237
164 200 237
164 200 237
164 201 237
164 201 237
164 201 237
164 201 237
164 201 237
164 201 237
164 201 237
165 201 237
165 201 237
165 201 237
165 201 237
165 201 237
165 201 237
165 201 237
165 201 237
165 201 237
165 201 237
165 201 237
165 201 237
166 202 238
166 202 238
166 202 238
166 202 238
166 202 238
166 202 238
166 202 238
166 202 238
165 201 237
165 201 237
165 201 237
165 201 237
165 201 237
165 201 237
165 201 237
165 201 237
165 201 237
165 201 237
165 201 237
165 201 237
164 201 237
164 201 237
164 201 237
164 201 237
164 201 237
164 201 237
164 201 237
164 200 237
164 200 237
164 200 237
164 200 237
163 200 237
163 200 237
163 200 237
163 200 237
163 200 237
163 200 237
163 200 237
163 200 237
163 200 237
163 200 237
163 200 237
162 200 237
162 200 237
162 200 237
162 199 237
162 199 237
162 199 237
162 199 237
162 199 237
162 199 237
162 199 237
161 199 237
161 199 237
161 199 237
161 199 237
161 199 237
161 199 237
161 199 237
161 199 237
161 199 237
161 199 237
160 198 236
160 198 236
160 198 236
160 198 236
160 198 236
160 198 236
160 198 236
160 198 236
160 198 236
159 198 236
159 198 236
159 198 236
159 198 236
159 198 236
159 198 236
159 198 236
159 197 236
159 197 236
159 197 236
158 197 236
158 197 236
158 197 236
158 197 236
158 197 236
158 197 236
158 197 236
158 197 236
158 197 236
157 197 236
157 197 236
157 197 236
157 196 236
157 196 236
157 196 236
157 196 236
157 196 236
157 196 236
156 196 236
156 196 236
156 196 236
156 196 236
156 196 236
156 196 236
156 196 236
156 196 236
156 196 236
155 195 235
155 195 235
155 195 235
155 195 235
155 195 235
155 195 235
155 195 235
155 195 235
155 195 235
155 195 235
154 195 235
154 195 235
154 195 235
154 195 235
154 195 235
154 195 235
154 194 235
154 194 235
154 194 235
153 194 235
153 194 235
153 194 235
153 194 235
153 194 235
153 194 235
153 194 235
153 194 235
153 194 235
153 194 235
153 194 235
152 194 235
152 194 235
152 194 235
152 193 235
152 193 235
152 193 235
152 193 235
152 193 235
152 193 235
152 193 235
152 193 235
151 193 235
151 193 235
151 193 235
151 193 235
151 193 235
151 193 235
151 193 235
151 193 235
151 193 235
151 193 235
151 193 235
151 193 235
151 193 235
150 192 234
150 192 234
150 192 234
150 192 234
150 192 234
150 192 234
150 192 234
150 192 234
150 192 234
150 192 234
150 192 234
150 192 234
150 192 234
150 192 234
150 192 234
150 192 234
150 192 234
149 192 234
149 192 234
149 192 234
149 192 234
149 192 234
149 192 234
149 192 234
149 192 234
149 192 234
149 192 234
149 192 234
149 192 234
149 192 234
149 192 234
149 192 234
149 192 234
149 192 234
149 192 234
149 192 234
149 192 234
149 192 234
149 192 234
149 192 234
149 192 234
149 192 234
149 192 234
149 192 234
149 192 234
149 192 234
149 192 234
149 192 234
149 192 234
149 192 234
149 192 234
149 192 234
149 192 234
149 192 234
149 192 234
149 192 234
149 192 234
149 192 234
149 192 234
149 192 234
149 192 234
149 192 234
149 192 234
149 192 234
149 192 234
150 192 234
150 192 234
150 192 234
150 192 234
150 192 234
150 192 234
150 192 234
150 192 234
150 192 234
150 192 234
150 192 234
150 192 234
150 192 234
150 192 234
150 192 234
150 192 234
150 192 234
151 193 235
151 193 235
151 193 235
151 193 235
151 193 235
151 193 235
151 193 235
151 193 235
151 193 235
151 193 235
151 193 235
151 193 235
151 193 235
152 193 235
152 193 235
152 193 235
152 193 235
152 193 235
152 193 235
152 193 235
152 193 235
152 194 235
152 194 235
152 194 235
153 194 235
153 194 235
153 194 235
153 194 235
153 194 235
153 194 235
153 194 235
153 194 235
153 194 235
153 194 235
154 194 235
154 194 235
154 194 235
154 194 235
154 195 235
154 195 235
154 195 235
154 195 235
154 195 235
154 195 235
155 195 235
155 195 235
155 195 235
155 195 235
155 195 235
155 195 235
155 195 235
155 195 235
155 195 235
155 195 235
156 196 236
156 196 236
156 196 236
156 196 236
156 196 236
156 196 236
156 196 236
156 196 236
156 196 236
157 196 236
157 196 236
157 196 236
157 196 236
157 196 236
157 196 236
157 197 236
157 197 236
157 197 236
158 197 236
158 197 236
158 197 236
158 197 236
158 197 236
158 197 236
158 197 236
158 197 236
158 197 236
159 197 236
159 197 236
159 197 236
159 198 236
159 198 236
159 198 236
159 198 236
159 198 236
159 198 236
159 198 236
160 198 236
160 198 236
160 198 236
160 198 236
160 198 236
160 198 236
160 198 236
160 198 236
160 198 236
161 199 237
161 199 237
161 199 237
161 199 237
161 199 237
161 199 237
161 199 237
161 199 237
161 199 237
161 199 237
162 199 237
162 199 237
162 199 237
162 199 237
162 199 237
162 199 237
162 199 237
162 200 237
162 200 237
162 200 237
163 200 237
163 200 237
163 200 237
163 200 237
163 200 237
163 200 237
163 200 237
163 200 237
163 200 237
163 200 237
163 200 237
164 200 237
164 200 237
164 200 237
164 200 237
164 201 237
164 201 237
164 201 237
164 201 237
164 201 237
164 201 237
164 201 237
165 201 237
165 201 237
165 201 237
165 201 237
165 201 237
165 201 237
165 201 237
165 201 237
165 201 237
165 201 237
165 201 237
165 201 237
166 202 238
166 202 238
166 202 238
166 202 238
166 202 238
166 202 238
166 202 238
166 202 238
166 202 238
166 202 238
166 202 238
166 202 238
166 202 238
165 201 237
165 201 237
165 201 237
165 201 237
165 201 237
165 201 237
165 201 237
165 201 237
165 201 237
165 201 237
165 201 237
164 201 237
164 201 237
164 201 237
164 201 237
164 201 237
164 201 237
164 201 237
164 201 237
164 200 237
164 200 237
164 200 237
163 200 237
163 200 237
163 200 237
163 200 237
163 200 237
163 200 237
163 200 237
163 200 237
163 200 237
163 200 237
163 200 237
162 200 237
162 200 237
162 200 237
162 199 237
162 199 237
162 199 237
162 199 237
162 199 237
162 199 237
162 199 237
161 199 237
161 199 237
161 199 237
161 199 237
161 199 237
161 199 237
161 199 237
161 199 237
161 199 237
161 199 237
160 198 236
160 198 236
160 198 236
160 198 236
160 198 236
160 198 236
160 198 236
160 198 236
160 198 236
160 198 236
159 198 236
159 198 236
159 198 236
159 198 236
159 198 236
159 198 236
159 197 236
159 197 236
159 197 236
158 197 236
158 197 236
158 197 236
158 197 236
158 197 236
158 197 236
158 197 236
158 197 236
158 197 236
157 197 236
157 197 236
157 197 236
157 196 236
157 196 236
157 196 236
157 196 236
157 196 236
157 196 236
156 196 236
156 196 236
156 196 236
156 196 236
156 196 236
156 196 236
156 196 236
156 196 236
156 196 236
156 196 236
155 195 235
155 195 235
155 195 235
155 195 235
155 195 235
155 195 235
155 195 235
155 195 235
155 195 235
154 195 235
154 195 235
154 195 235
154 195 235
154 195 235
154 195 235
154 195 235
154 194 235
154 194 235
154 194 235
153 194 235
153 194 235
153 194 235
153 194 235
153 194 235
153 194 235
153 194 235
153 194 235
153 194 235
153 194 235
152 194 235
152 194 235
152 194 235
152 194 235
152 193 235
152 193 235
152 193 235
152 193 235
152 193 235
152 193 235
152 193 235
152 193 235
151 193 235
151 193 235
151 193 235
151 193 235
151 193 235
151 193 235
151 193 235
151 193 235
151 193 235
151 193 235
151 193 235
151 193 235
151 193 235
150 192 234
150 192 234
150 192 234
150 192 234
150 192 234
150 192 234
150 192 234
150 192 234
150 192 234
150 192 234
150 192 234
150 192 234
150 192 234
150 192 234
150 192 234
150 192 234
150 192 234
150 192 234
150 192 234
150 192 234
150 192 234
149 192 234
149 192 234
149 192 234
149 192 234
149 192 234
149 192 234
149 192 234
149 192 234
149 192 234
149 192 234
149 192 234
149 192 234
149 192 234
149 192 234
149 192 234
149 192 234
149 192 234
149 192 234
149 192 234
149 192 234
149 192 234
149 192 234
149 192 234
149 192 234
149 192 234
149 192 234
149 192 234
149 192 234
149 192 234
149 192 234
149 192 234
149 192 234
149 192 234
149 192 234
150 192 234
150 192 234
150 192 234
150 192 234
150 192 234
150 192 234
150 192 234
150 192 234
150 192 234
150 192 234
150 192 234
150 192 234
150 192 234
150 192 234
150 192 234
150 192 234
150 192 234
150 192 234
150 192 234
150 192 234
150 192 234
151 193 235
151 193 235
151 193 235
151 193 235
151 193 235
151 193 235
151 193 235
151 193 235
151 193 235
151 193 235
151 193 235
151 193 235
151 193 235
152 193 235
152 193 235
152 193 235
152 193 235
152 193 235
152 193 235
152 193 235
152 193 235
152 194 235
152 194 235
152 194 235
152 194 235
153 194 235
153 194 235
153 194 235
153 194 235
153 194 235
153 194 235
153 194 235
153 194 235
153 194 235
153 194 235
154 194 235
154 194 235
154 194 235
154 195 235
154 195 235
154 195 235
154 195 235
154 195 235
154 195 235
154 195 235
155 195 235
155 195 235
155 195 235
155 195 235
155 195 235
155 195 235
155 195 235
155 195 235
155 195 235
156 196 236
156 196 236
156 196 236
156 196 236
156 196 236
156 196 236
156 196 236
156 196 236
156 196 236
157 196 236
157 196 236
157 196 236
157 196 236
157 196 236
157 196 236
157 196 236
157 197 236
157 197 236
157 197 236
158 197 236
158 197 236
158 197 236
158 197 236
158 197 236
158 197 236
158 197 236
158 197 236
158 197 236
159 197 236
159 197 236
159 197 236
159 198 236
159 198 236
159 198 236
159 198 236
159 198 236
159 198 236
160 198 236
160 198 236
160 198 236
160 198 236
160 198 236
160 198 236
160 198 236
160 198 236
160 198 236
160 198 236
161 199 237
161 199 237
161 199 237
161 199 237
161 199 237
161 199 237
161 199 237
161 199 237
161 199 237
161 199 237
162 199 237
162 199 237
162 199 237
162 199 237
162 199 237
162 199 237
162 199 237
162 200 237
162 200 237
162 200 237
163 200 237
163 200 237
163 200 237
163 200 237
163 200 237
163 200 237
163 200 237
163 200 237
163 200 237
163 200 237
163 200 237
164 200 237
164 200 237
164 200 237
164 201 237
164 201 237
164 201 237
164 201 237
164 201 237
164 201 237
164 201 237
164 201 237
165 201 237
165 201 237
165 201 237
165 201 237
165 201 237
165 201 237
165 201 237
165 201 237
165 201 237
165 201 237
165 201 237
166 202 238
166 202 238
166 202 238
166 202 238
166 202 238
166 202 238
166 202 238
166 202 238
166 202 238
166 202 238
166 202 238
166 202 238
166 202 238
166 202 238
166 202 238
166 202 238
166 202 238
166 202 238
165 201 237
165 201 237
165 201 237
165 201 237
165 201 237
165 201 237
165 201 237
165 201 237
165 201 237
165 201 237
165 201 237
165 201 237
164 201 237
164 201 237
164 201 237
164 201 237
164 201 237
164 201 237
164 201 237
164 200 237
164 200 237
164 200 237
164 200 237
163 200 237
163 200 237
163 200 237
163 200 237
163 200 237
163 200 237
163 200 237
163 200 237
163 200 237
163 200 237
162 200 237
162 200 237
162 200 237
162 200 237
162 199 237
162 199 237
162 199 237
162 199 237
162 199 237
162 199 237
162 199 237
161 199 237
161 199 237
161 199 237
161 199 237
161 199 237
161 199 237
161 199 237
161 199 237
161 199 237
160 198 236
160 198 236
160 198 236
160 198 236
160 198 236
160 198 236
160 198 236
160 198 236
160 198 236
160 198 236
159 198 236
159 198 236
159 198 236
159 198 236
159 198 236
159 198 236
159 197 236
159 197 236
159 197 236
158 197 236
158 197 236
158 197 236
158 197 236
158 197 236
158 197 236
158 197 236
158 197 236
158 197 236
157 197 236
157 197 236
157 197 236
157 197 236
157 196 236
157 196 236
157 196 236
157 196 236
157 196 236
157 196 236
156 196 236
156 196 236
156 196 236
156 196 236
156 196 236
156 196 236
156 196 236
156 196 236
156 196 236
155 195 235
155 195 235
155 195 235
155 195 235
155 195 235
155 195 235
155 195 235
155 195 235
155 195 235
154 195 235
154 195 235
154 195 235
154 195 235
154 195 235
154 195 235
154 195 235
154 194 235
154 194 235
154 194 235
153 194 235
153 194 235
153 194 235
153 194 235
153 194 235
153 194 235
153 194 235
153 194 235
153 194 235
153 194 235
153 194 235
152 194 235
152 194 235
152 194 235
152 194 235
152 193 235
152 193 235
152 193 235
152 193 235
152 193 235
152 193 235
152 193 235
152 193 235
151 193 235
151 193 235
151 193 235
151 193 235
151 193 235
151 193 235
151 193 235
151 193 235
151 193 235
151 193 235
151 193 235
151 193 235
151 193 235
151 193 235
150 192 234
150 192 234
150 192 234
150 192 234
150 192 234
150 192 234
150 192 234
150 192 234
150 192 234
150 192 234
150 192 234
150 192 234
150 192 234
150 192 234
150 192 234
150 192 234
150 192 234
150 192 234
150 192 234
150 192 234
150 192 234
150 192 234
150 192 234
150 192 234
150 192 234
150 192 234
150 192 234
150 192 234
149 192 234
149 192 234
149 192 234
149 192 234
149 192 234
149 192 234
149 192 234
149 192 234
149 192 234
149 192 234
149 192 234
149 192 234
149 192 234
150 192 234
150 192 234
150 192 234
150 192 234
150 192 234
150 192 234
150 192 234
150 192 234
150 192 234
150 192 234
150 192 234
150 192 234
150 192 234
150 192 234
150 192 234
150 192 234
150 192 234
150 192 234
150 192 234
150 192 234
150 192 234
150 192 234
150 192 234
150 192 234
150 192 234
150 192 234
150 192 234
151 193 235
151 193 235
151 193 235
151 193 235
151 193 235
151 193 235
151 193 235
151 193 235
151 193 235
151 193 235
151 193 235
151 193 235
151 193 235
151 193 235
152 193 235
152 193 235
152 193 235
152 193 235
152 193 235
152 193 235
152 193 235
152 193 235
152 194 235
152 194 235
152 194 235
152 194 235
153 194 235
153 194 235
153 194 235
153 194 235
153 194 235
153 194 235
153 194 235
153 194 235
153 194 235
153 194 235
153 194 235
154 194 235
154 194 235
154 194 235
154 195 235
154 195 235
154 195 235
154 195 235
154 195 235
154 195 235
154 195 235
155 195 235
155 195 235
155 195 235
155 195 235
155 195 235
155 195 235
155 195 235
155 195 235
155 195 235
156 196 236
156 196 236
156 196 236
156 196 236
156 196 236
156 196 236
156 196 236
156 196 236
156 196 236
157 196 236
157 196 236
157 196 236
157 196 236
157 196 236
157 196 236
157 197 236
157 197 236
157 197 236
157 197 236
158 197 236
158 197 236
158 197 236
158 197 236
158 197 236
158 197 236
158 197 236
158 197 236
158 197 236
159 197 236
159 197 236
159 197 236
159 198 236
159 198 236
159 198 236
159 198 236
159 198 236
159 198 236
160 198 236
160 198 236
160 198 236
160 198 236
160 198 236
160 198 236
160 198 236
160 198 236
160 198 236
160 198 236
161 199 237
161 199 237
161 199 237
161 199 237
161 199 237
161 199 237
161 199 237
161 199 237
161 199 237
162 199 237
162 199 237
162 199 237
162 199 237
162 199 237
162 199 237
162 199 237
162 200 237
162 200 237
162 200 237
162 200 237
163 200 237
163 200 237
163 200 237
163 200 237
163 200 237
163 200 237
163 200 237
163 200 237
163 200 237
163 200 237
164 200 237
164 200 237
164 200 237
164 200 237
164 201 237
164 201 237
164 201 237
164 201 237
164 201 237
164 201 237
164 201 237
165 201 237
165 201 237
165 201 237
165 201 237
165 201 237
165 201 237
165 201 237
165 201 237
165 201 237
165 201 237
165 201 237
166 202 238
166 202 238
166 202 238
166 202 238
166 202 238
166 202 238
166 202 238
166 202 238
166 202 238
166 202 238
166 202 238
167 202 238
166 202 238
166 202 238
166 202 238
166 202 238
166 202 238
166 202 238
166 202 238
166 202 238
166 202 238
166 202 238
166 202 238
166 202 238
165 201 237
165 201 237
165 201 237
165 201 237
165 201 237
165 201 237
165 201 237
165 201 237
165 201 237
165 201 237
165 201 237
165 201 237
164 201 237
164 201 237
164 201 237
164 201 237
164 201 237
164 201 237
164 201 237
164 200 237
164 200 237
164 200 237
163 200 237
163 200 237
163 200 237
163 200 237
163 200 237
163 200 237
163 200 237
163 200 237
163 200 237
163 200 237
163 200 237
162 200 237
162 200 237
162 200 237
162 199 237
162 199 237
162 199 237
162 199 237
162 199 237
162 199 237
162 199 237
161 199 237
161 199 237
161 199 237
161 199 237
161 199 237
161 199 237
161 199 237
161 199 237
161 199 237
161 199 237
160 198 236
160 198 236
160 198 236
160 198 236
160 198 236
160 198 236
160 198 236
160 198 236
160 198 236
159 198 236
159 198 236
159 198 236
159 198 236
159 198 236
159 198 236
159 198 236
159 197 236
159 197 236
159 197 236
158 197 236
158 197 236
158 197 236
158 197 236
158 197 236
158 197 236
158 197 236
158 197 236
158 197 236
157 197 236
157 197 236
157 197 236
157 196 236
157 196 236
157 196 236
157 196 236
157 196 236
157 196 236
156 196 236
156 196 236
156 196 236
156 196 236
156 196 236
156 196 236
156 196 236
156 196 236
156 196 236
155 195 235
155 195 235
155 195 235
155 195 235
155 195 235
155 195 235
155 195 235
155 195 235
155 195 235
155 195 235
154 195 235
154 195 235
154 195 235
154 195 235
154 195 235
154 195 235
154 195 235
154 194 235
154 194 235
154 194 235
153 194 235
153 194 235
153 194 235
153 194 235
153 194 235
153 194 235
153 194 235
153 194 235
153 194 235
153 194 235
153 194 235
152 194 235
152 194 235
152 194 235
152 194 235
152 193 235
152 193 235
152 193 235
152 193 235
152 193 235
152 193 235
152 193 235
152 193 235
151 193 235
151 193 235
151 193 235
151 193 235
151 193 235
151 193 235
151 193 235
151 193 235
151 193 235
151 193 235
151 193 235
151 193 235
151 193 235
151 193 235
151 193 235
151 193 235
150 192 234
150 192 234
150 192 234
150 192 234
150 192 234
150 192 234
150 192 234
150 192 234
150 192 234
150 192 234
150 192 234
150 192 234
150 192 234
150 192 234
150 192 234
150 192 234
150 192 234
150 192 234
150 192 234
150 192 234
150 192 234
150 192 234
150 192 234
150 192 234
150 192 234
150 192 234
150 192 234
150 192 234
150 192 234
150 192 234
150 192 234
150 192 234
150 192 234
150 192 234
150 192 234
150 192 234
150 192 234
150 192 234
150 192 234
150 192 234
150 192 234
150 192 234
150 192 234
150 192 234
150 192 234
150 192 234
150 192 234
150 192 234
150 192 234
150 192 234
150 192 234
150 192 234
150 192 234
150 192 234
150 192 234
150 192 234
150 192 234
150 192 234
150 192 234
151 193 235
151 193 235
151 193 235
151 193 235
151 193 235
151 193 235
151 193 235
151 193 235
151 193 235
151 193 235
151 193 235
151 193 235
151 193 235
151 193 235
151 193 235
152 193 235
152 193 235
152 193 235
152 193 235
152 193 235
152 193 235
152 193 235
152 193 235
152 194 235
152 194 235
152 194 235
152 194 235
153 194 235
153 194 235
153 194 235
153 194 235
153 194 235
153 194 235
153 194 235
153 194 235
153 194 235
153 194 235
153 194 235
154 194 235
154 194 235
154 194 235
154 195 235
154 195 235
154 195 235
154 195 235
154 195 235
154 195 235
154 195 235
155 195 235
155 195 235
155 195 235
155 195 235
155 195 235
155 195 235
155 195 235
155 195 235
155 195 235
155 195 235
156 196 236
156 196 236
156 196 236
156 196 236
156 196 236
156 196 236
156 196 236
156 196 236
156 196 236
157 196 236
157 196 236
157 196 236
157 196 236
157 196 236
157 196 236
157 197 236
157 197 236
157 197 236
158 197 236
158 197 236
158 197 236
158 197 236
158 197 236
158 197 236
158 197 236
158 197 236
158 197 236
159 197 236
159 197 236
159 197 236
159 198 236
159 198 236
159 198 236
159 198 236
159 198 236
159 198 236
159 198 236
160 198 236
160 198 236
160 198 236
160 198 236
160 198 236
160 198 236
160 198 236
160 198 236
160 198 236
161 199 237
161 199 237
161 199 237
161 199 237
161 199 237
161 199 237
161 199 237
161 199 237
161 199 237
161 199 237
162 199 237
162 199 237
162 199 237
162 199 237
162 199 237
162 199 237
162 199 237
162 200 237
162 200 237
162 200 237
163 200 237
163 200 237
163 200 237
163 200 237
163 200 237
163 200 237
163 200 237
163 200 237
163 200 237
163 200 237
163 200 237
164 200 237
164 200 237
164 200 237
164 201 237
164 201 237
164 201 237
164 201 237
164 201 237
164 201 237
164 201 237
165 201 237
165 201 237
165 201 237
165 201 237
165 201 237
165 201 237
165 201 237
165 201 237
165 201 237
165 201 237
165 201 237
165 201 237
166 202 238
166 202 238
166 202 238
166 202 238
166 202 238
166 202 238
166 202 238
166 202 238
166 202 238
166 202 238
166 202 238
166 202 238
167 202 238
167 202 238
167 202 238
167 202 238
167 202 238
166 202 238
166 202 238
166 202 238
166 202 238
166 202 238
166 202 238
166 202 238
166 202 238
166 202 238
166 202 238
166 202 238
166 202 238
165 201 237
165 201 237
165 201 237
165 201 237
165 201 237
165 201 237
165 201 237
165 201 237
165 201 237
165 201 237
165 201 237
164 201 237
164 201 237
164 201 237
164 201 237
164 201 237
164 201 237
164 201 237
164 200 237
164 200 237
164 200 237
164 200 237
163 200 237
163 200 237
163 200 237
163 200 237
163 200 237
163 200 237
163 200 237
163 200 237
163 200 237
163 200 237
162 200 237
162 200 237
162 200 237
162 200 237
162 199 237
162 199 237
162 199 237
162 199 237
162 199 237
162 199 237
161 199 237
161 199 237
161 199 237
161 199 237
161 199 237
161 199 237
161 199 237
161 199 237
161 199 237
161 199 237
160 198 236
160 198 236
160 198 236
160 198 236
160 198 236
160 198 236
160 198 236
160 198 236
160 198 236
160 198 236
159 198 236
159 198 236
159 198 236
159 198 236
159 198 236
159 198 236
159 197 236
159 197 236
159 197 236
158 197 236
158 197 236
158 197 236
158 197 236
158 197 236
158 197 236
158 197 236
158 197 236
158 197 236
157 197 236
157 197 236
157 197 236
157 196 236
157 196 236
157 196 236
157 196 236
157 196 236
157 196 236
156 196 236
156 196 236
156 196 236
156 196 236
156 196 236
156 196 236
156 196 236
156 196 236
156 196 236
156 196 236
155 195 235
155 195 235
155 195 235
155 195 235
155 195 235
155 195 235
155 195 235
155 195 235
155 195 235
154 195 235
154 195 235
154 195 235
154 195 235
154 195 235
154 195 235
154 195 235
154 194 235
154 194 235
154 194 235
154 194 235
153 194 235
153 194 235
153 194 235
153 194 235
153 194 235
153 194 235
153 194 235
153 194 235
153 194 235
153 194 235
152 194 235
152 194 235
152 194 235
152 194 235
152 194 235
152 193 235
152 193 235
152 193 235
152 193 235
152 193 235
152 193 235
152 193 235
152 193 235
151 193 235
151 193 235
151 193 235
151 193 235
151 193 235
151 193 235
151 193 235
151 193 235
151 193 235
151 193 235
151 193 235
151 193 235
151 193 235
151 193 235
151 193 235
151 193 235
151 193 235
151 193 235
150 192 234
150 192 234
150 192 234
150 192 234
150 192 234
150 192 234
150 192 234
150 192 234
150 192 234
150 192 234
150 192 234
150 192 234
150 192 234
150 192 234
150 192 234
150 192 234
150 192 234
150 192 234
150 192 234
150 192 234
150 192 234
150 192 234
150 192 234
150 192 234
150 192 234
150 192 234
150 192 234
150 192 234
150 192 234
150 192 234
150 192 234
150 192 234
150 192 234
150 192 234
150 192 234
150 192 234
150 192 234
150 192 234
150 192 234
150 192 234
150 192 234
150 192 234
150 192 234
150 192 234
150 192 234
150 192 234
150 192 234
150 192 234
151 193 235
151 193 235
151 193 235
151 193 235
151 193 235
151 193 235
151 193 235
151 193 235
151 193 235
151 193 235
151 193 235
151 193 235
151 193 235
151 193 235
151 193 235
151 193 235
151 193 235
152 193 235
152 193 235
152 193 235
152 193 235
152 193 235
152 193 235
152 193 235
152 193 235
152 193 235
152 194 235
152 194 235
152 194 235
152 194 235
153 194 235
153 194 235
153 194 235
153 194 235
153 194 235
153 194 235
153 194 235
153 194 235
153 194 235
153 194 235
153 194 235
154 194 235
154 194 235
154 194 235
154 194 235
154 195 235
154 195 235
154 195 235
154 195 235
154 195 235
154 195 235
154 195 235
155 195 235
155 195 235
155 195 235
155 195 235
155 195 235
155 195 235
155 195 235
155 195 235
155 195 235
156 196 236
156 196 236
156 196 236
156 196 236
156 196 236
156 196 236
156 196 236
156 196 236
156 196 236
156 196 236
157 196 236
157 196 236
157 196 236
157 196 236
157 196 236
157 196 236
157 197 236
157 197 236
157 197 236
158 197 236
158 197 236
158 197 236
158 197 236
158 197 236
158 197 236
158 197 236
158 197 236
158 197 236
159 197 236
159 197 236
159 197 236
159 198 236
159 198 236
159 198 236
159 198 236
159 198 236
159 198 236
160 198 236
160 198 236
160 198 236
160 198 236
160 198 236
160 198 236
160 198 236
160 198 236
160 198 236
160 198 236
161 199 237
161 199 237
161 199 237
161 199 237
161 199 237
161 199 237
161 199 237
161 199 237
161 199 237
161 199 237
162 199 237
162 199 237
162 199 237
162 199 237
162 199 237
162 199 237
162 200 237
162 200 237
162 200 237
162 200 237
163 200 237
163 200 237
163 200 237
163 200 237
163 200 237
163 200 237
163 200 237
163 200 237
163 200 237
163 200 237
164 200 237
164 200 237
164 200 237
164 200 237
164 201 237
164 201 237
164 201 237
164 201 237
164 201 237
164 201 237
164 201 237
165 201 237
165 201 237
165 201 237
165 201 237
165 201 237
165 201 237
165 201 237
165 201 237
165 201 237
165 201 237
165 201 237
166 202 238
166 202 238
166 202 238
166 202 238
166 202 238
166 202 238
166 202 238
166 202 238
166 202 238
166 202 238
166 202 238
166 202 238
167 202 238
167 202 238
167 202 238
167 202 238
167 202 238
167 202 238
167 202 238
167 202 238
167 202 238
167 202 238
167 202 238
166 202 238
166 202 238
166 202 238
166 202 238
166 202 238
166 202 238
166 202 238
166 202 238
166 202 238
166 202 238
166 202 238
165 201 237
165 201 237
165 201 237
165 201 237
165 201 237
165 201 237
165 201 237
165 201 237
165 201 237
165 201 237
165 201 237
165 201 237
164 201 237
164 201 237
164 201 237
164 201 237
164 201 237
164 201 237
164 201 237
164 200 237
164 200 237
164 200 237
163 200 237
163 200 237
163 200 237
163 200 237
163 200 237
163 200 237
163 200 237
163 200 237
163 200 237
163 200 237
163 200 237
162 200 237
162 200 237
162 200 237
162 199 237
162 199 237
162 199 237
162 199 237
162 199 237
162 199 237
162 199 237
161 199 237
161 199 237
161 199 237
161 199 237
161 199 237
161 199 237
161 199 237
161 199 237
161 199 237
160 198 236
160 198 236
160 198 236
160 198 236
160 198 236
160 198 236
160 198 236
160 198 236
160 198 236
160 198 236
159 198 236
159 198 236
159 198 236
159 198 236
159 198 236
159 198 236
159 197 236
159 197 236
159 197 236
158 197 236
158 197 236
158 197 236
158 197 236
158 197 236
158 197 236
158 197 236
158 197 236
158 197 236
158 197 236
157 197 236
157 197 236
157 197 236
157 196 236
157 196 236
157 196 236
157 196 236
157 196 236
157 196 236
156 196 236
156 196 236
156 196 236
156 196 236
156 196 236
156 196 236
156 196 236
156 196 236
156 196 236
155 195 235
155 195 235
155 195 235
155 195 235
155 195 235
155 195 235
155 195 235
155 195 235
155 195 235
155 195 235
154 195 235
154 195 235
154 195 235
154 195 235
154 195 235
154 195 235
154 195 235
154 194 235
154 194 235
154 194 235
153 194 235
153 194 235
153 194 235
153 194 235
153 194 235
153 194 235
153 194 235
153 194 235
153 194 235
153 194 235
153 194 235
153 194 235
152 194 235
152 194 235
152 194 235
152 194 235
152 193 235
152 193 235
152 193 235
152 193 235
152 193 235
152 193 235
152 193 235
152 193 235
152 193 235
152 193 235
151 193 235
151 193 235
151 193 235
151 193 235
151 193 235
151 193 235
151 193 235
151 193 235
151 193 235
151 193 235
151 193 235
151 193 235
151 193 235
151 193 235
151 193 235
151 193 235
151 193 235
151 193 235
151 193 235
150 192 234
150 192 234
150 192 234
150 192 234
150 192 234
150 192 234
150 192 234
150 192 234
150 192 234
150 192 234
150 192 234
150 192 234
150 192 234
150 192 234
150 192 234
150 192 234
150 192 234
150 192 234
150 192 234
150 192 234
150 192 234
150 192 234
150 192 234
150 192 234
150 192 234
150 192 234
150 192 234
150 192 234
150 192 234
150 192 234
150 192 234
150 192 234
150 192 234
150 192 234
150 192 234
151 193 235
151 193 235
151 193 235
151 193 235
151 193 235
151 193 235
151 193 235
151 193 235
151 193 235
151 193 235
151 193 235
151 193 235
151 193 235
151 193 235
151 193 235
151 193 235
151 193 235
151 193 235
151 193 235
151 193 235
151 193 235
152 193 235
152 193 235
152 193 235
152 193 235
152 193 235
152 193 235
152 193 235
152 193 235
152 193 235
152 194 235
152 194 235
152 194 235
152 194 235
153 194 235
153 194 235
153 194 235
153 194 235
153 194 235
153 194 235
153 194 235
153 194 235
153 194 235
153 194 235
153 194 235
153 194 235
154 194 235
154 194 235
154 194 235
154 195 235
154 195 235
154 195 235
154 195 235
154 195 235
154 195 235
154 195 235
155 195 235
155 195 235
155 195 235
155 195 235
155 195 235
155 195 235
155 195 235
155 195 235
155 195 235
155 195 235
156 196 236
156 196 236
156 196 236
156 196 236
156 196 236
156 196 236
156 196 236
156 196 236
156 196 236
157 196 236
157 196 236
157 196 236
157 196 236
157 196 236
157 196 236
157 197 236
157 197 236
157 197 236
157 197 236
158 197 236
158 197 236
158 197 236
158 197 236
158 197 236
158 197 236
158 197 236
158 197 236
158 197 236
159 197 236
159 197 236
159 197 236
159 198 236
159 198 236
159 198 236
159 198 236
159 198 236
159 198 236
160 198 236
160 198 236
160 198 236
160 198 236
160 198 236
160 198 236
160 198 236
160 198 236
160 198 236
160 198 236
161 199 237
161 199 237
161 199 237
161 199 237
161 199 237
161 199 237
161 199 237
161 199 237
161 199 237
162 199 237
162 199 237
162 199 237
162 199 237
162 199 237
162 199 237
162 199 237
162 200 237
162 200 237
162 200 237
163 200 237
163 200 237
163 200 237
163 200 237
163 200 237
163 200 237
163 200 237
163 200 237
163 200 237
163 200 237
163 200 237
164 200 237
164 200 237
164 200 237
164 201 237
164 201 237
164 201 237
164 201 237
164 201 237
164 201 237
164 201 237
165 201 237
165 201 237
165 201 237
165 201 237
165 201 237
165 201 237
165 201 237
165 201 237
165 201 237
165 201 237
165 201 237
165 201 237
166 202 238
166 202 238
166 202 238
166 202 238
166 202 238
166 202 238
166 202 238
166 202 238
166 202 238
166 202 238
166 202 238
166 202 238
167 202 238
167 202 238
167 202 238
167 202 238
167 202 238
167 202 238
167 203 238
167 202 238
167 202 238
167 202 238
167 202 238
167 202 238
167 202 238
167 202 238
167 202 238
166 202 238
166 202 238
166 202 238
166 202 238
166 202 238
166 202 238
166 202 238
166 202 238
166 202 238
166 202 238
166 202 238
166 202 238
165 201 237
165 201 237
165 201 237
165 201 237
165 201 237
165 201 237
165 201 237
165 201 237
165 201 237
165 201 237
165 201 237
164 201 237
164 201 237
164 201 237
164 201 237
164 201 237
164 201 237
164 201 237
164 200 237
164 200 237
164 200 237
164 200 237
163 200 237
163 200 237
163 200 237
163 200 237
163 200 237
163 200 237
163 200 237
163 200 237
163 200 237
163 200 237
162 200 237
162 200 237
162 200 237
162 200 237
162 199 237
162 199 237
162 199 237
162 199 237
162 199 237
162 199 237
161 199 237
161 199 237
161 199 237
161 199 237
161 199 237
161 199 237
161 199 237
161 199 237
161 199 237
161 199 237
160 198 236
160 198 236
160 198 236
160 198 236
160 198 236
160 198 236
160 198 236
160 198 236
160 198 236
159 198 236
159 198 236
159 198 236
159 198 236
159 198 236
159 198 236
159 197 236
159 197 236
159 197 236
159 197 236
158 197 236
158 197 236
158 197 236
158 197 236
158 197 236
158 197 236
158 197 236
158 197 236
158 197 236
157 197 236
157 197 236
157 197 236
157 196 236
157 196 236
157 196 236
157 196 236
157 196 236
157 196 236
156 196 236
156 196 236
156 196 236
156 196 236
156 196 236
156 196 236
156 196 236
156 196 236
156 196 236
156 196 236
155 195 235
155 195 235
155 195 235
155 195 235
155 195 235
155 195 235
155 195 235
155 195 235
155 195 235
155 195 235
154 195 235
154 195 235
154 195 235
154 195 235
154 195 235
154 195 235
154 194 235
154 194 235
154 194 235
154 194 235
153 194 235
153 194 235
153 194 235
153 194 235
153 194 235
153 194 235
153 194 235
153 194 235
153 194 235
153 194 235
153 194 235
153 194 235
152 194 235
152 194 235
152 194 235
152 194 235
152 193 235
152 193 235
152 193 235
152 193 235
152 193 235
152 193 235
152 193 235
152 193 235
152 193 235
152 193 235
151 193 235
151 193 235
151 193 235
151 193 235
151 193 235
151 193 235
151 193 235
151 193 235
151 193 235
151 193 235
151 193 235
151 193 235
151 193 235
151 193 235
151 193 235
151 193 235
151 193 235
151 193 235
151 193 235
151 193 235
151 193 235
151 193 235
151 193 235
151 193 235
151 193 235
151 193 235
151 193 235
150 192 234
150 192 234
150 192 234
150 192 234
150 192 234
150 192 234
150 192 234
150 192 234
150 192 234
150 192 234
150 192 234
150 192 234
150 192 234
151 193 235
151 193 235
151 193 235
151 193 235
151 193 235
151 193 235
151 193 235
151 193 235
151 193 235
151 193 235
151 193 235
151 193 235
151 193 235
151 193 235
151 193 235
151 193 235
151 193 235
151 193 235
151 193 235
151 193 235
151 193 235
151 193 235
151 193 235
151 193 235
151 193 235
151 193 235
151 193 235
151 193 235
152 193 235
152 193 235
152 193 235
152 193 235
152 193 235
152 193 235
152 193 235
152 193 235
152 193 235
152 193 235
152 194 235
152 194 235
152 194 235
152 194 235
153 194 235
153 194 235
153 194 235
153 194 235
153 194 235
153 194 235
153 194 235
153 194 235
153 194 235
153 194 235
153 194 235
153 194 235
154 194 235
154 194 235
154 194 235
154 195 235
154 195 235
154 195 235
154 195 235
154 195 235
154 195 235
154 195 235
155 195 235
155 195 235
155 195 235
155 195 235
155 195 235
155 195 235
155 195 235
155 195 235
155 195 235
155 195 235
156 196 236
156 196 236
156 196 236
156 196 236
156 196 236
156 196 236
156 196 236
156 196 236
156 196 236
156 196 236
157 196 236
157 196 236
157 196 236
157 196 236
157 196 236
157 196 236
157 197 236
157 197 236
157 197 236
158 197 236
158 197 236
158 197 236
158 197 236
158 197 236
158 197 236
158 197 236
158 197 236
158 197 236
159 197 236
159 197 236
159 197 236
159 198 236
159 198 236
159 198 236
159 198 236
159 198 236
159 198 236
159 198 236
160 198 236
160 198 236
160 198 236
160 198 236
160 198 236
160 198 236
160 198 236
160 198 236
160 198 236
161 199 237
161 199 237
161 199 237
161 199 237
161 199 237
161 199 237
161 199 237
161 199 237
161 199 237
161 199 237
162 199 237
162 199 237
162 199 237
162 199 237
162 199 237
162 199 237
162 200 237
162 200 237
162 200 237
162 200 237
163 200 237
163 200 237
163 200 237
163 200 237
163 200 237
163 200 237
163 200 237
163 200 237
163 200 237
163 200 237
164 200 237
164 200 237
164 200 237
164 200 237
164 201 237
164 201 237
164 201 237
164 201 237
164 201 237
164 201 237
164 201 237
165 201 237
165 201 237
165 201 237
165 201 237
165 201 237
165 201 237
165 201 237
165 201 237
165 201 237
165 201 237
165 201 237
166 202 238
166 202 238
166 202 238
166 202 238
166 202 238
166 202 238
166 202 238
166 202 238
166 202 238
166 202 238
166 202 238
166 202 238
167 202 238
167 202 238
167 202 238
167 202 238
167 202 238
167 202 238
167 202 238
167 202 238
167 203 238
167 203 238
167 203 238
167 203 238
167 203 238
167 202 238
167 202 238
167 202 238
167 202 238
167 202 238
167 202 238
167 202 238
167 202 238
166 202 238
166 202 238
166 202 238
166 202 238
166 202 238
166 202 238
166 202 238
166 202 238
166 202 238
166 202 238
166 202 238
166 202 238
165 201 237
165 201 237
165 201 237
165 201 237
165 201 237
165 201 237
165 201 237
165 201 237
165 201 237
165 201 237
165 201 237
164 201 237
164 201 237
164 201 237
164 201 237
164 201 237
164 201 237
164 201 237
164 200 237
164 200 237
164 200 237
163 200 237
163 200 237
163 200 237
163 200 237
163 200 237
163 200 237
163 200 237
163 200 237
163 200 237
163 200 237
163 200 237
162 200 237
162 200 237
162 200 237
162 199 237
162 199 237
162 199 237
162 199 237
162 199 237
162 199 237
161 199 237
161 199 237
161 199 237
161 199 237
161 199 237
161 199 237
161 199 237
161 199 237
161 199 237
161 199 237
160 198 236
160 198 236
160 198 236
160 198 236
160 198 236
160 198 236
160 198 236
160 198 236
160 198 236
160 198 236
159 198 236
159 198 236
159 198 236
159 198 236
159 198 236
159 198 236
159 197 236
159 197 236
159 197 236
158 197 236
158 197 236
158 197 236
158 197 236
158 197 236
158 197 236
158 197 236
158 197 236
158 197 236
157 197 236
157 197 236
157 197 236
157 196 236
157 196 236
157 196 236
157 196 236
157 196 236
157 196 236
157 196 236
156 196 236
156 196 236
156 196 236
156 196 236
156 196 236
156 196 236
156 196 236
156 196 236
156 196 236
155 195 235
155 195 235
155 195 235
155 195 235
155 195 235
155 195 235
155 195 235
155 195 235
155 195 235
155 195 235
154 195 235
154 195 235
154 195 235
154 195 235
154 195 235
154 195 235
154 195 235
154 194 235
154 194 235
154 194 235
154 194 235
153 194 235
153 194 235
153 194 235
153 194 235
153 194 235
153 194 235
153 194 235
153 194 235
153 194 235
153 194 235
153 194 235
153 194 235
152 194 235
152 194 235
152 194 235
152 194 235
152 194 235
152 193 235
152 193 235
152 193 235
152 193 235
152 193 235
152 193 235
152 193 235
152 193 235
152 193 235
152 193 235
152 193 235
151 193 235
151 193 235
151 193 235
151 193 235
151 193 235
151 193 235
151 193 235
151 193 235
151 193 235
151 193 235
151 193 235
151 193 235
151 193 235
151 193 235
151 193 235
151 193 235
151 193 235
151 193 235
151 193 235
151 193 235
151 193 235
151 193 235
151 193 235
151 193 235
151 193 235
151 193 235
151 193 235
151 193 235
151 193 235
151 193 235
151 193 235
151 193 235
151 193 235
151 193 235
151 193 235
151 193 235
151 193 235
151 193 235
151 193 235
151 193 235
151 193 235
151 193 235
151 193 235
151 193 235
151 193 235
151 193 235
151 193 235
151 193 235
151 193 235
151 193 235
151 193 235
151 193 235
151 193 235
151 193 235
151 193 235
151 193 235
151 193 235
151 193 235
152 193 235
152 193 235
152 193 235
152 193 235
152 193 235
152 193 235
152 193 235
152 193 235
152 193 235
152 193 235
152 193 235
152 194 235
152 194 235
152 194 235
152 194 235
152 194 235
153 194 235
153 194 235
153 194 235
153 194 235
153 194 235
153 194 235
153 194 235
153 194 235
153 194 235
153 194 235
153 194 235
153 194 235
154 194 235
154 194 235
154 194 235
154 194 235
154 195 235
154 195 235
154 195 235
154 195 235
154 195 235
154 195 235
154 195 235
155 195 235
155 195 235
155 195 235
155 195 235
155 195 235
155 195 235
155 195 235
155 195 235
155 195 235
155 195 235
156 196 236
156 196 236
156 196 236
156 196 236
156 196 236
156 196 236
156 196 236
156 196 236
156 196 236
157 196 236
157 196 236
157 196 236
157 196 236
157 196 236
157 196 236
157 196 236
157 197 236
157 197 236
157 197 236
158 197 236
158 197 236
158 197 236
158 197 236
158 197 236
158 197 236
158 197 236
158 197 236
158 197 236
159 197 236
159 197 236
159 197 236
159 198 236
159 198 236
159 198 236
159 198 236
159 198 236
159 198 236
160 198 236
160 198 236
160 198 236
160 198 236
160 198 236
160 198 236
160 198 236
160 198 236
160 198 236
160 198 236
161 199 237
161 199 237
161 199 237
161 199 237
161 199 237
161 199 237
161 199 237
161 199 237
161 199 237
162 199 237
162 199 237
162 199 237
162 199 237
162 199 237
162 199 237
162 199 237
162 200 237
162 200 237
162 200 237
163 200 237
163 200 237
163 200 237
163 200 237
163 200 237
163 200 237
163 200 237
163 200 237
163 200 237
163 200 237
163 200 237
164 200 237
164 200 237
164 200 237
164 201 237
164 201 237
164 201 237
164 201 237
164 201 237
164 201 237
164 201 237
165 201 237
165 201 237
165 201 237
165 201 237
165 201 237
165 201 237
165 201 237
165 201 237
165 201 237
165 201 237
165 201 237
166 202 238
166 202 238
166 202 238
166 202 238
166 202 238
166 202 238
166 202 238
166 202 238
166 202 238
166 202 238
166 202 238
166 202 238
167 202 238
167 202 238
167 202 238
167 202 238
167 202 238
167 202 238
167 202 238
167 202 238
167 203 238
167 203 238
167 203 238
167 203 238
168 203 238
168 203 238
167 203 238
167 203 238
167 203 238
167 203 238
167 202 238
167 202 238
167 202 238
167 202 238
167 202 238
167 202 238
167 202 238
167 202 238
167 202 238
166 202 238
166 202 238
166 202 238
166 202 238
166 202 238
166 202 238
166 202 238
166 202 238
166 202 238
166 202 238
166 202 238
165 201 237
165 201 237
165 201 237
165 201 237
165 201 237
165 201 237
165 201 237
165 201 237
165 201 237
165 201 237
165 201 237
164 201 237
164 201 237
164 201 237
164 201 237
164 201 237
164 201 237
164 201 237
164 201 237
164 200 237
164 200 237
164 200 237
163 200 237
163 200 237
163 200 237
163 200 237
163 200 237
163 200 237
163 200 237
163 200 237
163 200 237
163 200 237
162 200 237
162 200 237
162 200 237
162 200 237
162 199 237
162 199 237
162 199 237
162 199 237
162 199 237
162 199 237
161 199 237
161 199 237
161 199 237
161 199 237
161 199 237
161 199 237
161 199 237
161 199 237
161 199 237
161 199 237
160 198 236
160 198 236
160 198 236
160 198 236
160 198 236
160 198 236
160 198 236
160 198 236
160 198 236
159 198 236
159 198 236
159 198 236
159 198 236
159 198 236
159 198 236
159 197 236
159 197 236
159 197 236
158 197 236
158 197 236
158 197 236
158 197 236
158 197 236
158 197 236
158 197 236
158 197 236
158 197 236
158 197 236
157 197 236
157 197 236
157 197 236
157 196 236
157 196 236
157 196 236
157 196 236
157 196 236
157 196 236
156 196 236
156 196 236
156 196 236
156 196 236
156 196 236
156 196 236
156 196 236
156 196 236
156 196 236
156 196 236
155 195 235
155 195 235
155 195 235
155 195 235
155 195 235
155 195 235
155 195 235
155 195 235
155 195 235
155 195 235
154 195 235
154 195 235
154 195 235
154 195 235
154 195 235
154 195 235
154 195 235
154 194 235
154 194 235
154 194 235
154 194 235
153 194 235
153 194 235
153 194 235
153 194 235
153 194 235
153 194 235
153 194 235
153 194 235
153 194 235
153 194 235
153 194 235
153 194 235
153 194 235
152 194 235
152 194 235
152 194 235
152 194 235
152 194 235
152 193 235
152 193 235
152 193 235
152 193 235
152 193 235
152 193 235
152 193 235
152 193 235
152 193 235
152 193 235
152 193 235
152 193 235
152 193 235
151 193 235
151 193 235
151 193 235
151 193 235
151 193 235
151 193 235
151 193 235
151 193 235
151 193 235
151 193 235
151 193 235
151 193 235
151 193 235
151 193 235
151 193 235
151 193 235
151 193 235
151 193 235
151 193 235
151 193 235
151 193 235
151 193 235
151 193 235
151 193 235
151 193 235
151 193 235
151 193 235
151 193 235
151 193 235
151 193 235
151 193 235
151 193 235
151 193 235
151 193 235
151 193 235
151 193 235
151 193 235
151 193 235
151 193 235
151 193 235
151 193 235
151 193 235
151 193 235
151 193 235
151 193 235
151 193 235
151 193 235
152 193 235
152 193 235
152 193 235
152 193 235
152 193 235
152 193 235
152 193 235
152 193 235
152 193 235
152 193 235
152 193 235
152 193 235
152 194 235
152 194 235
152 194 235
152 194 235
152 194 235
153 194 235
153 194 235
153 194 235
153 194 235
153 194 235
153 194 235
153 194 235
153 194 235
153 194 235
153 194 235
153 194 235
153 194 235
153 194 235
154 194 235
154 194 235
154 194 235
154 194 235
154 195 235
154 195 235
154 195 235
154 195 235
154 195 235
154 195 235
154 195 235
155 195 235
155 195 235
155 195 235
155 195 235
155 195 235
155 195 235
155 195 235
155 195 235
155 195 235
155 195 235
156 196 236
156 196 236
156 196 236
156 196 236
156 196 236
156 196 236
156 196 236
156 196 236
156 196 236
156 196 236
157 196 236
157 196 236
157 196 236
157 196 236
157 196 236
157 196 236
157 197 236
157 197 236
157 197 236
158 197 236
158 197 236
158 197 236
158 197 236
158 197 236
158 197 236
158 197 236
158 197 236
158 197 236
159 197 236
159 197 236
159 197 236
159 197 236
159 198 236
159 198 236
159 198 236
159 198 236
159 198 236
159 198 236
160 198 236
160 198 236
160 198 236
160 198 236
160 198 236
160 198 236
160 198 236
160 198 236
160 198 236
161 199 237
161 199 237
161 199 237
161 199 237
161 199 237
161 199 237
161 199 237
161 199 237
161 199 237
161 199 237
162 199 237
162 199 237
162 199 237
162 199 237
162 199 237
162 199 237
162 200 237
162 200 237
162 200 237
162 200 237
163 200 237
163 200 237
163 200 237
163 200 237
163 200 237
163 200 237
163 200 237
163 200 237
163 200 237
163 200 237
164 200 237
164 200 237
164 200 237
164 201 237
164 201 237
164 201 237
164 201 237
164 201 237
164 201 237
164 201 237
164 201 237
165 201 237
165 201 237
165 201 237
165 201 237
165 201 237
165 201 237
165 201 237
165 201 237
165 201 237
165 201 237
165 201 237
166 202 238
166 202 238
166 202 238
166 202 238
166 202 238
166 202 238
166 202 238
166 202 238
166 202 238
166 202 238
166 202 238
167 202 238
167 202 238
167 202 238
167 202 238
167 202 238
167 202 238
167 202 238
167 202 238
167 203 238
167 203 238
167 203 238
167 203 238
167 203 238
168 203 238
168 203 238
168 203 238
168 203 238
168 203 238
168 203 238
168 203 238
167 203 238
167 203 238
167 203 238
167 203 238
167 203 238
167 202 238
167 202 238
167 202 238
167 202 238
167 202 238
167 202 238
167 202 238
166 202 238
166 202 238
166 202 238
166 202 238
166 202 238
166 202 238
166 202 238
166 202 238
166 202 238
166 202 238
166 202 238
166 202 238
165 201 237
165 201 237
165 201 237
165 201 237
165 201 237
165 201 237
165 201 237
165 201 237
165 201 237
165 201 237
165 201 237
164 201 237
164 201 237
164 201 237
164 201 237
164 201 237
164 201 237
164 201 237
164 200 237
164 200 237
164 200 237
164 200 237
163 200 237
163 200 237
163 200 237
163 200 237
163 200 237
163 200 237
163 200 237
163 200 237
163 200 237
163 200 237
162 200 237
162 200 237
162 200 237
162 199 237
162 199 237
162 199 237
162 199 237
162 199 237
162 199 237
162 199 237
161 199 237
161 199 237
161 199 237
161 199 237
161 199 237
161 199 237
161 199 237
161 199 237
161 199 237
160 198 236
160 198 236
160 198 236
160 198 236
160 198 236
160 198 236
160 198 236
160 198 236
160 198 236
160 198 236
159 198 236
159 198 236
159 198 236
159 198 236
159 198 236
159 198 236
159 197 236
159 197 236
159 197 236
158 197 236
158 197 236
158 197 236
158 197 236
158 197 236
158 197 236
158 197 236
158 197 236
158 197 236
157 197 236
157 197 236
157 197 236
157 196 236
157 196 236
157 196 236
157 196 236
157 196 236
157 196 236
157 196 236
156 196 236
156 196 236
156 196 236
156 196 236
156 196 236
156 196 236
156 196 236
156 196 236
156 196 236
156 196 236
155 195 235
155 195 235
155 195 235
155 195 235
155 195 235
155 195 235
155 195 235
155 195 235
155 195 235
155 195 235
154 195 235
154 195 235
154 195 235
154 195 235
154 195 235
154 195 235
154 195 235
154 195 235
154 194 235
154 194 235
154 194 235
153 194 235
153 194 235
153 194 235
153 194 235
153 194 235
153 194 235
153 194 235
153 194 235
153 194 235
153 194 235
153 194 235
153 194 235
153 194 235
153 194 235
152 194 235
152 194 235
152 194 235
152 194 235
152 194 235
152 194 235
152 193 235
152 193 235
152 193 235
152 193 235
152 193 235
152 193 235
152 193 235
152 193 235
152 193 235
152 193 235
152 193 235
152 193 235
152 193 235
152 193 235
152 193 235
151 193 235
151 193 235
151 193 235
151 193 235
151 193 235
151 193 235
151 193 235
151 193 235
151 193 235
151 193 235
151 193 235
151 193 235
151 193 235
151 193 235
151 193 235
151 193 235
151 193 235
151 193 235
151 193 235
151 193 235
151 193 235
151 193 235
151 193 235
151 193 235
151 193 235
151 193 235
151 193 235
151 193 235
151 193 235
151 193 235
151 193 235
151 193 235
151 193 235
152 193 235
152 193 235
152 193 235
152 193 235
152 193 235
152 193 235
152 193 235
152 193 235
152 193 235
152 193 235
152 193 235
152 193 235
152 193 235
152 193 235
152 194 235
152 194 235
152 194 235
152 194 235
152 194 235
152 194 235
153 194 235
153 194 235
153 194 235
153 194 235
153 194 235
153 194 235
153 194 235
153 194 235
153 194 235
153 194 235
153 194 235
153 194 235
153 194 235
154 194 235
154 194 235
154 194 235
154 194 235
154 195 235
154 195 235
154 195 235
154 195 235
154 195 235
154 195 235
154 195 235
154 195 235
155 195 235
155 195 235
155 195 235
155 195 235
155 195 235
155 195 235
155 195 235
155 195 235
155 195 235
155 195 235
156 196 236
156 196 236
156 196 236
156 196 236
156 196 236
156 196 236
156 196 236
156 196 236
156 196 236
156 196 236
157 196 236
157 196 236
157 196 236
157 196 236
157 196 236
157 196 236
157 197 236
157 197 236
157 197 236
157 197 236
158 197 236
158 197 236
158 197 236
158 197 236
158 197 236
158 197 236
158 197 236
158 197 236
158 197 236
159 197 236
159 197 236
159 197 236
159 198 236
159 198 236
159 198 236
159 198 236
159 198 236
159 198 236
160 198 236
160 198 236
160 198 236
160 198 236
160 198 236
160 198 236
160 198 236
160 198 236
160 198 236
160 198 236
161 199 237
161 199 237
161 199 237
161 199 237
161 199 237
161 199 237
161 199 237
161 199 237
161 199 237
162 199 237
162 199 237
162 199 237
162 199 237
162 199 237
162 199 237
162 199 237
162 200 237
162 200 237
162 200 237
163 200 237
163 200 237
163 200 237
163 200 237
163 200 237
163 200 237
163 200 237
163 200 237
163 200 237
163 200 237
164 200 237
164 200 237
164 200 237
164 200 237
164 201 237
164 201 237
164 201 237
164 201 237
164 201 237
164 201 237
164 201 237
165 201 237
165 201 237
165 201 237
165 201 237
165 201 237
165 201 237
165 201 237
165 201 237
165 201 237
165 201 237
165 201 237
166 202 238
166 202 238
166 202 238
166 202 238
166 202 238
166 202 238
166 202 238
166 202 238
166 202 238
166 202 238
166 202 238
166 202 238
167 202 238
167 202 238
167 202 238
167 202 238
167 202 238
167 202 238
167 202 238
167 202 238
167 203 238
167 203 238
167 203 238
167 203 238
168 203 238
168 203 238
168 203 238
168 203 238
168 203 238
168 203 238
168 203 238
168 203 238
168 203 238
168 203 238
168 203 238
168 203 238
168 203 238
167 203 238
167 203 238
167 203 238
167 203 238
167 202 238
167 202 238
167 202 238
167 202 238
167 202 238
167 202 238
167 202 238
167 202 238
166 202 238
166 202 238
166 202 238
166 202 238
166 202 238
166 202 238
166 202 238
166 202 238
166 202 238
166 202 238
166 202 238
166 202 238
165 201 237
165 201 237
165 201 237
165 201 237
165 201 237
165 201 237
165 201 237
165 201 237
165 201 237
165 201 237
165 201 237
164 201 237
164 201 237
164 201 237
164 201 237
164 201 237
164 201 237
164 201 237
164 200 237
164 200 237
164 200 237
163 200 237
163 200 237
163 200 237
163 200 237
163 200 237
163 200 237
163 200 237
163 200 237
163 200 237
163 200 237
162 200 237
162 200 237
162 200 237
162 200 237
162 199 237
162 199 237
162 199 237
162 199 237
162 199 237
162 199 237
161 199 237
161 199 237
161 199 237
161 199 237
161 199 237
161 199 237
161 199 237
161 199 237
161 199 237
161 199 237
160 198 236
160 198 236
160 198 236
160 198 236
160 198 236
160 198 236
160 198 236
160 198 236
160 198 236
159 198 236
159 198 236
159 198 236
159 198 236
159 198 236
159 198 236
159 197 236
159 197 236
159 197 236
158 197 236
158 197 236
158 197 236
158 197 236
158 197 236
158 197 236
158 197 236
158 197 236
158 197 236
158 197 236
157 197 236
157 197 236
157 197 236
157 196 236
157 196 236
157 196 236
157 196 236
157 196 236
157 196 236
156 196 236
156 196 236
156 196 236
156 196 236
156 196 236
156 196 236
156 196 236
156 196 236
156 196 236
156 196 236
155 195 235
155 195 235
155 195 235
155 195 235
155 195 235
155 195 235
155 195 235
155 195 235
155 195 235
155 195 235
155 195 235
154 195 235
154 195 235
154 195 235
154 195 235
154 195 235
154 195 235
154 195 235
154 195 235
154 194 235
154 194 235
154 194 235
154 194 235
153 194 235
153 194 235
153 194 235
153 194 235
153 194 235
153 194 235
153 194 235
153 194 235
153 194 235
153 194 235
153 194 235
153 194 235
153 194 235
153 194 235
152 194 235
152 194 235
152 194 235
152 194 235
152 194 235
152 194 235
152 194 235
152 193 235
152 193 235
152 193 235
152 193 235
152 193 235
152 193 235
152 193 235
152 193 235
152 193 235
152 193 235
152 193 235
152 193 235
152 193 235
152 193 235
152 193 235
152 193 235
152 193 235
152 193 235
152 193 235
152 193 235
152 193 235
152 193 235
152 193 235
152 193 235
152 193 235
152 193 235
152 193 235
152 193 235
152 193 235
152 193 235
152 193 235
152 193 235
152 193 235
152 193 235
152 193 235
152 193 235
152 193 235
152 193 235
152 193 235
152 193 235
152 193 235
152 193 235
152 193 235
152 193 235
152 193 235
152 193 235
152 193 235
152 193 235
152 193 235
152 193 235
152 193 235
152 193 235
152 194 235
152 194 235
152 194 235
152 194 235
152 194 235
152 194 235
152 194 235
153 194 235
153 194 235
153 194 235
153 194 235
153 194 235
153 194 235
153 194 235
153 194 235
153 194 235
153 194 235
153 194 235
153 194 235
153 194 235
153 194 235
154 194 235
154 194 235
154 194 235
154 194 235
154 195 235
154 195 235
154 195 235
154 195 235
154 195 235
154 195 235
154 195 235
154 195 235
155 195 235
155 195 235
155 195 235
155 195 235
155 195 235
155 195 235
155 195 235
155 195 235
155 195 235
155 195 235
155 195 235
156 196 236
156 196 236
156 196 236
156 196 236
156 196 236
156 196 236
156 196 236
156 196 236
156 196 236
156 196 236
157 196 236
157 196 236
157 196 236
157 196 236
157 196 236
157 196 236
157 197 236
157 197 236
157 197 236
158 197 236
158 197 236
158 197 236
158 197 236
158 197 236
158 197 236
158 197 236
158 197 236
158 197 236
159 197 236
159 197 236
159 197 236
159 197 236
159 198 236
159 198 236
159 198 236
159 198 236
159 198 236
159 198 236
160 198 236
160 198 236
160 198 236
160 198 236
160 198 236
160 198 236
160 198 236
160 198 236
160 198 236
161 199 237
161 199 237
161 199 237
161 199 237
161 199 237
161 199 237
161 199 237
161 199 237
161 199 237
161 199 237
162 199 237
162 199 237
162 199 237
162 199 237
162 199 237
162 199 237
162 199 237
162 200 237
162 200 237
162 200 237
163 200 237
163 200 237
163 200 237
163 200 237
163 200 237
163 200 237
163 200 237
163 200 237
163 200 237
163 200 237
164 200 237
164 200 237
164 200 237
164 201 237
164 201 237
164 201 237
164 201 237
164 201 237
164 201 237
164 201 237
165 201 237
165 201 237
165 201 237
165 201 237
165 201 237
165 201 237
165 201 237
165 201 237
165 201 237
165 201 237
165 201 237
166 202 238
166 202 238
166 202 238
166 202 238
166 202 238
166 202 238
166 202 238
166 202 238
166 202 238
166 202 238
166 202 238
166 202 238
167 202 238
167 202 238
167 202 238
167 202 238
167 202 238
167 202 238
167 202 238
167 202 238
167 203 238
167 203 238
167 203 238
167 203 238
168 203 238
168 203 238
168 203 238
168 203 238
168 203 238
168 203 238
168 203 238
168 203 238
168 203 238
168 203 238
168 203 238
168 203 238
168 203 238
168 203 238
168 203 238
168 203 238
168 203 238
168 203 238
168 203 238
167 203 238
167 203 238
167 203 238
167 203 238
167 202 238
167 202 238
167 202 238
167 202 238
167 202 238
167 202 238
167 202 238
167 202 238
166 202 238
166 202 238
166 202 238
166 202 238
166 202 238
166 202 238
166 202 238
166 202 238
166 202 238
166 202 238
166 202 238
166 202 238
165 201 237
165 201 237
165 201 237
165 201 237
165 201 237
165 201 237
165 201 237
165 201 237
165 201 237
165 201 237
164 201 237
164 201 237
164 201 237
164 201 237
164 201 237
164 201 237
164 201 237
164 200 237
164 200 237
164 200 237
164 200 237
163 200 237
163 200 237
163 200 237
163 200 237
163 200 237
163 200 237
163 200 237
163 200 237
163 200 237
163 200 237
162 200 237
162 200 237
162 200 237
162 199 237
162 199 237
162 199 237
162 199 237
162 199 237
162 199 237
162 199 237
161 199 237
161 199 237
161 199 237
161 199 237
161 199 237
161 199 237
161 199 237
161 199 237
161 199 237
160 198 236
160 198 236
160 198 236
160 198 236
160 198 236
160 198 236
160 198 236
160 198 236
160 198 236
160 198 236
159 198 236
159 198 236
159 198 236
159 198 236
159 198 236
159 198 236
159 197 236
159 197 236
159 197 236
158 197 236
158 197 236
158 197 236
158 197 236
158 197 236
158 197 236
158 197 236
158 197 236
158 197 236
157 197 236
157 197 236
157 197 236
157 197 236
157 196 236
157 196 236
157 196 236
157 196 236
157 196 236
157 196 236
156 196 236
156 196 236
156 196 236
156 196 236
156 196 236
156 196 236
156 196 236
156 196 236
156 196 236
156 196 236
155 195 235
155 195 235
155 195 235
155 195 235
155 195 235
155 195 235
155 195 235
155 195 235
155 195 235
155 195 235
155 195 235
154 195 235
154 195 235
154 195 235
154 195 235
154 195 235
154 195 235
154 195 235
154 195 235
154 194 235
154 194 235
154 194 235
154 194 235
153 194 235
153 194 235
153 194 235
153 194 235
153 194 235
153 194 235
153 194 235
153 194 235
153 194 235
153 194 235
153 194 235
153 194 235
153 194 235
153 194 235
153 194 235
153 194 235
153 194 235
152 194 235
152 194 235
152 194 235
152 194 235
152 194 235
152 194 235
152 194 235
152 193 235
152 193 235
152 193 235
152 193 235
152 193 235
152 193 235
152 193 235
152 193 235
152 193 235
152 193 235
152 193 235
152 193 235
152 193 235
152 193 235
152 193 235
152 193 235
152 193 235
152 193 235
152 193 235
152 193 235
152 193 235
152 193 235
152 193 235
152 193 235
152 193 235
152 193 235
152 193 235
152 193 235
152 193 235
152 193 235
152 193 235
152 193 235
152 193 235
152 193 235
152 193 235
152 193 235
152 193 235
152 193 235
152 193 235
152 193 235
152 194 235
152 194 235
152 194 235
152 194 235
152 194 235
152 194 235
152 194 235
152 194 235
153 194 235
153 194 235
153 194 235
153 194 235
153 194 235
153 194 235
153 194 235
153 194 235
153 194 235
153 194 235
153 194 235
153 194 235
153 194 235
153 194 235
153 194 235
154 194 235
154 194 235
154 194 235
154 194 235
154 194 235
154 195 235
154 195 235
154 195 235
154 195 235
154 195 235
154 195 235
154 195 235
154 195 235
155 195 235
155 195 235
155 195 235
155 195 235
155 195 235
155 195 235
155 195 235
155 195 235
155 195 235
155 195 235
155 195 235
156 196 236
156 196 236
156 196 236
156 196 236
156 196 236
156 196 236
156 196 236
156 196 236
156 196 236
156 196 236
157 196 236
157 196 236
157 196 236
157 196 236
157 196 236
157 196 236
157 197 236
157 197 236
157 197 236
157 197 236
158 197 236
158 197 236
158 197 236
158 197 236
158 197 236
158 197 236
158 197 236
158 197 236
158 197 236
159 197 236
159 197 236
159 197 236
159 198 236
159 198 236
159 198 236
159 198 236
159 198 236
159 198 236
160 198 236
160 198 236
160 198 236
160 198 236
160 198 236
160 198 236
160 198 236
160 198 236
160 198 236
160 198 236
161 199 237
161 199 237
161 199 237
161 199 237
161 199 237
161 199 237
161 199 237
161 199 237
161 199 237
162 199 237
162 199 237
162 199 237
162 199 237
162 199 237
162 199 237
162 199 237
162 200 237
162 200 237
162 200 237
163 200 237
163 200 237
163 200 237
163 200 237
163 200 237
163 200 237
163 200 237
163 200 237
163 200 237
163 200 237
164 200 237
164 200 237
164 200 237
164 200 237
164 201 237
164 201 237
164 201 237
164 201 237
164 201 237
164 201 237
164 201 237
165 201 237
165 201 237
165 201 237
165 201 237
165 201 237
165 201 237
165 201 237
165 201 237
165 201 237
165 201 237
165 201 237
166 202 238
166 202 238
166 202 238
166 202 238
166 202 238
166 202 238
166 202 238
166 202 238
166 202 238
166 202 238
166 202 238
167 202 238
167 202 238
167 202 238
167 202 238
167 202 238
167 202 238
167 202 238
167 202 238
167 203 238
167 203 238
167 203 238
167 203 238
168 203 238
168 203 238
168 203 238
168 203 238
168 203 238
168 203 238
168 203 238
168 203 238
168 203 238
168 203 238
168 203 238
169 203 238
168 203 238
168 203 238
168 203 238
168 203 238
168 203 238
168 203 238
168 203 238
168 203 238
168 203 238
168 203 238
168 203 238
168 203 238
168 203 238
167 203 238
167 203 238
167 203 238
167 203 238
167 202 238
167 202 238
167 202 238
167 202 238
167 202 238
167 202 238
167 202 238
167 202 238
166 202 238
166 202 238
166 202 238
166 202 238
166 202 238
166 202 238
166 202 238
166 202 238
166 202 238
166 202 238
166 202 238
165 201 237
165 201 237
165 201 237
165 201 237
165 201 237
165 201 237
165 201 237
165 201 237
165 201 237
165 201 237
165 201 237
164 201 237
164 201 237
164 201 237
164 201 237
164 201 237
164 201 237
164 201 237
164 200 237
164 200 237
164 200 237
163 200 237
163 200 237
163 200 237
163 200 237
163 200 237
163 200 237
163 200 237
163 200 237
163 200 237
163 200 237
162 200 237
162 200 237
162 200 237
162 200 237
162 199 237
162 199 237
162 199 237
162 199 237
162 199 237
162 199 237
161 199 237
161 199 237
161 199 237
161 199 237
161 199 237
161 199 237
161 199 237
161 199 237
161 199 237
161 199 237
160 198 236
160 198 236
160 198 236
160 198 236
160 198 236
160 198 236
160 198 236
160 198 236
160 198 236
159 198 236
159 198 236
159 198 236
159 198 236
159 198 236
159 198 236
159 197 236
159 197 236
159 197 236
159 197 236
158 197 236
158 197 236
158 197 236
158 197 236
158 197 236
158 197 236
158 197 236
158 197 236
158 197 236
157 197 236
157 197 236
157 197 236
157 196 236
157 196 236
157 196 236
157 196 236
157 196 236
157 196 236
157 196 236
156 196 236
156 196 236
156 196 236
156 196 236
156 196 236
156 196 236
156 196 236
156 196 236
156 196 236
156 196 236
155 195 235
155 195 235
155 195 235
155 195 235
155 195 235
155 195 235
155 195 235
155 195 235
155 195 235
155 195 235
155 195 235
154 195 235
154 195 235
154 195 235
154 195 235
154 195 235
154 195 235
154 195 235
154 195 235
154 195 235
154 194 235
154 194 235
154 194 235
154 194 235
154 194 235
153 194 235
153 194 235
153 194 235
153 194 235
153 194 235
153 194 235
153 194 235
153 194 235
153 194 235
153 194 235
153 194 235
153 194 235
153 194 235
153 194 235
153 194 235
153 194 235
153 194 235
152 194 235
152 194 235
152 194 235
152 194 235
152 194 235
152 194 235
152 194 235
152 194 235
152 194 235
152 194 235
152 194 235
152 194 235
152 193 235
152 193 235
152 193 235
152 193 235
152 193 235
152 193 235
152 193 235
152 193 235
152 193 235
152 193 235
152 193 235
152 193 235
152 193 235
152 193 235
152 193 235
152 193 235
152 193 235
152 193 235
152 193 235
152 193 235
152 194 235
152 194 235
152 194 235
152 194 235
152 194 235
152 194 235
152 194 235
152 194 235
152 194 235
152 194 235
152 194 235
153 194 235
153 194 235
153 194 235
153 194 235
153 194 235
153 194 235
153 194 235
153 194 235
153 194 235
153 194 235
153 194 235
153 194 235
153 194 235
153 194 235
153 194 235
153 194 235
153 194 235
153 194 235
153 194 235
154 194 235
154 194 235
154 194 235
154 194 235
154 195 235
154 195 235
154 195 235
154 195 235
154 195 235
154 195 235
154 195 235
154 195 235
154 195 235
155 195 235
155 195 235
155 195 235
155 195 235
155 195 235
155 195 235
155 195 235
155 195 235
155 195 235
155 195 235
155 195 235
156 196 236
156 196 236
156 196 236
156 196 236
156 196 236
156 196 236
156 196 236
156 196 236
156 196 236
156 196 236
157 196 236
157 196 236
157 196 236
157 196 236
157 196 236
157 196 236
157 196 236
157 197 236
157 197 236
157 197 236
158 197 236
158 197 236
158 197 236
158 197 236
158 197 236
158 197 236
158 197 236
158 197 236
158 197 236
159 197 236
159 197 236
159 197 236
159 197 236
159 198 236
159 198 236
159 198 236
159 198 236
159 198 236
159 198 236
160 198 236
160 198 236
160 198 236
160 198 236
160 198 236
160 198 236
160 198 236
160 198 236
160 198 236
161 199 237
161 199 237
161 199 237
161 199 237
161 199 237
161 199 237
161 199 237
161 199 237
161 199 237
161 199 237
162 199 237
162 199 237
162 199 237
162 199 237
162 199 237
162 199 237
162 200 237
162 200 237
162 200 237
162 200 237
163 200 237
163 200 237
163 200 237
163 200 237
163 200 237
163 200 237
163 200 237
163 200 237
163 200 237
163 200 237
164 200 237
164 200 237
164 200 237
164 201 237
164 201 237
164 201 237
164 201 237
164 201 237
164 201 237
164 201 237
165 201 237
165 201 237
165 201 237
165 201 237
165 201 237
165 201 237
165 201 237
165 201 237
165 201 237
165 201 237
165 201 237
166 202 238
166 202 238
166 202 238
166 202 238
166 202 238
166 202 238
166 202 238
166 202 238
166 202 238
166 202 238
166 202 238
167 202 238
167 202 238
167 202 238
167 202 238
167 202 238
167 202 238
167 202 238
167 202 238
167 203 238
167 203 238
167 203 238
167 203 238
168 203 238
168 203 238
168 203 238
168 203 238
168 203 238
168 203 238
168 203 238
168 203 238
168 203 238
168 203 238
168 203 238
168 203 238
168 203 238
169 203 238
169 203 238
169 203 238
169 203 238
169 203 238
168 203 238
168 203 238
168 203 238
168 203 238
168 203 238
168 203 238
168 203 238
168 203 238
168 203 238
168 203 238
168 203 238
168 203 238
168 203 238
167 203 238
167 203 238
167 203 238
167 203 238
167 202 238
167 202 238
167 202 238
167 202 238
167 202 238
167 202 238
167 202 238
166 202 238
166 202 238
166 202 238
166 202 238
166 202 238
166 202 238
166 202 238
166 202 238
166 202 238
166 202 238
166 202 238
166 202 238
165 201 237
165 201 237
165 201 237
165 201 237
165 201 237
165 201 237
165 201 237
165 201 237
165 201 237
165 201 237
165 201 237
164 201 237
164 201 237
164 201 237
164 201 237
164 201 237
164 201 237
164 200 237
164 200 237
164 200 237
164 200 237
163 200 237
163 200 237
163 200 237
163 200 237
163 200 237
163 200 237
163 200 237
163 200 237
163 200 237
163 200 237
162 200 237
162 200 237
162 200 237
162 199 237
162 199 237
162 199 237
162 199 237
162 199 237
162 199 237
162 199 237
161 199 237
161 199 237
161 199 237
161 199 237
161 199 237
161 199 237
161 199 237
161 199 237
161 199 237
160 198 236
160 198 236
160 198 236
160 198 236
160 198 236
160 198 236
160 198 236
160 198 236
160 198 236
160 198 236
159 198 236
159 198 236
159 198 236
159 198 236
159 198 236
159 198 236
159 197 236
159 197 236
159 197 236
158 197 236
158 197 236
158 197 236
158 197 236
158 197 236
158 197 236
158 197 236
158 197 236
158 197 236
158 197 236
157 197 236
157 197 236
157 197 236
157 196 236
157 196 236
157 196 236
157 196 236
157 196 236
157 196 236
157 196 236
156 196 236
156 196 236
156 196 236
156 196 236
156 196 236
156 196 236
156 196 236
156 196 236
156 196 236
156 196 236
155 195 235
155 195 235
155 195 235
155 195 235
155 195 235
155 195 235
155 195 235
155 195 235
155 195 235
155 195 235
155 195 235
155 195 235
154 195 235
154 195 235
154 195 235
154 195 235
154 195 235
154 195 235
154 195 235
154 195 235
154 194 235
154 194 235
154 194 235
154 194 235
154 194 235
154 194 235
153 194 235
153 194 235
153 194 235
153 194 235
153 194 235
153 194 235
153 194 235
153 194 235
153 194 235
153 194 235
153 194 235
153 194 235
153 194 235
153 194 235
153 194 235
153 194 235
153 194 235
153 194 235
153 194 235
153 194 235
153 194 235
153 194 235
152 194 235
152 194 235
152 194 235
152 194 235
152 194 235
152 194 235
152 194 235
152 194 235
152 194 235
152 194 235
152 194 235
152 194 235
152 194 235
152 194 235
152 194 235
152 194 235
152 194 235
152 194 235
152 194 235
152 194 235
152 194 235
152 194 235
152 194 235
152 194 235
152 194 235
152 194 235
153 194 235
153 194 235
153 194 235
153 194 235
153 194 235
153 194 235
153 194 235
153 194 235
153 194 235
153 194 235
153 194 235
153 194 235
153 194 235
153 194 235
153 194 235
153 194 235
153 194 235
153 194 235
153 194 235
153 194 235
153 194 235
153 194 235
154 194 235
154 194 235
154 194 235
154 194 235
154 194 235
154 195 235
154 195 235
154 195 235
154 195 235
154 195 235
154 195 235
154 195 235
154 195 235
154 195 235
155 195 235
155 195 235
155 195 235
155 195 235
155 195 235
155 195 235
155 195 235
155 195 235
155 195 235
155 195 235
155 195 235
155 195 235
156 196 236
156 196 236
156 196 236
156 196 236
156 196 236
156 196 236
156 196 236
156 196 236
156 196 236
156 196 236
157 196 236
157 196 236
157 196 236
157 196 236
157 196 236
157 196 236
157 196 236
157 197 236
157 197 236
157 197 236
158 197 236
158 197 236
158 197 236
158 197 236
158 197 236
158 197 236
158 197 236
158 197 236
158 197 236
158 197 236
159 197 236
159 197 236
159 197 236
159 198 236
159 198 236
159 198 236
159 198 236
159 198 236
159 198 236
160 198 236
160 198 236
160 198 236
160 198 236
160 198 236
160 198 236
160 198 236
160 198 236
160 198 236
160 198 236
161 199 237
161 199 237
161 199 237
161 199 237
161 199 237
161 199 237
161 199 237
161 199 237
161 199 237
162 199 237
162 199 237
162 199 237
162 199 237
162 199 237
162 199 237
162 199 237
162 200 237
162 200 237
162 200 237
163 200 237
163 200 237
163 200 237
163 200 237
163 200 237
163 200 237
163 200 237
163 200 237
163 200 237
163 200 237
164 200 237
164 200 237
164 200 237
164 201 237
164 201 237
164 201 237
164 201 237
164 201 237
164 201 237
164 201 237
165 201 237
165 201 237
165 201 237
165 201 237
165 201 237
165 201 237
165 201 237
165 201 237
165 201 237
165 201 237
165 201 237
166 202 238
166 202 238
166 202 238
166 202 238
166 202 238
166 202 238
166 202 238
166 202 238
166 202 238
166 202 238
166 202 238
167 202 238
167 202 238
167 202 238
167 202 238
167 202 238
167 202 238
167 202 238
167 202 238
167 203 238
167 203 238
167 203 238
167 203 238
167 203 238
168 203 238
168 203 238
168 203 238
168 203 238
168 203 238
168 203 238
168 203 238
168 203 238
168 203 238
168 203 238
168 203 238
168 203 238
169 203 238
169 203 238
169 203 238
169 203 238
169 204 238
169 204 238
169 204 238
169 203 238
169 203 238
169 203 238
169 203 238
168 203 238
168 203 238
168 203 238
168 203 238
168 203 238
168 203 238
168 203 238
168 203 238
168 203 238
168 203 238
168 203 238
168 203 238
167 203 238
167 203 238
167 203 238
167 203 238
167 203 238
167 202 238
167 202 238
167 202 238
167 202 238
167 202 238
167 202 238
167 202 238
166 202 238
166 202 238
166 202 238
166 202 238
166 202 238
166 202 238
166 202 238
166 202 238
166 202 238
166 202 238
166 202 238
166 202 238
165 201 237
165 201 237
165 201 237
165 201 237
165 201 237
165 201 237
165 201 237
165 201 237
165 201 237
165 201 237
164 201 237
164 201 237
164 201 237
164 201 237
164 201 237
164 201 237
164 201 237
164 200 237
164 200 237
164 200 237
164 200 237
163 200 237
163 200 237
163 200 237
163 200 237
163 200 237
163 200 237
163 200 237
163 200 237
163 200 237
163 200 237
162 200 237
162 200 237
162 200 237
162 199 237
162 199 237
162 199 237
162 199 237
162 199 237
162 199 237
161 199 237
161 199 237
161 199 237
161 199 237
161 199 237
161 199 237
161 199 237
161 199 237
161 199 237
161 199 237
160 198 236
160 198 236
160 198 236
160 198 236
160 198 236
160 198 236
160 198 236
160 198 236
160 198 236
159 198 236
159 198 236
159 198 236
159 198 236
159 198 236
159 198 236
159 198 236
159 197 236
159 197 236
159 197 236
158 197 236
158 197 236
158 197 236
158 197 236
158 197 236
158 197 236
158 197 236
158 197 236
158 197 236
158 197 236
157 197 236
157 197 236
157 197 236
157 196 236
157 196 236
157 196 236
157 196 236
157 196 236
157 196 236
156 196 236
156 196 236
156 196 236
156 196 236
156 196 236
156 196 236
156 196 236
156 196 236
156 196 236
156 196 236
156 196 236
155 195 235
155 195 235
155 195 235
155 195 235
155 195 235
155 195 235
155 195 235
155 195 235
155 195 235
155 195 235
155 195 235
155 195 235
154 195 235
154 195 235
154 195 235
154 195 235
154 195 235
154 195 235
154 195 235
154 195 235
154 195 235
154 195 235
154 194 235
154 194 235
154 194 235
154 194 235
154 194 235
154 194 235
153 194 235
153 194 235
153 194 235
153 194 235
153 194 235
153 194 235
153 194 235
153 194 235
153 194 235
153 194 235
153 194 235
153 194 235
153 194 235
153 194 235
153 194 235
153 194 235
153 194 235
153 194 235
153 194 235
153 194 235
153 194 235
153 194 235
153 194 235
153 194 235
153 194 235
153 194 235
153 194 235
153 194 235
153 194 235
153 194 235
153 194 235
153 194 235
153 194 235
153 194 235
153 194 235
153 194 235
153 194 235
153 194 235
153 194 235
153 194 235
153 194 235
153 194 235
153 194 235
153 194 235
153 194 235
153 194 235
153 194 235
153 194 235
153 194 235
153 194 235
153 194 235
153 194 235
153 194 235
153 194 235
153 194 235
153 194 235
153 194 235
153 194 235
153 194 235
153 194 235
154 194 235
154 194 235
154 194 235
154 194 235
154 194 235
154 194 235
154 195 235
154 195 235
154 195 235
154 195 235
154 195 235
154 195 235
154 195 235
154 195 235
154 195 235
155 195 235
155 195 235
155 195 235
155 195 235
155 195 235
155 195 235
155 195 235
155 195 235
155 195 235
155 195 235
155 195 235
155 195 235
155 195 235
156 196 236
156 196 236
156 196 236
156 196 236
156 196 236
156 196 236
156 196 236
156 196 236
156 196 236
156 196 236
156 196 236
157 196 236
157 196 236
157 196 236
157 196 236
157 196 236
157 196 236
157 197 236
157 197 236
157 197 236
158 197 236
158 197 236
158 197 236
158 197 236
158 197 236
158 197 236
158 197 236
158 197 236
158 197 236
158 197 236
159 197 236
159 197 236
159 197 236
159 198 236
159 198 236
159 198 236
159 198 236
159 198 236
159 198 236
159 198 236
160 198 236
160 198 236
160 198 236
160 198 236
160 198 236
160 198 236
160 198 236
160 198 236
160 198 236
161 199 237
161 199 237
161 199 237
161 199 237
161 199 237
161 199 237
161 199 237
161 199 237
161 199 237
161 199 237
162 199 237
162 199 237
162 199 237
162 199 237
162 199 237
162 199 237
162 200 237
162 200 237
162 200 237
163 200 237
163 200 237
163 200 237
163 200 237
163 200 237
163 200 237
163 200 237
163 200 237
163 200 237
163 200 237
164 200 237
164 200 237
164 200 237
164 200 237
164 201 237
164 201 237
164 201 237
164 201 237
164 201 237
164 201 237
164 201 237
165 201 237
165 201 237
165 201 237
165 201 237
165 201 237
165 201 237
165 201 237
165 201 237
165 201 237
165 201 237
166 202 238
166 202 238
166 202 238
166 202 238
166 202 238
166 202 238
166 202 238
166 202 238
166 202 238
166 202 238
166 202 238
167 202 238
167 202 238
167 202 238
167 202 238
167 202 238
167 202 238
167 202 238
167 202 238
167 203 238
167 203 238
167 203 238
167 203 238
168 203 238
168 203 238
168 203 238
168 203 238
168 203 238
168 203 238
168 203 238
168 203 238
168 203 238
168 203 238
168 203 238
168 203 238
168 203 238
169 203 238
169 203 238
169 203 238
169 203 238
169 204 238
169 204 238
169 204 238
169 204 238
169 204 238
169 204 238
169 204 238
169 204 238
169 204 238
169 203 238
169 203 238
169 203 238
169 203 238
168 203 238
168 203 238
168 203 238
168 203 238
168 203 238
168 203 238
168 203 238
168 203 238
168 203 238
168 203 238
168 203 238
168 203 238
168 203 238
167 203 238
167 203 238
167 203 238
167 203 238
167 202 238
167 202 238
167 202 238
167 202 238
167 202 238
167 202 238
167 202 238
166 202 238
166 202 238
166 202 238
166 202 238
166 202 238
166 202 238
166 202 238
166 202 238
166 202 238
166 202 238
166 202 238
166 202 238
165 201 237
165 201 237
165 201 237
165 201 237
165 201 237
165 201 237
165 201 237
165 201 237
165 201 237
165 201 237
164 201 237
164 201 237
164 201 237
164 201 237
164 201 237
164 201 237
164 201 237
164 200 237
164 200 237
164 200 237
163 200 237
163 200 237
163 200 237
163 200 237
163 200 237
163 200 237
163 200 237
163 200 237
163 200 237
163 200 237
162 200 237
162 200 237
162 200 237
162 199 237
162 199 237
162 199 237
162 199 237
162 199 237
162 199 237
162 199 237
161 199 237
161 199 237
161 199 237
161 199 237
161 199 237
161 199 237
161 199 237
161 199 237
161 199 237
161 199 237
160 198 236
160 198 236
160 198 236
160 198 236
160 198 236
160 198 236
160 198 236
160 198 236
160 198 236
159 198 236
159 198 236
159 198 236
159 198 236
159 198 236
159 198 236
159 197 236
159 197 236
159 197 236
159 197 236
158 197 236
158 197 236
158 197 236
158 197 236
158 197 236
158 197 236
158 197 236
158 197 236
158 197 236
157 197 236
157 197 236
157 197 236
157 197 236
157 196 236
157 196 236
157 196 236
157 196 236
157 196 236
157 196 236
157 196 236
156 196 236
156 196 236
156 196 236
156 196 236
156 196 236
156 196 236
156 196 236
156 196 236
156 196 236
156 196 236
156 196 236
155 195 235
155 195 235
155 195 235
155 195 235
155 195 235
155 195 235
155 195 235
155 195 235
155 195 235
155 195 235
155 195 235
155 195 235
154 195 235
154 195 235
154 195 235
154 195 235
154 195 235
154 195 235
154 195 235
154 195 235
154 195 235
154 195 235
154 195 235
154 194 235
154 194 235
154 194 235
154 194 235
154 194 235
154 194 235
153 194 235
153 194 235
153 194 235
153 194 235
153 194 235
153 194 235
153 194 235
153 194 235
153 194 235
153 194 235
153 194 235
153 194 235
153 194 235
153 194 235
153 194 235
153 194 235
153 194 235
153 194 235
153 194 235
153 194 235
153 194 235
153 194 235
153 194 235
153 194 235
153 194 235
153 194 235
153 194 235
153 194 235
153 194 235
153 194 235
153 194 235
153 194 235
153 194 235
153 194 235
153 194 235
153 194 235
153 194 235
153 194 235
153 194 235
153 194 235
153 194 235
153 194 235
153 194 235
153 194 235
153 194 235
153 194 235
153 194 235
153 194 235
153 194 235
154 194 235
154 194 235
154 194 235
154 194 235
154 194 235
154 194 235
154 194 235
154 195 235
154 195 235
154 195 235
154 195 235
154 195 235
154 195 235
154 195 235
154 195 235
154 195 235
154 195 235
154 195 235
155 195 235
155 195 235
155 195 235
155 195 235
155 195 235
155 195 235
155 195 235
155 195 235
155 195 235
155 195 235
155 195 235
155 195 235
156 196 236
156 196 236
156 196 236
156 196 236
156 196 236
156 196 236
156 196 236
156 196 236
156 196 236
156 196 236
156 196 236
157 196 236
157 196 236
157 196 236
157 196 236
157 196 236
157 196 236
157 196 236
157 197 236
157 197 236
157 197 236
157 197 236
158 197 236
158 197 236
158 197 236
158 197 236
158 197 236
158 197 236
158 197 236
158 197 236
158 197 236
158 197 236
159 197 236
159 197 236
159 197 236
159 198 236
159 198 236
159 198 236
159 198 236
159 198 236
159 198 236
160 198 236
160 198 236
160 198 236
160 198 236
160 198 236
160 198 236
160 198 236
160 198 236
160 198 236
160 198 236
161 199 237
161 199 237
161 199 237
161 199 237
161 199 237
161 199 237
161 199 237
161 199 237
161 199 237
162 199 237
162 199 237
162 199 237
162 199 237
162 199 237
162 199 237
162 199 237
162 200 237
162 200 237
162 200 237
163 200 237
163 200 237
163 200 237
163 200 237
163 200 237
163 200 237
163 200 237
163 200 237
163 200 237
163 200 237
164 200 237
164 200 237
164 200 237
164 201 237
164 201 237
164 201 237
164 201 237
164 201 237
164 201 237
164 201 237
165 201 237
165 201 237
165 201 237
165 201 237
165 201 237
165 201 237
165 201 237
165 201 237
165 201 237
165 201 237
165 201 237
166 202 238
166 202 238
166 202 238
166 202 238
166 202 238
166 202 238
166 202 238
166 202 238
166 202 238
166 202 238
166 202 238
167 202 238
167 202 238
167 202 238
167 202 238
167 202 238
167 202 238
167 202 238
167 202 238
167 203 238
167 203 238
167 203 238
168 203 238
168 203 238
168 203 238
168 203 238
168 203 238
168 203 238
168 203 238
168 203 238
168 203 238
168 203 238
168 203 238
168 203 238
168 203 238
169 203 238
169 203 238
169 203 238
169 203 238
169 204 238
169 204 238
169 204 238
169 204 238
169 204 238
169 204 238
169 204 238
169 204 238
169 204 238
169 204 238
169 204 238
169 204 238
169 204 238
169 204 238
169 204 238
169 203 238
169 203 238
169 203 238
169 203 238
168 203 238
168 203 238
168 203 238
168 203 238
168 203 238
168 203 238
168 203 238
168 203 238
168 203 238
168 203 238
168 203 238
168 203 238
167 203 238
167 203 238
167 203 238
167 203 238
167 202 238
167 202 238
167 202 238
167 202 238
167 202 238
167 202 238
167 202 238
167 202 238
166 202 238
166 202 238
166 202 238
166 202 238
166 202 238
166 202 238
166 202 238
166 202 238
166 202 238
166 202 238
166 202 238
165 201 237
165 201 237
165 201 237
165 201 237
165 201 237
165 201 237
165 201 237
165 201 237
165 201 237
165 201 237
165 201 237
164 201 237
164 201 237
164 201 237
164 201 237
164 201 237
164 201 237
164 201 237
164 200 237
164 200 237
164 200 237
163 200 237
163 200 237
163 200 237
163 200 237
163 200 237
163 200 237
163 200 237
163 200 237
163 200 237
163 200 237
162 200 237
162 200 237
162 200 237
162 199 237
162 199 237
162 199 237
162 199 237
162 199 237
162 199 237
162 199 237
161 199 237
161 199 237
161 199 237
161 199 237
161 199 237
161 199 237
161 199 237
161 199 237
161 199 237
160 198 236
160 198 236
160 198 236
160 198 236
160 198 236
160 198 236
160 198 236
160 198 236
160 198 236
160 198 236
159 198 236
159 198 236
159 198 236
159 198 236
159 198 236
159 198 236
159 197 236
159 197 236
159 197 236
158 197 236
158 197 236
158 197 236
158 197 236
158 197 236
158 197 236
158 197 236
158 197 236
158 197 236
158 197 236
157 197 236
157 197 236
157 197 236
157 197 236
157 196 236
157 196 236
157 196 236
157 196 236
157 196 236
157 196 236
157 196 236
156 196 236
156 196 236
156 196 236
156 196 236
156 196 236
156 196 236
156 196 236
156 196 236
156 196 236
156 196 236
156 196 236
155 195 235
155 195 235
155 195 235
155 195 235
155 195 235
155 195 235
155 195 235
155 195 235
155 195 235
155 195 235
155 195 235
155 195 235
155 195 235
155 195 235
154 195 235
154 195 235
154 195 235
154 195 235
154 195 235
154 195 235
154 195 235
154 195 235
154 195 235
154 195 235
154 195 235
154 194 235
154 194 235
154 194 235
154 194 235
154 194 235
154 194 235
154 194 235
154 194 235
153 194 235
153 194 235
153 194 235
153 194 235
153 194 235
153 194 235
153 194 235
153 194 235
153 194 235
153 194 235
153 194 235
153 194 235
153 194 235
153 194 235
153 194 235
153 194 235
153 194 235
153 194 235
153 194 235
153 194 235
153 194 235
153 194 235
153 194 235
153 194 235
153 194 235
153 194 235
153 194 235
153 194 235
153 194 235
153 194 235
153 194 235
153 194 235
153 194 235
153 194 235
153 194 235
153 194 235
154 194 235
154 194 235
154 194 235
154 194 235
154 194 235
154 194 235
154 194 235
154 194 235
154 195 235
154 195 235
154 195 235
154 195 235
154 195 235
154 195 235
154 195 235
154 195 235
154 195 235
154 195 235
154 195 235
155 195 235
155 195 235
155 195 235
155 195 235
155 195 235
155 195 235
155 195 235
155 195 235
155 195 235
155 195 235
155 195 235
155 195 235
155 195 235
155 195 235
156 196 236
156 196 236
156 196 236
156 196 236
156 196 236
156 196 236
156 196 236
156 196 236
156 196 236
156 196 236
156 196 236
157 196 236
157 196 236
157 196 236
157 196 236
157 196 236
157 196 236
157 196 236
157 197 236
157 197 236
157 197 236
157 197 236
158 197 236
158 197 236
158 197 236
158 197 236
158 197 236
158 197 236
158 197 236
158 197 236
158 197 236
158 197 236
159 197 236
159 197 236
159 197 236
159 198 236
159 198 236
159 198 236
159 198 236
159 198 236
159 198 236
160 198 236
160 198 236
160 198 236
160 198 236
160 198 236
160 198 236
160 198 236
160 198 236
160 198 236
160 198 236
161 199 237
161 199 237
161 199 237
161 199 237
161 199 237
161 199 237
161 199 237
161 199 237
161 199 237
162 199 237
162 199 237
162 199 237
162 199 237
162 199 237
162 199 237
162 199 237
162 200 237
162 200 237
162 200 237
163 200 237
163 200 237
163 200 237
163 200 237
163 200 237
163 200 237
163 200 237
163 200 237
163 200 237
163 200 237
164 200 237
164 200 237
164 200 237
164 201 237
164 201 237
164 201 237
164 201 237
164 201 237
164 201 237
164 201 237
165 201 237
165 201 237
165 201 237
165 201 237
165 201 237
165 201 237
165 201 237
165 201 237
165 201 237
165 201 237
165 201 237
166 202 238
166 202 238
166 202 238
166 202 238
166 202 238
166 202 238
166 202 238
166 202 238
166 202 238
166 202 238
166 202 238
167 202 238
167 202 238
167 202 238
167 202 238
167 202 238
167 202 238
167 202 238
167 203 238
167 203 238
167 203 238
167 203 238
167 203 238
168 203 238
168 203 238
168 203 238
168 203 238
168 203 238
168 203 238
168 203 238
168 203 238
168 203 238
168 203 238
168 203 238
168 203 238
169 203 238
169 203 238
169 203 238
169 203 238
169 204 238
169 204 238
169 204 238
169 204 238
169 204 238
169 204 238
169 204 238
169 204 238
169 204 238
170 204 238
170 204 238
170 204 238
169 204 238
169 204 238
169 204 238
169 204 238
169 204 238
169 204 238
169 204 238
169 204 238
169 204 238
169 203 238
169 203 238
169 203 238
169 203 238
168 203 238
168 203 238
168 203 238
168 203 238
168 203 238
168 203 238
168 203 238
168 203 238
168 203 238
168 203 238
168 203 238
168 203 238
167 203 238
167 203 238
167 203 238
167 203 238
167 202 238
167 202 238
167 202 238
167 202 238
167 202 238
167 202 238
167 202 238
167 202 238
166 202 238
166 202 238
166 202 238
166 202 238
166 202 238
166 202 238
166 202 238
166 202 238
166 202 238
166 202 238
166 202 238
165 201 237
165 201 237
165 201 237
165 201 237
165 201 237
165 201 237
165 201 237
165 201 237
165 201 237
165 201 237
165 201 237
164 201 237
164 201 237
164 201 237
164 201 237
164 201 237
164 201 237
164 200 237
164 200 237
164 200 237
164 200 237
163 200 237
163 200 237
163 200 237
163 200 237
163 200 237
163 200 237
163 200 237
163 200 237
163 200 237
163 200 237
162 200 237
162 200 237
162 200 237
162 199 237
162 199 237
162 199 237
162 199 237
162 199 237
162 199 237
161 199 237
161 199 237
161 199 237
161 199 237
161 199 237
161 199 237
161 199 237
161 199 237
161 199 237
161 199 237
160 198 236
160 198 236
160 198 236
160 198 236
160 198 236
160 198 236
160 198 236
160 198 236
160 198 236
160 198 236
159 198 236
159 198 236
159 198 236
159 198 236
159 198 236
159 198 236
159 197 236
159 197 236
159 197 236
158 197 236
158 197 236
158 197 236
158 197 236
158 197 236
158 197 236
158 197 236
158 197 236
158 197 236
158 197 236
157 197 236
157 197 236
157 197 236
157 197 236
157 196 236
157 196 236
157 196 236
157 196 236
157 196 236
157 196 236
157 196 236
156 196 236
156 196 236
156 196 236
156 196 236
156 196 236
156 196 236
156 196 236
156 196 236
156 196 236
156 196 236
156 196 236
156 196 236
155 195 235
155 195 235
155 195 235
155 195 235
155 195 235
155 195 235
155 195 235
155 195 235
155 195 235
155 195 235
155 195 235
155 195 235
155 195 235
155 195 235
154 195 235
154 195 235
154 195 235
154 195 235
154 195 235
154 195 235
154 195 235
154 195 235
154 195 235
154 195 235
154 195 235
154 195 235
154 195 235
154 195 235
154 195 235
154 194 235
154 194 235
154 194 235
154 194 235
154 194 235
154 194 235
154 194 235
154 194 235
154 194 235
154 194 235
154 194 235
154 194 235
154 194 235
154 194 235
154 194 235
154 194 235
153 194 235
153 194 235
153 194 235
153 194 235
154 194 235
154 194 235
154 194 235
154 194 235
154 194 235
154 194 235
154 194 235
154 194 235
154 194 235
154 194 235
154 194 235
154 194 235
154 194 235
154 194 235
154 194 235
154 194 235
154 195 235
154 195 235
154 195 235
154 195 235
154 195 235
154 195 235
154 195 235
154 195 235
154 195 235
154 195 235
154 195 235
154 195 235
154 195 235
154 195 235
155 195 235
155 195 235
155 195 235
155 195 235
155 195 235
155 195 235
155 195 235
155 195 235
155 195 235
155 195 235
155 195 235
155 195 235
155 195 235
155 195 235
155 195 235
156 196 236
156 196 236
156 196 236
156 196 236
156 196 236
156 196 236
156 196 236
156 196 236
156 196 236
156 196 236
156 196 236
156 196 236
157 196 236
157 196 236
157 196 236
157 196 236
157 196 236
157 196 236
157 196 236
157 197 236
157 197 236
157 197 236
157 197 236
158 197 236
158 197 236
158 197 236
158 197 236
158 197 236
158 197 236
158 197 236
158 197 236
158 197 236
158 197 236
159 197 236
159 197 236
159 197 236
159 198 236
159 198 236
159 198 236
159 198 236
159 198 236
159 198 236
160 198 236
160 198 236
160 198 236
160 198 236
160 198 236
160 198 236
160 198 236
160 198 236
160 198 236
160 198 236
161 199 237
161 199 237
161 199 237
161 199 237
161 199 237
161 199 237
161 199 237
161 199 237
161 199 237
161 199 237
162 199 237
162 199 237
162 199 237
162 199 237
162 199 237
162 199 237
162 200 237
162 200 237
162 200 237
163 200 237
163 200 237
163 200 237
163 200 237
163 200 237
163 200 237
163 200 237
163 200 237
163 200 237
163 200 237
164 200 237
164 200 237
164 200 237
164 200 237
164 201 237
164 201 237
164 201 237
164 201 237
164 201 237
164 201 237
165 201 237
165 201 237
165 201 237
165 201 237
165 201 237
165 201 237
165 201 237
165 201 237
165 201 237
165 201 237
165 201 237
166 202 238
166 202 238
166 202 238
166 202 238
166 202 238
166 202 238
166 202 238
166 202 238
166 202 238
166 202 238
166 202 238
167 202 238
167 202 238
167 202 238
167 202 238
167 202 238
167 202 238
167 202 238
167 202 238
167 203 238
167 203 238
167 203 238
167 203 238
168 203 238
168 203 238
168 203 238
168 203 238
168 203 238
168 203 238
168 203 238
168 203 238
168 203 238
168 203 238
168 203 238
168 203 238
169 203 238
169 203 238
169 203 238
169 203 238
169 204 238
169 204 238
169 204 238
169 204 238
169 204 238
169 204 238
169 204 238
169 204 238
169 204 238
170 204 238
170 204 238
170 204 238
170 204 238
170 204 238
170 204 238
170 204 238
170 204 238
170 204 238
169 204 238
169 204 238
169 204 238
169 204 238
169 204 238
169 204 238
169 204 238
169 204 238
169 204 238
169 203 238
169 203 238
169 203 238
169 203 238
168 203 238
168 203 238
168 203 238
168 203 238
168 203 238
168 203 238
168 203 238
168 203 238
168 203 238
168 203 238
168 203 238
168 203 238
167 203 238
167 203 238
167 203 238
167 203 238
167 202 238
167 202 238
167 202 238
167 202 238
167 202 238
167 202 238
167 202 238
167 202 238
166 202 238
166 202 238
166 202 238
166 202 238
166 202 238
166 202 238
166 202 238
166 202 238
166 202 238
166 202 238
166 202 238
165 201 237
165 201 237
165 201 237
165 201 237
165 201 237
165 201 237
165 201 237
165 201 237
165 201 237
165 201 237
164 201 237
164 201 237
164 201 237
164 201 237
164 201 237
164 201 237
164 201 237
164 200 237
164 200 237
164 200 237
164 200 237
163 200 237
163 200 237
163 200 237
163 200 237
163 200 237
163 200 237
163 200 237
163 200 237
163 200 237
162 200 237
162 200 237
162 200 237
162 200 237
162 199 237
162 199 237
162 199 237
162 199 237
162 199 237
162 199 237
161 199 237
161 199 237
161 199 237
161 199 237
161 199 237
161 199 237
161 199 237
161 199 237
161 199 237
161 199 237
160 198 236
160 198 236
160 198 236
160 198 236
160 198 236
160 198 236
160 198 236
160 198 236
160 198 236
159 198 236
159 198 236
159 198 236
159 198 236
159 198 236
159 198 236
159 198 236
159 197 236
159 197 236
159 197 236
158 197 236
158 197 236
158 197 236
158 197 236
158 197 236
158 197 236
158 197 236
158 197 236
158 197 236
158 197 236
157 197 236
157 197 236
157 197 236
157 197 236
157 196 236
157 196 236
157 196 236
157 196 236
157 196 236
157 196 236
157 196 236
156 196 236
156 196 236
156 196 236
156 196 236
156 196 236
156 196 236
156 196 236
156 196 236
156 196 236
156 196 236
156 196 236
156 196 236
156 196 236
155 195 235
155 195 235
155 195 235
155 195 235
155 195 235
155 195 235
155 195 235
155 195 235
155 195 235
155 195 235
155 195 235
155 195 235
155 195 235
155 195 235
155 195 235
155 195 235
154 195 235
154 195 235
154 195 235
154 195 235
154 195 235
154 195 235
154 195 235
154 195 235
154 195 235
154 195 235
154 195 235
154 195 235
154 195 235
154 195 235
154 195 235
154 195 235
154 195 235
154 195 235
154 195 235
154 195 235
154 195 235
154 194 235
154 194 235
154 194 235
154 194 235
154 194 235
154 194 235
154 194 235
154 194 235
154 194 235
154 194 235
154 194 235
154 194 235
154 195 235
154 195 235
154 195 235
154 195 235
154 195 235
154 195 235
154 195 235
154 195 235
154 195 235
154 195 235
154 195 235
154 195 235
154 195 235
154 195 235
154 195 235
154 195 235
154 195 235
154 195 235
154 195 235
154 195 235
154 195 235
155 195 235
155 195 235
155 195 235
155 195 235
155 195 235
155 195 235
155 195 235
155 195 235
155 195 235
155 195 235
155 195 235
155 195 235
155 195 235
155 195 235
155 195 235
155 195 235
156 196 236
156 196 236
156 196 236
156 196 236
156 196 236
156 196 236
156 196 236
156 196 236
156 196 236
156 196 236
156 196 236
156 196 236
156 196 236
157 196 236
157 196 236
157 196 236
157 196 236
157 196 236
157 196 236
157 196 236
157 197 236
157 197 236
157 197 236
157 197 236
158 197 236
158 197 236
158 197 236
158 197 236
158 197 236
158 197 236
158 197 236
158 197 236
158 197 236
158 197 236
159 197 236
159 197 236
159 197 236
159 198 236
159 198 236
159 198 236
159 198 236
159 198 236
159 198 236
159 198 236
160 198 236
160 198 236
160 198 236
160 198 236
160 198 236
160 198 236
160 198 236
160 198 236
160 198 236
161 199 237
161 199 237
161 199 237
161 199 237
161 199 237
161 199 237
161 199 237
161 199 237
161 199 237
161 199 237
162 199 237
162 199 237
162 199 237
162 199 237
162 199 237
162 199 237
162 200 237
162 200 237
162 200 237
162 200 237
163 200 237
163 200 237
163 200 237
163 200 237
163 200 237
163 200 237
163 200 237
163 200 237
163 200 237
163 200 237
164 200 237
164 200 237
164 200 237
164 201 237
164 201 237
164 201 237
164 201 237
164 201 237
164 201 237
164 201 237
165 201 237
165 201 237
165 201 237
165 201 237
165 201 237
165 201 237
165 201 237
165 201 237
165 201 237
165 201 237
166 202 238
166 202 238
166 202 238
166 202 238
166 202 238
166 202 238
166 202 238
166 202 238
166 202 238
166 202 238
166 202 238
167 202 238
167 202 238
167 202 238
167 202 238
167 202 238
167 202 238
167 202 238
167 202 238
167 203 238
167 203 238
167 203 238
167 203 238
168 203 238
168 203 238
168 203 238
168 203 238
168 203 238
168 203 238
168 203 238
168 203 238
168 203 238
168 203 238
168 203 238
168 203 238
169 203 238
169 203 238
169 203 238
169 203 238
169 204 238
169 204 238
169 204 238
169 204 238
169 204 238
169 204 238
169 204 238
169 204 238
169 204 238
170 204 238
170 204 238
170 204 238
170 204 238
170 204 238
170 204 238
170 204 238
170 204 238
170 204 238
170 204 238
170 204 238
170 204 238
170 204 238
170 204 238
170 204 238
170 204 238
169 204 238
169 204 238
169 204 238
169 204 238
169 204 238
169 204 238
169 204 238
169 204 238
169 203 238
169 203 238
169 203 238
169 203 238
168 203 238
168 203 238
168 203 238
168 203 238
168 203 238
168 203 238
168 203 238
168 203 238
168 203 238
168 203 238
168 203 238
168 203 238
167 203 238
167 203 238
167 203 238
167 203 238
167 202 238
167 202 238
167 202 238
167 202 238
167 202 238
167 202 238
167 202 238
167 202 238
166 202 238
166 202 238
166 202 238
166 202 238
166 202 238
166 202 238
166 202 238
166 202 238
166 202 238
166 202 238
166 202 238
165 201 237
165 201 237
165 201 237
165 201 237
165 201 237
165 201 237
165 201 237
165 201 237
165 201 237
165 201 237
164 201 237
164 201 237
164 201 237
164 201 237
164 201 237
164 201 237
164 201 237
164 200 237
164 200 237
164 200 237
163 200 237
163 200 237
163 200 237
163 200 237
163 200 237
163 200 237
163 200 237
163 200 237
163 200 237
163 200 237
162 200 237
162 200 237
162 200 237
162 199 237
162 199 237
162 199 237
162 199 237
162 199 237
162 199 237
162 199 237
161 199 237
161 199 237
161 199 237
161 199 237
161 199 237
161 199 237
161 199 237
161 199 237
161 199 237
160 198 236
160 198 236
160 198 236
160 198 236
160 198 236
160 198 236
160 198 236
160 198 236
160 198 236
160 198 236
159 198 236
159 198 236
159 198 236
159 198 236
159 198 236
159 198 236
159 198 236
159 197 236
159 197 236
159 197 236
158 197 236
158 197 236
158 197 236
158 197 236
158 197 236
158 197 236
158 197 236
158 197 236
158 197 236
158 197 236
157 197 236
157 197 236
157 197 236
157 197 236
157 196 236
157 196 236
157 196 236
157 196 236
157 196 236
157 196 236
157 196 236
157 196 236
156 196 236
156 196 236
156 196 236
156 196 236
156 196 236
156 196 236
156 196 236
156 196 236
156 196 236
156 196 236
156 196 236
156 196 236
156 196 236
155 195 235
155 195 235
155 195 235
155 195 235
155 195 235
155 195 235
155 195 235
155 195 235
155 195 235
155 195 235
155 195 235
155 195 235
155 195 235
155 195 235
155 195 235
155 195 235
155 195 235
155 195 235
155 195 235
154 195 235
154 195 235
154 195 235
154 195 235
154 195 235
154 195 235
154 195 235
154 195 235
154 195 235
154 195 235
154 195 235
154 195 235
154 195 235
154 195 235
154 195 235
154 195 235
154 195 235
154 195 235
154 195 235
154 195 235
154 195 235
154 195 235
154 195 235
154 195 235
154 195 235
154 195 235
154 195 235
154 195 235
154 195 235
154 195 235
154 195 235
154 195 235
154 195 235
154 195 235
154 195 235
154 195 235
154 195 235
154 195 235
154 195 235
154 195 235
154 195 235
155 195 235
155 195 235
155 195 235
155 195 235
155 195 235
155 195 235
155 195 235
155 195 235
155 195 235
155 195 235
155 195 235
155 195 235
155 195 235
155 195 235
155 195 235
155 195 235
155 195 235
155 195 235
156 196 236
156 196 236
156 196 236
156 196 236
156 196 236
156 196 236
156 196 236
156 196 236
156 196 236
156 196 236
156 196 236
156 196 236
156 196 236
157 196 236
157 196 236
157 196 236
157 196 236
157 196 236
157 196 236
157 196 236
157 196 236
157 197 236
157 197 236
157 197 236
157 197 236
158 197 236
158 197 236
158 197 236
158 197 236
158 197 236
158 197 236
158 197 236
158 197 236
158 197 236
158 197 236
159 197 236
159 197 236
159 197 236
159 198 236
159 198 236
159 198 236
159 198 236
159 198 236
159 198 236
159 198 236
160 198 236
160 198 236
160 198 236
160 198 236
160 198 236
160 198 236
160 198 236
160 198 236
160 198 236
161 199 237
161 199 237
161 199 237
161 199 237
161 199 237
161 199 237
161 199 237
161 199 237
161 199 237
161 199 237
162 199 237
162 199 237
162 199 237
162 199 237
162 199 237
162 199 237
162 199 237
162 200 237
162 200 237
162 200 237
163 200 237
163 200 237
163 200 237
163 200 237
163 200 237
163 200 237
163 200 237
163 200 237
163 200 237
163 200 237
164 200 237
164 200 237
164 200 237
164 201 237
164 201 237
164 201 237
164 201 237
164 201 237
164 201 237
164 201 237
165 201 237
165 201 237
165 201 237
165 201 237
165 201 237
165 201 237
165 201 237
165 201 237
165 201 237
165 201 237
166 202 238
166 202 238
166 202 238
166 202 238
166 202 238
166 202 238
166 202 238
166 202 238
166 202 238
166 202 238
166 202 238
167 202 238
167 202 238
167 202 238
167 202 238
167 202 238
167 202 238
167 202 238
167 202 238
167 203 238
167 203 238
167 203 238
168 203 238
168 203 238
168 203 238
168 203 238
168 203 238
168 203 238
168 203 238
168 203 238
168 203 238
168 203 238
168 203 238
168 203 238
168 203 238
169 203 238
169 203 238
169 203 238
169 203 238
169 204 238
169 204 238
169 204 238
169 204 238
169 204 238
169 204 238
169 204 238
169 204 238
169 204 238
170 204 238
170 204 238
170 204 238
170 204 238
170 204 238
170 204 238
170 204 238
170 204 238
170 204 238
170 204 238
170 204 238
170 204 238
170 204 238
170 204 238
170 204 238
170 204 238
170 204 238
170 204 238
170 204 238
170 204 238
170 204 238
170 204 238
169 204 238
169 204 238
169 204 238
169 204 238
169 204 238
169 204 238
169 204 238
169 204 238
169 203 238
169 203 238
169 203 238
169 203 238
168 203 238
168 203 238
168 203 238
168 203 238
168 203 238
168 203 238
168 203 238
168 203 238
168 203 238
168 203 238
168 203 238
168 203 238
167 203 238
167 203 238
167 203 238
167 203 238
167 202 238
167 202 238
167 202 238
167 202 238
167 202 238
167 202 238
167 202 238
167 202 238
166 202 238
166 202 238
166 202 238
166 202 238
166 202 238
166 202 238
166 202 238
166 202 238
166 202 238
166 202 238
165 201 237
165 201 237
165 201 237
165 201 237
165 201 237
165 201 237
165 201 237
165 201 237
165 201 237
165 201 237
165 201 237
164 201 237
164 201 237
164 201 237
164 201 237
164 201 237
164 201 237
164 201 237
164 200 237
164 200 237
164 200 237
163 200 237
163 200 237
163 200 237
163 200 237
163 200 237
163 200 237
163 200 237
163 200 237
163 200 237
163 200 237
162 200 237
162 200 237
162 200 237
162 199 237
162 199 237
162 199 237
162 199 237
162 199 237
162 199 237
162 199 237
161 199 237
161 199 237
161 199 237
161 199 237
161 199 237
161 199 237
161 199 237
161 199 237
161 199 237
160 198 236
160 198 236
160 198 236
160 198 236
160 198 236
160 198 236
160 198 236
160 198 236
160 198 236
160 198 236
159 198 236
159 198 236
159 198 236
159 198 236
159 198 236
159 198 236
159 198 236
159 197 236
159 197 236
159 197 236
158 197 236
158 197 236
158 197 236
158 197 236
158 197 236
158 197 236
158 197 236
158 197 236
158 197 236
158 197 236
158 197 236
157 197 236
157 197 236
157 197 236
157 197 236
157 196 236
157 196 236
157 196 236
157 196 236
157 196 236
157 196 236
157 196 236
157 196 236
156 196 236
156 196 236
156 196 236
156 196 236
156 196 236
156 196 236
156 196 236
156 196 236
156 196 236
156 196 236
156 196 236
156 196 236
156 196 236
156 196 236
155 195 235
155 195 235
155 195 235
155 195 235
155 195 235
155 195 235
155 195 235
155 195 235
155 195 235
155 195 235
155 195 235
155 195 235
155 195 235
155 195 235
155 195 235
155 195 235
155 195 235
155 195 235
155 195 235
155 195 235
155 195 235
155 195 235
155 195 235
155 195 235
155 195 235
154 195 235
154 195 235
154 195 235
154 195 235
154 195 235
154 195 235
154 195 235
154 195 235
154 195 235
154 195 235
154 195 235
154 195 235
154 195 235
154 195 235
154 195 235
154 195 235
154 195 235
154 195 235
155 195 235
155 195 235
155 195 235
155 195 235
155 195 235
155 195 235
155 195 235
155 195 235
155 195 235
155 195 235
155 195 235
155 195 235
155 195 235
155 195 235
155 195 235
155 195 235
155 195 235
155 195 235
155 195 235
155 195 235
155 195 235
155 195 235
155 195 235
155 195 235
155 195 235
155 195 235
156 196 236
156 196 236
156 196 236
156 196 236
156 196 236
156 196 236
156 196 236
156 196 236
156 196 236
156 196 236
156 196 236
156 196 236
156 196 236
156 196 236
157 196 236
157 196 236
157 196 236
157 196 236
157 196 236
157 196 236
157 196 236
157 197 236
157 197 236
157 197 236
157 197 236
158 197 236
158 197 236
158 197 236
158 197 236
158 197 236
158 197 236
158 197 236
158 197 236
158 197 236
158 197 236
158 197 236
159 197 236
159 197 236
159 197 236
159 198 236
159 198 236
159 198 236
159 198 236
159 198 236
159 198 236
159 198 236
160 198 236
160 198 236
160 198 236
160 198 236
160 198 236
160 198 236
160 198 236
160 198 236
160 198 236
160 198 236
161 199 237
161 199 237
161 199 237
161 199 237
161 199 237
161 199 237
161 199 237
161 199 237
161 199 237
162 199 237
162 199 237
162 199 237
162 199 237
162 199 237
162 199 237
162 199 237
162 200 237
162 200 237
162 200 237
163 200 237
163 200 237
163 200 237
163 200 237
163 200 237
163 200 237
163 200 237
163 200 237
163 200 237
163 200 237
164 200 237
164 200 237
164 200 237
164 201 237
164 201 237
164 201 237
164 201 237
164 201 237
164 201 237
164 201 237
165 201 237
165 201 237
165 201 237
165 201 237
165 201 237
165 201 237
165 201 237
165 201 237
165 201 237
165 201 237
166 202 238
166 202 238
166 202 238
166 202 238
166 202 238
166 202 238
166 202 238
166 202 238
166 202 238
166 202 238
166 202 238
167 202 238
167 202 238
167 202 238
167 202 238
167 202 238
167 202 238
167 202 238
167 202 238
167 203 238
167 203 238
167 203 238
167 203 238
168 203 238
168 203 238
168 203 238
168 203 238
168 203 238
168 203 238
168 203 238
168 203 238
168 203 238
168 203 238
168 203 238
168 203 238
169 203 238
169 203 238
169 203 238
169 203 238
169 204 238
169 204 238
169 204 238
169 204 238
169 204 238
169 204 238
169 204 238
169 204 238
169 204 238
170 204 238
170 204 238
170 204 238
170 204 238
170 204 238
170 204 238
170 204 238
170 204 238
170 204 238
170 204 238
170 204 238
170 204 238
171 205 239
171 205 239
170 204 238
170 204 238
170 204 238
170 204 238
170 204 238
170 204 238
170 204 238
170 204 238
170 204 238
170 204 238
170 204 238
170 204 238
170 204 238
170 204 238
169 204 238
169 204 238
169 204 238
169 204 238
169 204 238
169 204 238
169 204 238
169 204 238
169 203 238
169 203 238
169 203 238
169 203 238
169 203 238
168 203 238
168 203 238
168 203 238
168 203 238
168 203 238
168 203 238
168 203 238
168 203 238
168 203 238
168 203 238
168 203 238
167 203 238
167 203 238
167 203 238
167 203 238
167 202 238
167 202 238
167 202 238
167 202 238
167 202 238
167 202 238
167 202 238
167 202 238
166 202 238
166 202 238
166 202 238
166 202 238
166 202 238
166 202 238
166 202 238
166 202 238
166 202 238
166 202 238
165 201 237
165 201 237
165 201 237
165 201 237
165 201 237
165 201 237
165 201 237
165 201 237
165 201 237
165 201 237
165 201 237
164 201 237
164 201 237
164 201 237
164 201 237
164 201 237
164 201 237
164 200 237
164 200 237
164 200 237
164 200 237
163 200 237
163 200 237
163 200 237
163 200 237
163 200 237
163 200 237
163 200 237
163 200 237
163 200 237
163 200 237
162 200 237
162 200 237
162 200 237
162 199 237
162 199 237
162 199 237
162 199 237
162 199 237
162 199 237
161 199 237
161 199 237
161 199 237
161 199 237
161 199 237
161 199 237
161 199 237
161 199 237
161 199 237
161 199 237
160 198 236
160 198 236
160 198 236
160 198 236
160 198 236
160 198 236
160 198 236
160 198 236
160 198 236
160 198 236
159 198 236
159 198 236
159 198 236
159 198 236
159 198 236
159 198 236
159 198 236
159 197 236
159 197 236
159 197 236
158 197 236
158 197 236
158 197 236
158 197 236
158 197 236
158 197 236
158 197 236
158 197 236
158 197 236
158 197 236
158 197 236
157 197 236
157 197 236
157 197 236
157 197 236
157 196 236
157 196 236
157 196 236
157 196 236
157 196 236
157 196 236
157 196 236
157 196 236
157 196 236
156 196 236
156 196 236
156 196 236
156 196 236
156 196 236
156 196 236
156 196 236
156 196 236
156 196 236
156 196 236
156 196 236
156 196 236
156 196 236
156 196 236
156 196 236
155 195 235
155 195 235
155 195 235
155 195 235
155 195 235
155 195 235
155 195 235
155 195 235
155 195 235
155 195 235
155 195 235
155 195 235
155 195 235
155 195 235
155 195 235
155 195 235
155 195 235
155 195 235
155 195 235
155 195 235
155 195 235
155 195 235
155 195 235
155 195 235
155 195 235
155 195 235
155 195 235
155 195 235
155 195 235
155 195 235
155 195 235
155 195 235
155 195 235
155 195 235
155 195 235
155 195 235
155 195 235
155 195 235
155 195 235
155 195 235
155 195 235
155 195 235
155 195 235
155 195 235
155 195 235
155 195 235
155 195 235
155 195 235
155 195 235
155 195 235
155 195 235
155 195 235
155 195 235
155 195 235
155 195 235
155 195 235
155 195 235
155 195 235
156 196 236
156 196 236
156 196 236
156 196 236
156 196 236
156 196 236
156 196 236
156 196 236
156 196 236
156 196 236
156 196 236
156 196 236
156 196 236
156 196 236
156 196 236
157 196 236
157 196 236
157 196 236
157 196 236
157 196 236
157 196 236
157 196 236
157 196 236
157 196 236
157 197 236
157 197 236
157 197 236
157 197 236
158 197 236
158 197 236
158 197 236
158 197 236
158 197 236
158 197 236
158 197 236
158 197 236
158 197 236
158 197 236
158 197 236
159 197 236
159 197 236
159 197 236
159 198 236
159 198 236
159 198 236
159 198 236
159 198 236
159 198 236
159 198 236
160 198 236
160 198 236
160 198 236
160 198 236
160 198 236
160 198 236
160 198 236
160 198 236
160 198 236
160 198 236
161 199 237
161 199 237
161 199 237
161 199 237
161 199 237
161 199 237
161 199 237
161 199 237
161 199 237
162 199 237
162 199 237
162 199 237
162 199 237
162 199 237
162 199 237
162 199 237
162 200 237
162 200 237
162 200 237
163 200 237
163 200 237
163 200 237
163 200 237
163 200 237
163 200 237
163 200 237
163 200 237
163 200 237
163 200 237
164 200 237
164 200 237
164 200 237
164 201 237
164 201 237
164 201 237
164 201 237
164 201 237
164 201 237
164 201 237
165 201 237
165 201 237
165 201 237
165 201 237
165 201 237
165 201 237
165 201 237
165 201 237
165 201 237
165 201 237
165 201 237
166 202 238
166 202 238
166 202 238
166 202 238
166 202 238
166 202 238
166 202 238
166 202 238
166 202 238
166 202 238
167 202 238
167 202 238
167 202 238
167 202 238
167 202 238
167 202 238
167 202 238
167 202 238
167 203 238
167 203 238
167 203 238
167 203 238
168 203 238
168 203 238
168 203 238
168 203 238
168 203 238
168 203 238
168 203 238
168 203 238
168 203 238
168 203 238
168 203 238
168 203 238
169 203 238
169 203 238
169 203 238
169 203 238
169 204 238
169 204 238
169 204 238
169 204 238
169 204 238
169 204 238
169 204 238
169 204 238
170 204 238
170 204 238
170 204 238
170 204 238
170 204 238
170 204 238
170 204 238
170 204 238
170 204 238
170 204 238
170 204 238
170 204 238
170 204 238
170 204 238
171 205 239
171 205 239
171 205 239
171 205 239
171 205 239
171 205 239
171 205 239
171 205 239
170 204 238
170 204 238
170 204 238
170 204 238
170 204 238
170 204 238
170 204 238
170 204 238
170 204 238
170 204 238
170 204 238
170 204 238
170 204 238
169 204 238
169 204 238
169 204 238
169 204 238
169 204 238
169 204 238
169 204 238
169 204 238
169 203 238
169 203 238
169 203 238
169 203 238
169 203 238
168 203 238
168 203 238
168 203 238
168 203 238
168 203 238
168 203 238
168 203 238
168 203 238
168 203 238
168 203 238
168 203 238
167 203 238
167 203 238
167 203 238
167 203 238
167 202 238
167 202 238
167 202 238
167 202 238
167 202 238
167 202 238
167 202 238
167 202 238
166 202 238
166 202 238
166 202 238
166 202 238
166 202 238
166 202 238
166 202 238
166 202 238
166 202 238
166 202 238
165 201 237
165 201 237
165 201 237
165 201 237
165 201 237
165 201 237
165 201 237
165 201 237
165 201 237
165 201 237
165 201 237
164 201 237
164 201 237
164 201 237
164 201 237
164 201 237
164 201 237
164 200 237
164 200 237
164 200 237
164 200 237
163 200 237
163 200 237
163 200 237
163 200 237
163 200 237
163 200 237
163 200 237
163 200 237
163 200 237
162 200 237
162 200 237
162 200 237
162 200 237
162 199 237
162 199 237
162 199 237
162 199 237
162 199 237
162 199 237
161 199 237
161 199 237
161 199 237
161 199 237
161 199 237
161 199 237
161 199 237
161 199 237
161 199 237
161 199 237
160 198 236
160 198 236
160 198 236
160 198 236
160 198 236
160 198 236
160 198 236
160 198 236
160 198 236
160 198 236
159 198 236
159 198 236
159 198 236
159 198 236
159 198 236
159 198 236
159 198 236
159 197 236
159 197 236
159 197 236
158 197 236
158 197 236
158 197 236
158 197 236
158 197 236
158 197 236
158 197 236
158 197 236
158 197 236
158 197 236
158 197 236
158 197 236
157 197 236
157 197 236
157 197 236
157 197 236
157 196 236
157 196 236
157 196 236
157 196 236
157 196 236
157 196 236
157 196 236
157 196 236
157 196 236
156 196 236
156 196 236
156 196 236
156 196 236
156 196 236
156 196 236
156 196 236
156 196 236
156 196 236
156 196 236
156 196 236
156 196 236
156 196 236
156 196 236
156 196 236
156 196 236
156 196 236
156 196 236
155 195 235
155 195 235
155 195 235
155 195 235
155 195 235
155 195 235
155 195 235
155 195 235
155 195 235
155 195 235
155 195 235
155 195 235
155 195 235
155 195 235
155 195 235
155 195 235
155 195 235
155 195 235
155 195 235
155 195 235
155 195 235
155 195 235
155 195 235
155 195 235
155 195 235
155 195 235
155 195 235
155 195 235
155 195 235
155 195 235
155 195 235
155 195 235
155 195 235
155 195 235
155 195 235
155 195 235
155 195 235
155 195 235
155 195 235
155 195 235
155 195 235
155 195 235
155 195 235
155 195 235
156 196 236
156 196 236
156 196 236
156 196 236
156 196 236
156 196 236
156 196 236
156 196 236
156 196 236
156 196 236
156 196 236
156 196 236
156 196 236
156 196 236
156 196 236
156 196 236
156 196 236
156 196 236
157 196 236
157 196 236
157 196 236
157 196 236
157 196 236
157 196 236
157 196 236
157 196 236
157 196 236
157 197 236
157 197 236
157 197 236
157 197 236
158 197 236
158 197 236
158 197 236
158 197 236
158 197 236
158 197 236
158 197 236
158 197 236
158 197 236
158 197 236
158 197 236
159 197 236
159 197 236
159 197 236
159 197 236
159 198 236
159 198 236
159 198 236
159 198 236
159 198 236
159 198 236
159 198 236
160 198 236
160 198 236
160 198 236
160 198 236
160 198 236
160 198 236
160 198 236
160 198 236
160 198 236
160 198 236
161 199 237
161 199 237
161 199 237
161 199 237
161 199 237
161 199 237
161 199 237
161 199 237
161 199 237
161 199 237
162 199 237
162 199 237
162 199 237
162 199 237
162 199 237
162 199 237
162 200 237
162 200 237
162 200 237
163 200 237
163 200 237
163 200 237
163 200 237
163 200 237
163 200 237
163 200 237
163 200 237
163 200 237
163 200 237
164 200 237
164 200 237
164 200 237
164 200 237
164 201 237
164 201 237
164 201 237
164 201 237
164 201 237
164 201 237
165 201 237
165 201 237
165 201 237
165 201 237
165 201 237
165 201 237
165 201 237
165 201 237
165 201 237
165 201 237
165 201 237
166 202 238
166 202 238
166 202 238
166 202 238
166 202 238
166 202 238
166 202 238
166 202 238
166 202 238
166 202 238
167 202 238
167 202 238
167 202 238
167 202 238
167 202 238
167 202 238
167 202 238
167 202 238
167 203 238
167 203 238
167 203 238
167 203 238
168 203 238
168 203 238
168 203 238
168 203 238
168 203 238
168 203 238
168 203 238
168 203 238
168 203 238
168 203 238
168 203 238
169 203 238
169 203 238
169 203 238
169 203 238
169 204 238
169 204 238
169 204 238
169 204 238
169 204 238
169 204 238
169 204 238
169 204 238
169 204 238
170 204 238
170 204 238
170 204 238
170 204 238
170 204 238
170 204 238
170 204 238
170 204 238
170 204 238
170 204 238
170 204 238
170 204 238
170 204 238
171 205 239
171 205 239
171 205 239
171 205 239
171 205 239
171 205 239
171 205 239
171 205 239
171 205 239
171 205 239
171 205 239
171 205 239
171 205 239
171 205 239
171 205 239
170 204 238
170 204 238
170 204 238
170 204 238
170 204 238
170 204 238
170 204 238
170 204 238
170 204 238
170 204 238
170 204 238
170 204 238
170 204 238
169 204 238
169 204 238
169 204 238
169 204 238
169 204 238
169 204 238
169 204 238
169 204 238
169 204 238
169 203 238
169 203 238
169 203 238
169 203 238
168 203 238
168 203 238
168 203 238
168 203 238
168 203 238
168 203 238
168 203 238
168 203 238
168 203 238
168 203 238
168 203 238
167 203 238
167 203 238
167 203 238
167 203 238
167 202 238
167 202 238
167 202 238
167 202 238
167 202 238
167 202 238
167 202 238
167 202 238
166 202 238
166 202 238
166 202 238
166 202 238
166 202 238
166 202 238
166 202 238
166 202 238
166 202 238
166 202 238
165 201 237
165 201 237
165 201 237
165 201 237
165 201 237
165 201 237
165 201 237
165 201 237
165 201 237
165 201 237
165 201 237
164 201 237
164 201 237
164 201 237
164 201 237
164 201 237
164 201 237
164 200 237
164 200 237
164 200 237
164 200 237
163 200 237
163 200 237
163 200 237
163 200 237
163 200 237
163 200 237
163 200 237
163 200 237
163 200 237
163 200 237
162 200 237
162 200 237
162 200 237
162 199 237
162 199 237
162 199 237
162 199 237
162 199 237
162 199 237
161 199 237
161 199 237
161 199 237
161 199 237
161 199 237
161 199 237
161 199 237
161 199 237
161 199 237
161 199 237
160 198 236
160 198 236
160 198 236
160 198 236
160 198 236
160 198 236
160 198 236
160 198 236
160 198 236
160 198 236
159 198 236
159 198 236
159 198 236
159 198 236
159 198 236
159 198 236
159 198 236
159 197 236
159 197 236
159 197 236
159 197 236
158 197 236
158 197 236
158 197 236
158 197 236
158 197 236
158 197 236
158 197 236
158 197 236
158 197 236
158 197 236
158 197 236
158 197 236
157 197 236
157 197 236
157 197 236
157 197 236
157 196 236
157 196 236
157 196 236
157 196 236
157 196 236
157 196 236
157 196 236
157 196 236
157 196 236
157 196 236
156 196 236
156 196 236
156 196 236
156 196 236
156 196 236
156 196 236
156 196 236
156 196 236
156 196 236
156 196 236
156 196 236
156 196 236
156 196 236
156 196 236
156 196 236
156 196 236
156 196 236
156 196 236
156 196 236
156 196 236
156 196 236
156 196 236
155 195 235
155 195 235
155 195 235
155 195 235
155 195 235
155 195 235
155 195 235
155 195 235
155 195 235
155 195 235
155 195 235
155 195 235
155 195 235
155 195 235
155 195 235
155 195 235
155 195 235
155 195 235
155 195 235
155 195 235
155 195 235
155 195 235
155 195 235
155 195 235
155 195 235
155 195 235
156 196 236
156 196 236
156 196 236
156 196 236
156 196 236
156 196 236
156 196 236
156 196 236
156 196 236
156 196 236
156 196 236
156 196 236
156 196 236
156 196 236
156 196 236
156 196 236
156 196 236
156 196 236
156 196 236
156 196 236
156 196 236
156 196 236
157 196 236
157 196 236
157 196 236
157 196 236
157 196 236
157 196 236
157 196 236
157 196 236
157 196 236
157 196 236
157 197 236
157 197 236
157 197 236
157 197 236
158 197 236
158 197 236
158 197 236
158 197 236
158 197 236
158 197 236
158 197 236
158 197 236
158 197 236
158 197 236
158 197 236
158 197 236
159 197 236
159 197 236
159 197 236
159 197 236
159 198 236
159 198 236
159 198 236
159 198 236
159 198 236
159 198 236
159 198 236
160 198 236
160 198 236
160 198 236
160 198 236
160 198 236
160 198 236
160 198 236
160 198 236
160 198 236
160 198 236
161 199 237
161 199 237
161 199 237
161 199 237
161 199 237
161 199 237
161 199 237
161 199 237
161 199 237
161 199 237
162 199 237
162 199 237
162 199 237
162 199 237
162 199 237
162 199 237
162 200 237
162 200 237
162 200 237
163 200 237
163 200 237
163 200 237
163 200 237
163 200 237
163 200 237
163 200 237
163 200 237
163 200 237
163 200 237
164 200 237
164 200 237
164 200 237
164 200 237
164 201 237
164 201 237
164 201 237
164 201 237
164 201 237
164 201 237
165 201 237
165 201 237
165 201 237
165 201 237
165 201 237
165 201 237
165 201 237
165 201 237
165 201 237
165 201 237
165 201 237
166 202 238
166 202 238
166 202 238
166 202 238
166 202 238
166 202 238
166 202 238
166 202 238
166 202 238
166 202 238
167 202 238
167 202 238
167 202 238
167 202 238
167 202 238
167 202 238
167 202 238
167 202 238
167 203 238
167 203 238
167 203 238
168 203 238
168 203 238
168 203 238
168 203 238
168 203 238
168 203 238
168 203 238
168 203 238
168 203 238
168 203 238
168 203 238
168 203 238
169 203 238
169 203 238
169 203 238
169 203 238
169 204 238
169 204 238
169 204 238
169 204 238
169 204 238
169 204 238
169 204 238
169 204 238
169 204 238
170 204 238
170 204 238
170 204 238
170 204 238
170 204 238
170 204 238
170 204 238
170 204 238
170 204 238
170 204 238
170 204 238
170 204 238
170 204 238
171 205 239
171 205 239
171 205 239
171 205 239
171 205 239
171 205 239
171 205 239
171 205 239
171 205 239
171 205 239
171 205 239
171 205 239
171 205 239
171 205 239
171 205 239
171 205 239
171 205 239
171 205 239
171 205 239
171 205 239
171 205 239
170 204 238
170 204 238
170 204 238
170 204 238
170 204 238
170 204 238
170 204 238
170 204 238
170 204 238
170 204 238
170 204 238
170 204 238
170 204 238
169 204 238
169 204 238
169 204 238
169 204 238
169 204 238
169 204 238
169 204 238
169 204 238
169 204 238
169 203 238
169 203 238
169 203 238
169 203 238
168 203 238
168 203 238
168 203 238
168 203 238
168 203 238
168 203 238
168 203 238
168 203 238
168 203 238
168 203 238
168 203 238
168 203 238
167 203 238
167 203 238
167 203 238
167 202 238
167 202 238
167 202 238
167 202 238
167 202 238
167 202 238
167 202 238
167 202 238
166 202 238
166 202 238
166 202 238
166 202 238
166 202 238
166 202 238
166 202 238
166 202 238
166 202 238
166 202 238
165 201 237
165 201 237
165 201 237
165 201 237
165 201 237
165 201 237
165 201 237
165 201 237
165 201 237
165 201 237
165 201 237
164 201 237
164 201 237
164 201 237
164 201 237
164 201 237
164 201 237
164 200 237
164 200 237
164 200 237
164 200 237
163 200 237
163 200 237
163 200 237
163 200 237
163 200 237
163 200 237
163 200 237
163 200 237
163 200 237
163 200 237
162 200 237
162 200 237
162 200 237
162 199 237
162 199 237
162 199 237
162 199 237
162 199 237
162 199 237
161 199 237
161 199 237
161 199 237
161 199 237
161 199 237
161 199 237
161 199 237
161 199 237
161 199 237
161 199 237
160 198 236
160 198 236
160 198 236
160 198 236
160 198 236
160 198 236
160 198 236
160 198 236
160 198 236
160 198 236
160 198 236
159 198 236
159 198 236
159 198 236
159 198 236
159 198 236
159 198 236
159 198 236
159 197 236
159 197 236
159 197 236
159 197 236
158 197 236
158 197 236
158 197 236
158 197 236
158 197 236
158 197 236
158 197 236
158 197 236
158 197 236
158 197 236
158 197 236
158 197 236
157 197 236
157 197 236
157 197 236
157 197 236
157 196 236
157 196 236
157 196 236
157 196 236
157 196 236
157 196 236
157 196 236
157 196 236
157 196 236
157 196 236
157 196 236
156 196 236
156 196 236
156 196 236
156 196 236
156 196 236
156 196 236
156 196 236
156 196 236
156 196 236
156 196 236
156 196 236
156 196 236
156 196 236
156 196 236
156 196 236
156 196 236
156 196 236
156 196 236
156 196 236
156 196 236
156 196 236
156 196 236
156 196 236
156 196 236
156 196 236
156 196 236
156 196 236
156 196 236
156 196 236
156 196 236
156 196 236
156 196 236
156 196 236
156 196 236
156 196 236
156 196 236
156 196 236
156 196 236
156 196 236
156 196 236
156 196 236
156 196 236
156 196 236
156 196 236
156 196 236
156 196 236
156 196 236
156 196 236
156 196 236
156 196 236
156 196 236
156 196 236
156 196 236
156 196 236
156 196 236
156 196 236
156 196 236
156 196 236
156 196 236
156 196 236
157 196 236
157 196 236
157 196 236
157 196 236
157 196 236
157 196 236
157 196 236
157 196 236
157 196 236
157 196 236
157 196 236
157 197 236
157 197 236
157 197 236
157 197 236
158 197 236
158 197 236
158 197 236
158 197 236
158 197 236
158 197 236
158 197 236
158 197 236
158 197 236
158 197 236
158 197 236
158 197 236
159 197 236
159 197 236
159 197 236
159 197 236
159 198 236
159 198 236
159 198 236
159 198 236
159 198 236
159 198 236
159 198 236
160 198 236
160 198 236
160 198 236
160 198 236
160 198 236
160 198 236
160 198 236
160 198 236
160 198 236
160 198 236
160 198 236
161 199 237
161 199 237
161 199 237
161 199 237
161 199 237
161 199 237
161 199 237
161 199 237
161 199 237
161 199 237
162 199 237
162 199 237
162 199 237
162 199 237
162 199 237
162 199 237
162 200 237
162 200 237
162 200 237
163 200 237
163 200 237
163 200 237
163 200 237
163 200 237
163 200 237
163 200 237
163 200 237
163 200 237
163 200 237
164 200 237
164 200 237
164 200 237
164 200 237
164 201 237
164 201 237
164 201 237
164 201 237
164 201 237
164 201 237
165 201 237
165 201 237
165 201 237
165 201 237
165 201 237
165 201 237
165 201 237
165 201 237
165 201 237
165 201 237
165 201 237
166 202 238
166 202 238
166 202 238
166 202 238
166 202 238
166 202 238
166 202 238
166 202 238
166 202 238
166 202 238
167 202 238
167 202 238
167 202 238
167 202 238
167 202 238
167 202 238
167 202 238
167 202 238
167 203 238
167 203 238
167 203 238
168 203 238
168 203 238
168 203 238
168 203 238
168 203 238
168 203 238
168 203 238
168 203 238
168 203 238
168 203 238
168 203 238
168 203 238
169 203 238
169 203 238
169 203 238
169 203 238
169 204 238
169 204 238
169 204 238
169 204 238
169 204 238
169 204 238
169 204 238
169 204 238
169 204 238
170 204 238
170 204 238
170 204 238
170 204 238
170 204 238
170 204 238
170 204 238
170 204 238
170 204 238
170 204 238
170 204 238
170 204 238
170 204 238
171 205 239
171 205 239
171 205 239
171 205 239
171 205 239
171 205 239
171 205 239
171 205 239
171 205 239
171 205 239
171 205 239
171 205 239
172 205 239
172 205 239
171 205 239
171 205 239
171 205 239
171 205 239
171 205 239
171 205 239
171 205 239
171 205 239
171 205 239
171 205 239
171 205 239
171 205 239
171 205 239
171 205 239
170 204 238
170 204 238
170 204 238
170 204 238
170 204 238
170 204 238
170 204 238
170 204 238
170 204 238
170 204 238
170 204 238
170 204 238
170 204 238
169 204 238
169 204 238
169 204 238
169 204 238
169 204 238
169 204 238
169 204 238
169 204 238
169 203 238
169 203 238
169 203 238
169 203 238
168 203 238
168 203 238
168 203 238
168 203 238
168 203 238
168 203 238
168 203 238
168 203 238
168 203 238
168 203 238
168 203 238
168 203 238
167 203 238
167 203 238
167 203 238
167 202 238
167 202 238
167 202 238
167 202 238
167 202 238
167 202 238
167 202 238
167 202 238
166 202 238
166 202 238
166 202 238
166 202 238
166 202 238
166 202 238
166 202 238
166 202 238
166 202 238
166 202 238
165 201 237
165 201 237
165 201 237
165 201 237
165 201 237
165 201 237
165 201 237
165 201 237
165 201 237
165 201 237
165 201 237
164 201 237
164 201 237
164 201 237
164 201 237
164 201 237
164 201 237
164 200 237
164 200 237
164 200 237
164 200 237
163 200 237
163 200 237
163 200 237
163 200 237
163 200 237
163 200 237
163 200 237
163 200 237
163 200 237
163 200 237
162 200 237
162 200 237
162 200 237
162 199 237
162 199 237
162 199 237
162 199 237
162 199 237
162 199 237
161 199 237
161 199 237
161 199 237
161 199 237
161 199 237
161 199 237
161 199 237
161 199 237
161 199 237
161 199 237
161 199 237
160 198 236
160 198 236
160 198 236
160 198 236
160 198 236
160 198 236
160 198 236
160 198 236
160 198 236
160 198 236
159 198 236
159 198 236
159 198 236
159 198 236
159 198 236
159 198 236
159 198 236
159 198 236
159 197 236
159 197 236
159 197 236
158 197 236
158 197 236
158 197 236
158 197 236
158 197 236
158 197 236
158 197 236
158 197 236
158 197 236
158 197 236
158 197 236
158 197 236
158 197 236
157 197 236
157 197 236
157 197 236
157 197 236
157 197 236
157 196 236
157 196 236
157 196 236
157 196 236
157 196 236
157 196 236
157 196 236
157 196 236
157 196 236
157 196 236
157 196 236
157 196 236
157 196 236
156 196 236
156 196 236
156 196 236
156 196 236
156 196 236
156 196 236
156 196 236
156 196 236
156 196 236
156 196 236
156 196 236
156 196 236
156 196 236
156 196 236
156 196 236
156 196 236
156 196 236
156 196 236
156 196 236
156 196 236
156 196 236
156 196 236
156 196 236
156 196 236
156 196 236
156 196 236
156 196 236
156 196 236
156 196 236
156 196 236
156 196 236
156 196 236
156 196 236
156 196 236
156 196 236
156 196 236
156 196 236
156 196 236
156 196 236
156 196 236
156 196 236
156 196 236
156 196 236
156 196 236
156 196 236
156 196 236
157 196 236
157 196 236
157 196 236
157 196 236
157 196 236
157 196 236
157 196 236
157 196 236
157 196 236
157 196 236
157 196 236
157 196 236
157 197 236
157 197 236
157 197 236
157 197 236
157 197 236
158 197 236
158 197 236
158 197 236
158 197 236
158 197 236
158 197 236
158 197 236
158 197 236
158 197 236
158 197 236
158 197 236
158 197 236
158 197 236
158 197 236
159 197 236
159 197 236
159 197 236
159 197 236
159 198 236
159 198 236
159 198 236
159 198 236
159 198 236
159 198 236
159 198 236
160 198 236
160 198 236
160 198 236
160 198 236
160 198 236
160 198 236
160 198 236
160 198 236
160 198 236
160 198 236
160 198 236
161 199 237
161 199 237
161 199 237
161 199 237
161 199 237
161 199 237
161 199 237
161 199 237
161 199 237
161 199 237
162 199 237
162 199 237
162 199 237
162 199 237
162 199 237
162 199 237
162 200 237
162 200 237
162 200 237
163 200 237
163 200 237
163 200 237
163 200 237
163 200 237
163 200 237
163 200 237
163 200 237
163 200 237
163 200 237
164 200 237
164 200 237
164 200 237
164 200 237
164 201 237
164 201 237
164 201 237
164 201 237
164 201 237
164 201 237
164 201 237
165 201 237
165 201 237
165 201 237
165 201 237
165 201 237
165 201 237
165 201 237
165 201 237
165 201 237
165 201 237
166 202 238
166 202 238
166 202 238
166 202 238
166 202 238
166 202 238
166 202 238
166 202 238
166 202 238
166 202 238
167 202 238
167 202 238
167 202 238
167 202 238
167 202 238
167 202 238
167 202 238
167 202 238
167 203 238
167 203 238
167 203 238
168 203 238
168 203 238
168 203 238
168 203 238
168 203 238
168 203 238
168 203 238
168 203 238
168 203 238
168 203 238
168 203 238
168 203 238
169 203 238
169 203 238
169 203 238
169 203 238
169 204 238
169 204 238
169 204 238
169 204 238
169 204 238
169 204 238
169 204 238
169 204 238
170 204 238
170 204 238
170 204 238
170 204 238
170 204 238
170 204 238
170 204 238
170 204 238
170 204 238
170 204 238
170 204 238
170 204 238
170 204 238
171 205 239
171 205 239
171 205 239
171 205 239
171 205 239
171 205 239
171 205 239
171 205 239
171 205 239
171 205 239
171 205 239
171 205 239
171 205 239
171 205 239
172 205 239
172 205 239
172 205 239
172 205 239
172 205 239
172 205 239
172 205 239
171 205 239
171 205 239
171 205 239
171 205 239
171 205 239
171 205 239
171 205 239
171 205 239
171 205 239
171 205 239
171 205 239
171 205 239
171 205 239
171 205 239
170 204 238
170 204 238
170 204 238
170 204 238
170 204 238
170 204 238
170 204 238
170 204 238
170 204 238
170 204 238
170 204 238
170 204 238
170 204 238
169 204 238
169 204 238
169 204 238
169 204 238
169 204 238
169 204 238
169 204 238
169 204 238
169 203 238
169 203 238
169 203 238
169 203 238
168 203 238
168 203 238
168 203 238
168 203 238
168 203 238
168 203 238
168 203 238
168 203 238
168 203 238
168 203 238
168 203 238
168 203 238
167 203 238
167 203 238
167 203 238
167 202 238
167 202 238
167 202 238
167 202 238
167 202 238
167 202 238
167 202 238
167 202 238
166 202 238
166 202 238
166 202 238
166 202 238
166 202 238
166 202 238
166 202 238
166 202 238
166 202 238
166 202 238
165 201 237
165 201 237
165 201 237
165 201 237
165 201 237
165 201 237
165 201 237
165 201 237
165 201 237
165 201 237
165 201 237
164 201 237
164 201 237
164 201 237
164 201 237
164 201 237
164 201 237
164 200 237
164 200 237
164 200 237
164 200 237
163 200 237
163 200 237
163 200 237
163 200 237
163 200 237
163 200 237
163 200 237
163 200 237
163 200 237
163 200 237
162 200 237
162 200 237
162 200 237
162 199 237
162 199 237
162 199 237
162 199 237
162 199 237
162 199 237
162 199 237
161 199 237
161 199 237
161 199 237
161 199 237
161 199 237
161 199 237
161 199 237
161 199 237
161 199 237
161 199 237
160 198 236
160 198 236
160 198 236
160 198 236
160 198 236
160 198 236
160 198 236
160 198 236
160 198 236
160 198 236
160 198 236
159 198 236
159 198 236
159 198 236
159 198 236
159 198 236
159 198 236
159 198 236
159 197 236
159 197 236
159 197 236
159 197 236
159 197 236
158 197 236
158 197 236
158 197 236
158 197 236
158 197 236
158 197 236
158 197 236
158 197 236
158 197 236
158 197 236
158 197 236
158 197 236
158 197 236
158 197 236
157 197 236
157 197 236
157 197 236
157 197 236
157 197 236
157 196 236
157 196 236
157 196 236
157 196 236
157 196 236
157 196 236
157 196 236
157 196 236
157 196 236
157 196 236
157 196 236
157 196 236
157 196 236
157 196 236
157 196 236
157 196 236
157 196 236
156 196 236
156 196 236
156 196 236
156 196 236
156 196 236
156 196 236
156 196 236
156 196 236
156 196 236
156 196 236
156 196 236
156 196 236
156 196 236
156 196 236
156 196 236
156 196 236
156 196 236
156 196 236
156 196 236
156 196 236
156 196 236
156 196 236
156 196 236
156 196 236
156 196 236
156 196 236
156 196 236
157 196 236
157 196 236
157 196 236
157 196 236
157 196 236
157 196 236
157 196 236
157 196 236
157 196 236
157 196 236
157 196 236
157 196 236
157 196 236
157 196 236
157 196 236
157 196 236
157 197 236
157 197 236
157 197 236
157 197 236
157 197 236
157 197 236
158 197 236
158 197 236
158 197 236
158 197 236
158 197 236
158 197 236
158 197 236
158 197 236
158 197 236
158 197 236
158 197 236
158 197 236
158 197 236
158 197 236
159 197 236
159 197 236
159 197 236
159 197 236
159 198 236
159 198 236
159 198 236
159 198 236
159 198 236
159 198 236
159 198 236
160 198 236
160 198 236
160 198 236
160 198 236
160 198 236
160 198 236
160 198 236
160 198 236
160 198 236
160 198 236
160 198 236
161 199 237
161 199 237
161 199 237
161 199 237
161 199 237
161 199 237
161 199 237
161 199 237
161 199 237
161 199 237
162 199 237
162 199 237
162 199 237
162 199 237
162 199 237
162 199 237
162 199 237
162 200 237
162 200 237
162 200 237
163 200 237
163 200 237
163 200 237
163 200 237
163 200 237
163 200 237
163 200 237
163 200 237
163 200 237
163 200 237
164 200 237
164 200 237
164 200 237
164 200 237
164 201 237
164 201 237
164 201 237
164 201 237
164 201 237
164 201 237
165 201 237
165 201 237
165 201 237
165 201 237
165 201 237
165 201 237
165 201 237
165 201 237
165 201 237
165 201 237
165 201 237
166 202 238
166 202 238
166 202 238
166 202 238
166 202 238
166 202 238
166 202 238
166 202 238
166 202 238
166 202 238
167 202 238
167 202 238
167 202 238
167 202 238
167 202 238
167 202 238
167 202 238
167 203 238
167 203 238
167 203 238
167 203 238
168 203 238
168 203 238
168 203 238
168 203 238
168 203 238
168 203 238
168 203 238
168 203 238
168 203 238
168 203 238
168 203 238
168 203 238
169 203 238
169 203 238
169 203 238
169 203 238
169 204 238
169 204 238
169 204 238
169 204 238
169 204 238
169 204 238
169 204 238
169 204 238
170 204 238
170 204 238
170 204 238
170 204 238
170 204 238
170 204 238
170 204 238
170 204 238
170 204 238
170 204 238
170 204 238
170 204 238
170 204 238
171 205 239
171 205 239
171 205 239
171 205 239
171 205 239
171 205 239
171 205 239
171 205 239
171 205 239
171 205 239
171 205 239
171 205 239
171 205 239
171 205 239
172 205 239
172 205 239
172 205 239
172 205 239
172 205 239
172 205 239
172 205 239
172 205 239
172 205 239
172 205 239
172 205 239
172 205 239
172 205 239
172 205 239
171 205 239
171 205 239
171 205 239
171 205 239
171 205 239
171 205 239
171 205 239
171 205 239
171 205 239
171 205 239
171 205 239
171 205 239
171 205 239
171 205 239
170 204 238
170 204 238
170 204 238
170 204 238
170 204 238
170 204 238
170 204 238
170 204 238
170 204 238
170 204 238
170 204 238
170 204 238
169 204 238
169 204 238
169 204 238
169 204 238
169 204 238
169 204 238
169 204 238
169 204 238
169 204 238
169 203 238
169 203 238
169 203 238
168 203 238
168 203 238
168 203 238
168 203 238
168 203 238
168 203 238
168 203 238
168 203 238
168 203 238
168 203 238
168 203 238
168 203 238
167 203 238
167 203 238
167 203 238
167 203 238
167 202 238
167 202 238
167 202 238
167 202 238
167 202 238
167 202 238
167 202 238
166 202 238
166 202 238
166 202 238
166 202 238
166 202 238
166 202 238
166 202 238
166 202 238
166 202 238
166 202 238
165 201 237
165 201 237
165 201 237
165 201 237
165 201 237
165 201 237
165 201 237
165 201 237
165 201 237
165 201 237
165 201 237
164 201 237
164 201 237
164 201 237
164 201 237
164 201 237
164 201 237
164 200 237
164 200 237
164 200 237
164 200 237
163 200 237
163 200 237
163 200 237
163 200 237
163 200 237
163 200 237
163 200 237
163 200 237
163 200 237
163 200 237
162 200 237
162 200 237
162 200 237
162 199 237
162 199 237
162 199 237
162 199 237
162 199 237
162 199 237
162 199 237
161 199 237
161 199 237
161 199 237
161 199 237
161 199 237
161 199 237
161 199 237
161 199 237
161 199 237
161 199 237
160 198 236
160 198 236
160 198 236
160 198 236
160 198 236
160 198 236
160 198 236
160 198 236
160 198 236
160 198 236
160 198 236
159 198 236
159 198 236
159 198 236
159 198 236
159 198 236
159 198 236
159 198 236
159 198 236
159 197 236
159 197 236
159 197 236
159 197 236
159 197 236
158 197 236
158 197 236
158 197 236
158 197 236
158 197 236
158 197 236
158 197 236
158 197 236
158 197 236
158 197 236
158 197 236
158 197 236
158 197 236
158 197 236
158 197 236
157 197 236
157 197 236
157 197 236
157 197 236
157 197 236
157 197 236
157 197 236
157 196 236
157 196 236
157 196 236
157 196 236
157 196 236
157 196 236
157 196 236
157 196 236
157 196 236
157 196 236
157 196 236
157 196 236
157 196 236
157 196 236
157 196 236
157 196 236
157 196 236
157 196 236
157 196 236
157 196 236
157 196 236
157 196 236
157 196 236
157 196 236
157 196 236
157 196 236
157 196 236
157 196 236
157 196 236
157 196 236
157 196 236
157 196 236
157 196 236
157 196 236
157 196 236
157 196 236
157 196 236
157 196 236
157 196 236
157 196 236
157 196 236
157 196 236
157 196 236
157 196 236
157 196 236
157 196 236
157 197 236
157 197 236
157 197 236
157 197 236
157 197 236
157 197 236
157 197 236
158 197 236
158 197 236
158 197 236
158 197 236
158 197 236
158 197 236
158 197 236
158 197 236
158 197 236
158 197 236
158 197 236
158 197 236
158 197 236
158 197 236
158 197 236
159 197 236
159 197 236
159 197 236
159 197 236
159 197 236
159 198 236
159 198 236
159 198 236
159 198 236
159 198 236
159 198 236
159 198 236
159 198 236
160 198 236
160 198 236
160 198 236
160 198 236
160 198 236
160 198 236
160 198 236
160 198 236
160 198 236
160 198 236
160 198 236
161 199 237
161 199 237
161 199 237
161 199 237
161 199 237
161 199 237
161 199 237
161 199 237
161 199 237
161 199 237
162 199 237
162 199 237
162 199 237
162 199 237
162 199 237
162 199 237
162 199 237
162 200 237
162 200 237
162 200 237
163 200 237
163 200 237
163 200 237
163 200 237
163 200 237
163 200 237
163 200 237
163 200 237
163 200 237
163 200 237
164 200 237
164 200 237
164 200 237
164 200 237
164 201 237
164 201 237
164 201 237
164 201 237
164 201 237
164 201 237
165 201 237
165 201 237
165 201 237
165 201 237
165 201 237
165 201 237
165 201 237
165 201 237
165 201 237
165 201 237
165 201 237
166 202 238
166 202 238
166 202 238
166 202 238
166 202 238
166 202 238
166 202 238
166 202 238
166 202 238
166 202 238
167 202 238
167 202 238
167 202 238
167 202 238
167 202 238
167 202 238
167 202 238
167 203 238
167 203 238
167 203 238
167 203 238
168 203 238
168 203 238
168 203 238
168 203 238
168 203 238
168 203 238
168 203 238
168 203 238
168 203 238
168 203 238
168 203 238
168 203 238
169 203 238
169 203 238
169 203 238
169 203 238
169 204 238
169 204 238
169 204 238
169 204 238
169 204 238
169 204 238
169 204 238
169 204 238
170 204 238
170 204 238
170 204 238
170 204 238
170 204 238
170 204 238
170 204 238
170 204 238
170 204 238
170 204 238
170 204 238
170 204 238
171 205 239
171 205 239
171 205 239
171 205 239
171 205 239
171 205 239
171 205 239
171 205 239
171 205 239
171 205 239
171 205 239
171 205 239
171 205 239
171 205 239
172 205 239
172 205 239
172 205 239
172 205 239
172 205 239
172 205 239
172 205 239
172 205 239
172 205 239
172 206 239
172 206 239
172 206 239
172 205 239
172 205 239
172 205 239
172 205 239
172 205 239
172 205 239
172 205 239
172 205 239
172 205 239
171 205 239
171 205 239
171 205 239
171 205 239
171 205 239
171 205 239
171 205 239
171 205 239
171 205 239
171 205 239
171 205 239
171 205 239
171 205 239
171 205 239
170 204 238
170 204 238
170 204 238
170 204 238
170 204 238
170 204 238
170 204 238
170 204 238
170 204 238
170 204 238
170 204 238
170 204 238
170 204 238
169 204 238
169 204 238
169 204 238
169 204 238
169 204 238
169 204 238
169 204 238
169 204 238
169 203 238
169 203 238
169 203 238
169 203 238
168 203 238
168 203 238
168 203 238
168 203 238
168 203 238
168 203 238
168 203 238
168 203 238
168 203 238
168 203 238
168 203 238
167 203 238
167 203 238
167 203 238
167 203 238
167 202 238
167 202 238
167 202 238
167 202 238
167 202 238
167 202 238
167 202 238
166 202 238
166 202 238
166 202 238
166 202 238
166 202 238
166 202 238
166 202 238
166 202 238
166 202 238
166 202 238
166 202 238
165 201 237
165 201 237
165 201 237
165 201 237
165 201 237
165 201 237
165 201 237
165 201 237
165 201 237
165 201 237
164 201 237
164 201 237
164 201 237
164 201 237
164 201 237
164 201 237
164 200 237
164 200 237
164 200 237
164 200 237
163 200 237
163 200 237
163 200 237
163 200 237
163 200 237
163 200 237
163 200 237
163 200 237
163 200 237
163 200 237
162 200 237
162 200 237
162 200 237
162 199 237
162 199 237
162 199 237
162 199 237
162 199 237
162 199 237
162 199 237
161 199 237
161 199 237
161 199 237
161 199 237
161 199 237
161 199 237
161 199 237
161 199 237
161 199 237
161 199 237
161 199 237
160 198 236
160 198 236
160 198 236
160 198 236
160 198 236
160 198 236
160 198 236
160 198 236
160 198 236
160 198 236
160 198 236
159 198 236
159 198 236
159 198 236
159 198 236
159 198 236
159 198 236
159 198 236
159 198 236
159 198 236
159 197 236
159 197 236
159 197 236
159 197 236
158 197 236
158 197 236
158 197 236
158 197 236
158 197 236
158 197 236
158 197 236
158 197 236
158 197 236
158 197 236
158 197 236
158 197 236
158 197 236
158 197 236
158 197 236
158 197 236
158 197 236
158 197 236
157 197 236
157 197 236
157 197 236
157 197 236
157 197 236
157 197 236
157 197 236
157 197 236
157 197 236
157 197 236
157 196 236
157 196 236
157 196 236
157 196 236
157 196 236
157 196 236
157 196 236
157 196 236
157 196 236
157 196 236
157 196 236
157 196 236
157 196 236
157 196 236
157 196 236
157 196 236
157 196 236
157 196 236
157 196 236
157 196 236
157 196 236
157 196 236
157 196 236
157 196 236
157 196 236
157 196 236
157 196 236
157 197 236
157 197 236
157 197 236
157 197 236
157 197 236
157 197 236
157 197 236
157 197 236
157 197 236
158 197 236
158 197 236
158 197 236
158 197 236
158 197 236
158 197 236
158 197 236
158 197 236
158 197 236
158 197 236
158 197 236
158 197 236
158 197 236
158 197 236
158 197 236
158 197 236
158 197 236
158 197 236
159 197 236
159 197 236
159 197 236
159 197 236
159 198 236
159 198 236
159 198 236
159 198 236
159 198 236
159 198 236
159 198 236
159 198 236
159 198 236
160 198 236
160 198 236
160 198 236
160 198 236
160 198 236
160 198 236
160 198 236
160 198 236
160 198 236
160 198 236
160 198 236
161 199 237
161 199 237
161 199 237
161 199 237
161 199 237
161 199 237
161 199 237
161 199 237
161 199 237
161 199 237
161 199 237
162 199 237
162 199 237
162 199 237
162 199 237
162 199 237
162 199 237
162 199 237
162 200 237
162 200 237
162 200 237
163 200 237
163 200 237
163 200 237
163 200 237
163 200 237
163 200 237
163 200 237
163 200 237
163 200 237
163 200 237
164 200 237
164 200 237
164 200 237
164 200 237
164 201 237
164 201 237
164 201 237
164 201 237
164 201 237
164 201 237
165 201 237
165 201 237
165 201 237
165 201 237
165 201 237
165 201 237
165 201 237
165 201 237
165 201 237
165 201 237
165 201 237
166 202 238
166 202 238
166 202 238
166 202 238
166 202 238
166 202 238
166 202 238
166 202 238
166 202 238
166 202 238
167 202 238
167 202 238
167 202 238
167 202 238
167 202 238
167 202 238
167 202 238
167 203 238
167 203 238
167 203 238
167 203 238
168 203 238
168 203 238
168 203 238
168 203 238
168 203 238
168 203 238
168 203 238
168 203 238
168 203 238
168 203 238
168 203 238
169 203 238
169 203 238
169 203 238
169 203 238
169 204 238
169 204 238
169 204 238
169 204 238
169 204 238
169 204 238
169 204 238
169 204 238
170 204 238
170 204 238
170 204 238
170 204 238
170 204 238
170 204 238
170 204 238
170 204 238
170 204 238
170 204 238
170 204 238
170 204 238
170 204 238
171 205 239
171 205 239
171 205 239
171 205 239
171 205 239
171 205 239
171 205 239
171 205 239
171 205 239
171 205 239
171 205 239
171 205 239
171 205 239
171 205 239
172 205 239
172 205 239
172 205 239
172 205 239
172 205 239
172 205 239
172 205 239
172 205 239
172 205 239
172 206 239
172 206 239
172 206 239
173 206 239
172 206 239
172 206 239
172 206 239
172 206 239
172 206 239
172 205 239
172 205 239
172 205 239
172 205 239
172 205 239
172 205 239
172 205 239
172 205 239
172 205 239
172 205 239
171 205 239
171 205 239
171 205 239
171 205 239
171 205 239
171 205 239
171 205 239
171 205 239
171 205 239
171 205 239
171 205 239
171 205 239
171 205 239
170 204 238
170 204 238
170 204 238
170 204 238
170 204 238
170 204 238
170 204 238
170 204 238
170 204 238
170 204 238
170 204 238
170 204 238
170 204 238
169 204 238
169 204 238
169 204 238
169 204 238
169 204 238
169 204 238
169 204 238
169 204 238
169 203 238
169 203 238
169 203 238
169 203 238
168 203 238
168 203 238
168 203 238
168 203 238
168 203 238
168 203 238
168 203 238
168 203 238
168 203 238
168 203 238
168 203 238
167 203 238
167 203 238
167 203 238
167 203 238
167 202 238
167 202 238
167 202 238
167 202 238
167 202 238
167 202 238
167 202 238
166 202 238
166 202 238
166 202 238
166 202 238
166 202 238
166 202 238
166 202 238
166 202 238
166 202 238
166 202 238
166 202 238
165 201 237
165 201 237
165 201 237
165 201 237
165 201 237
165 201 237
165 201 237
165 201 237
165 201 237
165 201 237
164 201 237
164 201 237
164 201 237
164 201 237
164 201 237
164 201 237
164 201 237
164 200 237
164 200 237
164 200 237
163 200 237
163 200 237
163 200 237
163 200 237
163 200 237
163 200 237
163 200 237
163 200 237
163 200 237
163 200 237
162 200 237
162 200 237
162 200 237
162 200 237
162 199 237
162 199 237
162 199 237
162 199 237
162 199 237
162 199 237
162 199 237
161 199 237
161 199 237
161 199 237
161 199 237
161 199 237
161 199 237
161 199 237
161 199 237
161 199 237
161 199 237
160 198 236
160 198 236
160 198 236
160 198 236
160 198 236
160 198 236
160 198 236
160 198 236
160 198 236
160 198 236
160 198 236
160 198 236
159 198 236
159 198 236
159 198 236
159 198 236
159 198 236
159 198 236
159 198 236
159 198 236
159 198 236
159 197 236
159 197 236
159 197 236
159 197 236
159 197 236
159 197 236
158 197 236
158 197 236
158 197 236
158 197 236
158 197 236
158 197 236
158 197 236
158 197 236
158 197 236
158 197 236
158 197 236
158 197 236
158 197 236
158 197 236
158 197 236
158 197 236
158 197 236
158 197 236
158 197 236
158 197 236
158 197 236
158 197 236
157 197 236
157 197 236
157 197 236
157 197 236
157 197 236
157 197 236
157 197 236
157 197 236
157 197 236
157 197 236
157 197 236
157 197 236
157 197 236
157 197 236
157 197 236
157 197 236
157 197 236
157 197 236
157 197 236
157 197 236
157 197 236
157 197 236
157 197 236
157 197 236
157 197 236
157 197 236
158 197 236
158 197 236
158 197 236
158 197 236
158 197 236
158 197 236
158 197 236
158 197 236
158 197 236
158 197 236
158 197 236
158 197 236
158 197 236
158 197 236
158 197 236
158 197 236
158 197 236
158 197 236
158 197 236
158 197 236
158 197 236
158 197 236
158 197 236
159 197 236
159 197 236
159 197 236
159 197 236
159 197 236
159 198 236
159 198 236
159 198 236
159 198 236
159 198 236
159 198 236
159 198 236
159 198 236
159 198 236
160 198 236
160 198 236
160 198 236
160 198 236
160 198 236
160 198 236
160 198 236
160 198 236
160 198 236
160 198 236
160 198 236
160 198 236
161 199 237
161 199 237
161 199 237
161 199 237
161 199 237
161 199 237
161 199 237
161 199 237
161 199 237
161 199 237
162 199 237
162 199 237
162 199 237
162 199 237
162 199 237
162 199 237
162 199 237
162 200 237
162 200 237
162 200 237
162 200 237
163 200 237
163 200 237
163 200 237
163 200 237
163 200 237
163 200 237
163 200 237
163 200 237
163 200 237
163 200 237
164 200 237
164 200 237
164 200 237
164 201 237
164 201 237
164 201 237
164 201 237
164 201 237
164 201 237
164 201 237
165 201 237
165 201 237
165 201 237
165 201 237
165 201 237
165 201 237
165 201 237
165 201 237
165 201 237
165 201 237
165 201 237
166 202 238
166 202 238
166 202 238
166 202 238
166 202 238
166 202 238
166 202 238
166 202 238
166 202 238
166 202 238
167 202 238
167 202 238
167 202 238
167 202 238
167 202 238
167 202 238
167 202 238
167 203 238
167 203 238
167 203 238
167 203 238
168 203 238
168 203 238
168 203 238
168 203 238
168 203 238
168 203 238
168 203 238
168 203 238
168 203 238
168 203 238
168 203 238
169 203 238
169 203 238
169 203 238
169 203 238
169 204 238
169 204 238
169 204 238
169 204 238
169 204 238
169 204 238
169 204 238
169 204 238
170 204 238
170 204 238
170 204 238
170 204 238
170 204 238
170 204 238
170 204 238
170 204 238
170 204 238
170 204 238
170 204 238
170 204 238
170 204 238
171 205 239
171 205 239
171 205 239
171 205 239
171 205 239
171 205 239
171 205 239
171 205 239
171 205 239
171 205 239
171 205 239
171 205 239
171 205 239
172 205 239
172 205 239
172 205 239
172 205 239
172 205 239
172 205 239
172 205 239
172 205 239
172 205 239
172 205 239
172 206 239
172 206 239
172 206 239
172 206 239
172 206 239
173 206 239
173 206 239
173 206 239
173 206 239
173 206 239
173 206 239
172 206 239
172 206 239
172 206 239
172 206 239
172 206 239
172 205 239
172 205 239
172 205 239
172 205 239
172 205 239
172 205 239
172 205 239
172 205 239
172 205 239
171 205 239
171 205 239
171 205 239
171 205 239
171 205 239
171 205 239
171 205 239
171 205 239
171 205 239
171 205 239
171 205 239
171 205 239
171 205 239
171 205 239
170 204 238
170 204 238
170 204 238
170 204 238
170 204 238
170 204 238
170 204 238
170 204 238
170 204 238
170 204 238
170 204 238
170 204 238
169 204 238
169 204 238
169 204 238
169 204 238
169 204 238
169 204 238
169 204 238
169 204 238
169 203 238
169 203 238
169 203 238
169 203 238
168 203 238
168 203 238
168 203 238
168 203 238
168 203 238
168 203 238
168 203 238
168 203 238
168 203 238
168 203 238
168 203 238
168 203 238
167 203 238
167 203 238
167 203 238
167 202 238
167 202 238
167 202 238
167 202 238
167 202 238
167 202 238
167 202 238
166 202 238
166 202 238
166 202 238
166 202 238
166 202 238
166 202 238
166 202 238
166 202 238
166 202 238
166 202 238
166 202 238
165 201 237
165 201 237
165 201 237
165 201 237
165 201 237
165 201 237
165 201 237
165 201 237
165 201 237
165 201 237
164 201 237
164 201 237
164 201 237
164 201 237
164 201 237
164 201 237
164 201 237
164 200 237
164 200 237
164 200 237
163 200 237
163 200 237
163 200 237
163 200 237
163 200 237
163 200 237
163 200 237
163 200 237
163 200 237
163 200 237
163 200 237
162 200 237
162 200 237
162 200 237
162 199 237
162 199 237
162 199 237
162 199 237
162 199 237
162 199 237
162 199 237
161 199 237
161 199 237
161 199 237
161 199 237
161 199 237
161 199 237
161 199 237
161 199 237
161 199 237
161 199 237
161 199 237
160 198 236
160 198 236
160 198 236
160 198 236
160 198 236
160 198 236
160 198 236
160 198 236
160 198 236
160 198 236
160 198 236
160 198 236
160 198 236
159 198 236
159 198 236
159 198 236
159 198 236
159 198 236
159 198 236
159 198 236
159 198 236
159 198 236
159 197 236
159 197 236
159 197 236
159 197 236
159 197 236
159 197 236
158 197 236
158 197 236
158 197 236
158 197 236
158 197 236
158 197 236
158 197 236
158 197 236
158 197 236
158 197 236
158 197 236
158 197 236
158 197 236
158 197 236
158 197 236
158 197 236
158 197 236
158 197 236
158 197 236
158 197 236
158 197 236
158 197 236
158 197 236
158 197 236
158 197 236
158 197 236
158 197 236
158 197 236
158 197 236
158 197 236
158 197 236
158 197 236
158 197 236
158 197 236
158 197 236
158 197 236
158 197 236
158 197 236
158 197 236
158 197 236
158 197 236
158 197 236
158 197 236
158 197 236
158 197 236
158 197 236
158 197 236
158 197 236
158 197 236
158 197 236
158 197 236
158 197 236
158 197 236
158 197 236
158 197 236
158 197 236
158 197 236
158 197 236
158 197 236
158 197 236
159 197 236
159 197 236
159 197 236
159 197 236
159 197 236
159 198 236
159 198 236
159 198 236
159 198 236
159 198 236
159 198 236
159 198 236
159 198 236
159 198 236
159 198 236
160 198 236
160 198 236
160 198 236
160 198 236
160 198 236
160 198 236
160 198 236
160 198 236
160 198 236
160 198 236
160 198 236
160 198 236
160 198 236
161 199 237
161 199 237
161 199 237
161 199 237
161 199 237
161 199 237
161 199 237
161 199 237
161 199 237
161 199 237
161 199 237
162 199 237
162 199 237
162 199 237
162 199 237
162 199 237
162 199 237
162 199 237
162 200 237
162 200 237
162 200 237
163 200 237
163 200 237
163 200 237
163 200 237
163 200 237
163 200 237
163 200 237
163 200 237
163 200 237
163 200 237
163 200 237
164 200 237
164 200 237
164 200 237
164 201 237
164 201 237
164 201 237
164 201 237
164 201 237
164 201 237
164 201 237
165 201 237
165 201 237
165 201 237
165 201 237
165 201 237
165 201 237
165 201 237
165 201 237
165 201 237
165 201 237
166 202 238
166 202 238
166 202 238
166 202 238
166 202 238
166 202 238
166 202 238
166 202 238
166 202 238
166 202 238
166 202 238
167 202 238
167 202 238
167 202 238
167 202 238
167 202 238
167 202 238
167 202 238
167 203 238
167 203 238
167 203 238
167 203 238
168 203 238
168 203 238
168 203 238
168 203 238
168 203 238
168 203 238
168 203 238
168 203 238
168 203 238
168 203 238
168 203 238
169 203 238
169 203 238
169 203 238
169 203 238
169 204 238
169 204 238
169 204 238
169 204 238
169 204 238
169 204 238
169 204 238
169 204 238
170 204 238
170 204 238
170 204 238
170 204 238
170 204 238
170 204 238
170 204 238
170 204 238
170 204 238
170 204 238
170 204 238
170 204 238
171 205 239
171 205 239
171 205 239
171 205 239
171 205 239
171 205 239
171 205 239
171 205 239
171 205 239
171 205 239
171 205 239
171 205 239
171 205 239
171 205 239
172 205 239
172 205 239
172 205 239
172 205 239
172 205 239
172 205 239
172 205 239
172 205 239
172 205 239
172 206 239
172 206 239
172 206 239
172 206 239
172 206 239
173 206 239
173 206 239
173 206 239
173 206 239
173 206 239
173 206 239
173 206 239
173 206 239
173 206 239
173 206 239
173 206 239
173 206 239
173 206 239
173 206 239
172 206 239
172 206 239
172 206 239
172 206 239
172 206 239
172 205 239
172 205 239
172 205 239
172 205 239
172 205 239
172 205 239
172 205 239
172 205 239
172 205 239
171 205 239
171 205 239
171 205 239
171 205 239
171 205 239
171 205 239
171 205 239
171 205 239
171 205 239
171 205 239
171 205 239
171 205 239
171 205 239
170 204 238
170 204 238
170 204 238
170 204 238
170 204 238
170 204 238
170 204 238
170 204 238
170 204 238
170 204 238
170 204 238
170 204 238
170 204 238
169 204 238
169 204 238
169 204 238
169 204 238
169 204 238
169 204 238
169 204 238
169 204 238
169 203 238
169 203 238
169 203 238
168 203 238
168 203 238
168 203 238
168 203 238
168 203 238
168 203 238
168 203 238
168 203 238
168 203 238
168 203 238
168 203 238
168 203 238
167 203 238
167 203 238
167 203 238
167 202 238
167 202 238
167 202 238
167 202 238
167 202 238
167 202 238
167 202 238
166 202 238
166 202 238
166 202 238
166 202 238
166 202 238
166 202 238
166 202 238
166 202 238
166 202 238
166 202 238
166 202 238
165 201 237
165 201 237
165 201 237
165 201 237
165 201 237
165 201 237
165 201 237
165 201 237
165 201 237
165 201 237
165 201 237
164 201 237
164 201 237
164 201 237
164 201 237
164 201 237
164 201 237
164 200 237
164 200 237
164 200 237
164 200 237
163 200 237
163 200 237
163 200 237
163 200 237
163 200 237
163 200 237
163 200 237
163 200 237
163 200 237
163 200 237
162 200 237
162 200 237
162 200 237
162 200 237
162 199 237
162 199 237
162 199 237
162 199 237
162 199 237
162 199 237
162 199 237
161 199 237
161 199 237
161 199 237
161 199 237
161 199 237
161 199 237
161 199 237
161 199 237
161 199 237
161 199 237
161 199 237
160 198 236
160 198 236
160 198 236
160 198 236
160 198 236
160 198 236
160 198 236
160 198 236
160 198 236
160 198 236
160 198 236
160 198 236
160 198 236
160 198 236
159 198 236
159 198 236
159 198 236
159 198 236
159 198 236
159 198 236
159 198 236
159 198 236
159 198 236
159 198 236
159 198 236
159 197 236
159 197 236
159 197 236
159 197 236
159 197 236
159 197 236
159 197 236
158 197 236
158 197 236
158 197 236
158 197 236
158 197 236
158 197 236
158 197 236
158 197 236
158 197 236
158 197 236
158 197 236
158 197 236
158 197 236
158 197 236
158 197 236
158 197 236
158 197 236
158 197 236
158 197 236
158 197 236
158 197 236
158 197 236
158 197 236
158 197 236
158 197 236
158 197 236
158 197 236
158 197 236
158 197 236
158 197 236
158 197 236
158 197 236
158 197 236
158 197 236
158 197 236
158 197 236
158 197 236
158 197 236
158 197 236
158 197 236
158 197 236
158 197 236
158 197 236
158 197 236
159 197 236
159 197 236
159 197 236
159 197 236
159 197 236
159 197 236
159 197 236
159 198 236
159 198 236
159 198 236
159 198 236
159 198 236
159 198 236
159 198 236
159 198 236
159 198 236
159 198 236
159 198 236
159 198 236
160 198 236
160 198 236
160 198 236
160 198 236
160 198 236
160 198 236
160 198 236
160 198 236
160 198 236
160 198 236
160 198 236
160 198 236
160 198 236
161 199 237
161 199 237
161 199 237
161 199 237
161 199 237
161 199 237
161 199 237
161 199 237
161 199 237
161 199 237
161 199 237
162 199 237
162 199 237
162 199 237
162 199 237
162 199 237
162 199 237
162 199 237
162 200 237
162 200 237
162 200 237
162 200 237
163 200 237
163 200 237
163 200 237
163 200 237
163 200 237
163 200 237
163 200 237
163 200 237
163 200 237
163 200 237
164 200 237
164 200 237
164 200 237
164 200 237
164 201 237
164 201 237
164 201 237
164 201 237
164 201 237
164 201 237
164 201 237
165 201 237
165 201 237
165 201 237
165 201 237
165 201 237
165 201 237
165 201 237
165 201 237
165 201 237
165 201 237
166 202 238
166 202 238
166 202 238
166 202 238
166 202 238
166 202 238
166 202 238
166 202 238
166 202 238
166 202 238
167 202 238
167 202 238
167 202 238
167 202 238
167 202 238
167 202 238
167 202 238
167 202 238
167 203 238
167 203 238
167 203 238
168 203 238
168 203 238
168 203 238
168 203 238
168 203 238
168 203 238
168 203 238
168 203 238
168 203 238
168 203 238
168 203 238
168 203 238
169 203 238
169 203 238
169 203 238
169 204 238
169 204 238
169 204 238
169 204 238
169 204 238
169 204 238
169 204 238
169 204 238
170 204 238
170 204 238
170 204 238
170 204 238
170 204 238
170 204 238
170 204 238
170 204 238
170 204 238
170 204 238
170 204 238
170 204 238
170 204 238
171 205 239
171 205 239
171 205 239
171 205 239
171 205 239
171 205 239
171 205 239
171 205 239
171 205 239
171 205 239
171 205 239
171 205 239
171 205 239
172 205 239
172 205 239
172 205 239
172 205 239
172 205 239
172 205 239
172 205 239
172 205 239
172 205 239
172 206 239
172 206 239
172 206 239
172 206 239
172 206 239
173 206 239
173 206 239
173 206 239
173 206 239
173 206 239
173 206 239
173 206 239
173 206 239
173 206 239
173 206 239
173 206 239
173 206 239
173 206 239
173 206 239
173 206 239
173 206 239
173 206 239
173 206 239
173 206 239
173 206 239
173 206 239
172 206 239
172 206 239
172 206 239
172 206 239
172 206 239
172 205 239
172 205 239
172 205 239
172 205 239
172 205 239
172 205 239
172 205 239
172 205 239
172 205 239
171 205 239
171 205 239
171 205 239
171 205 239
171 205 239
171 205 239
171 205 239
171 205 239
171 205 239
171 205 239
171 205 239
171 205 239
171 205 239
171 205 239
170 204 238
170 204 238
170 204 238
170 204 238
170 204 238
170 204 238
170 204 238
170 204 238
170 204 238
170 204 238
170 204 238
170 204 238
169 204 238
169 204 238
169 204 238
169 204 238
169 204 238
169 204 238
169 204 238
169 204 238
169 203 238
169 203 238
169 203 238
169 203 238
168 203 238
168 203 238
168 203 238
168 203 238
168 203 238
168 203 238
168 203 238
168 203 238
168 203 238
168 203 238
168 203 238
167 203 238
167 203 238
167 203 238
167 203 238
167 202 238
167 202 238
167 202 238
167 202 238
167 202 238
167 202 238
167 202 238
166 202 238
166 202 238
166 202 238
166 202 238
166 202 238
166 202 238
166 202 238
166 202 238
166 202 238
166 202 238
165 201 237
165 201 237
165 201 237
165 201 237
165 201 237
165 201 237
165 201 237
165 201 237
165 201 237
165 201 237
165 201 237
164 201 237
164 201 237
164 201 237
164 201 237
164 201 237
164 201 237
164 201 237
164 200 237
164 200 237
164 200 237
163 200 237
163 200 237
163 200 237
163 200 237
163 200 237
163 200 237
163 200 237
163 200 237
163 200 237
163 200 237
163 200 237
162 200 237
162 200 237
162 200 237
162 199 237
162 199 237
162 199 237
162 199 237
162 199 237
162 199 237
162 199 237
162 199 237
161 199 237
161 199 237
161 199 237
161 199 237
161 199 237
161 199 237
161 199 237
161 199 237
161 199 237
161 199 237
161 199 237
161 199 237
160 198 236
160 198 236
160 198 236
160 198 236
160 198 236
160 198 236
160 198 236
160 198 236
160 198 236
160 198 236
160 198 236
160 198 236
160 198 236
160 198 236
159 198 236
159 198 236
159 198 236
159 198 236
159 198 236
159 198 236
159 198 236
159 198 236
159 198 236
159 198 236
159 198 236
159 198 236
159 198 236
159 197 236
159 197 236
159 197 236
159 197 236
159 197 236
159 197 236
159 197 236
159 197 236
159 197 236
159 197 236
159 197 236
159 197 236
158 197 236
158 197 236
158 197 236
158 197 236
158 197 236
158 197 236
158 197 236
158 197 236
158 197 236
158 197 236
158 197 236
158 197 236
158 197 236
158 197 236
158 197 236
158 197 236
158 197 236
158 197 236
158 197 236
158 197 236
158 197 236
158 197 236
159 197 236
159 197 236
159 197 236
159 197 236
159 197 236
159 197 236
159 197 236
159 197 236
159 197 236
159 197 236
159 198 236
159 198 236
159 198 236
159 198 236
159 198 236
159 198 236
159 198 236
159 198 236
159 198 236
159 198 236
159 198 236
159 198 236
159 198 236
160 198 236
160 198 236
160 198 236
160 198 236
160 198 236
160 198 236
160 198 236
160 198 236
160 198 236
160 198 236
160 198 236
160 198 236
160 198 236
160 198 236
161 199 237
161 199 237
161 199 237
161 199 237
161 199 237
161 199 237
161 199 237
161 199 237
161 199 237
161 199 237
161 199 237
161 199 237
162 199 237
162 199 237
162 199 237
162 199 237
162 199 237
162 199 237
162 199 237
162 199 237
162 200 237
162 200 237
162 200 237
163 200 237
163 200 237
163 200 237
163 200 237
163 200 237
163 200 237
163 200 237
163 200 237
163 200 237
163 200 237
163 200 237
164 200 237
164 200 237
164 200 237
164 201 237
164 201 237
164 201 237
164 201 237
164 201 237
164 201 237
164 201 237
165 201 237
165 201 237
165 201 237
165 201 237
165 201 237
165 201 237
165 201 237
165 201 237
165 201 237
165 201 237
165 201 237
166 202 238
166 202 238
166 202 238
166 202 238
166 202 238
166 202 238
166 202 238
166 202 238
166 202 238
166 202 238
167 202 238
167 202 238
167 202 238
167 202 238
167 202 238
167 202 238
167 202 238
167 203 238
167 203 238
167 203 238
167 203 238
168 203 238
168 203 238
168 203 238
168 203 238
168 203 238
168 203 238
168 203 238
168 203 238
168 203 238
168 203 238
168 203 238
169 203 238
169 203 238
169 203 238
169 203 238
169 204 238
169 204 238
169 204 238
169 204 238
169 204 238
169 204 238
169 204 238
169 204 238
170 204 238
170 204 238
170 204 238
170 204 238
170 204 238
170 204 238
170 204 238
170 204 238
170 204 238
170 204 238
170 204 238
170 204 238
171 205 239
171 205 239
171 205 239
171 205 239
171 205 239
171 205 239
171 205 239
171 205 239
171 205 239
171 205 239
171 205 239
171 205 239
171 205 239
172 205 239
172 205 239
172 205 239
172 205 239
172 205 239
172 205 239
172 205 239
172 205 239
172 205 239
172 205 239
172 206 239
172 206 239
172 206 239
172 206 239
172 206 239
173 206 239
173 206 239
173 206 239
173 206 239
173 206 239
173 206 239
173 206 239
173 206 239
173 206 239
173 206 239
173 206 239
173 206 239
174 206 239
173 206 239
173 206 239
173 206 239
173 206 239
173 206 239
173 206 239
173 206 239
173 206 239
173 206 239
173 206 239
173 206 239
173 206 239
173 206 239
173 206 239
173 206 239
172 206 239
172 206 239
172 206 239
172 206 239
172 206 239
172 205 239
172 205 239
172 205 239
172 205 239
172 205 239
172 205 239
172 205 239
172 205 239
172 205 239
171 205 239
171 205 239
171 205 239
171 205 239
171 205 239
171 205 239
171 205 239
171 205 239
171 205 239
171 205 239
171 205 239
171 205 239
171 205 239
170 204 238
170 204 238
170 204 238
170 204 238
170 204 238
170 204 238
170 204 238
170 204 238
170 204 238
170 204 238
170 204 238
170 204 238
170 204 238
169 204 238
169 204 238
169 204 238
169 204 238
169 204 238
169 204 238
169 204 238
169 203 238
169 203 238
169 203 238
169 203 238
168 203 238
168 203 238
168 203 238
168 203 238
168 203 238
168 203 238
168 203 238
168 203 238
168 203 238
168 203 238
168 203 238
168 203 238
167 203 238
167 203 238
167 203 238
167 202 238
167 202 238
167 202 238
167 202 238
167 202 238
167 202 238
167 202 238
166 202 238
166 202 238
166 202 238
166 202 238
166 202 238
166 202 238
166 202 238
166 202 238
166 202 238
166 202 238
166 202 238
165 201 237
165 201 237
165 201 237
165 201 237
165 201 237
165 201 237
165 201 237
165 201 237
165 201 237
165 201 237
164 201 237
164 201 237
164 201 237
164 201 237
164 201 237
164 201 237
164 201 237
164 200 237
164 200 237
164 200 237
164 200 237
163 200 237
163 200 237
163 200 237
163 200 237
163 200 237
163 200 237
163 200 237
163 200 237
163 200 237
163 200 237
162 200 237
162 200 237
162 200 237
162 200 237
162 199 237
162 199 237
162 199 237
162 199 237
162 199 237
162 199 237
162 199 237
162 199 237
161 199 237
161 199 237
161 199 237
161 199 237
161 199 237
161 199 237
161 199 237
161 199 237
161 199 237
161 199 237
161 199 237
161 199 237
160 198 236
160 198 236
160 198 236
160 198 236
160 198 236
160 198 236
160 198 236
160 198 236
160 198 236
160 198 236
160 198 236
160 198 236
160 198 236
160 198 236
160 198 236
160 198 236
160 198 236
159 198 236
159 198 236
159 198 236
159 198 236
159 198 236
159 198 236
159 198 236
159 198 236
159 198 236
159 198 236
159 198 236
159 198 236
159 198 236
159 198 236
159 198 236
159 198 236
159 198 236
159 198 236
159 198 236
159 198 236
159 197 236
159 197 236
159 197 236
159 197 236
159 197 236
159 197 236
159 197 236
159 197 236
159 197 236
159 197 236
159 197 236
159 197 236
159 197 236
159 197 236
159 197 236
159 197 236
159 197 236
159 198 236
159 198 236
159 198 236
159 198 236
159 198 236
159 198 236
159 198 236
159 198 236
159 198 236
159 198 236
159 198 236
159 198 236
159 198 236
159 198 236
159 198 236
159 198 236
159 198 236
159 198 236
159 198 236
160 198 236
160 198 236
160 198 236
160 198 236
160 198 236
160 198 236
160 198 236
160 198 236
160 198 236
160 198 236
160 198 236
160 198 236
160 198 236
160 198 236
160 198 236
160 198 236
160 198 236
161 199 237
161 199 237
161 199 237
161 199 237
161 199 237
161 199 237
161 199 237
161 199 237
161 199 237
161 199 237
161 199 237
161 199 237
162 199 237
162 199 237
162 199 237
162 199 237
162 199 237
162 199 237
162 199 237
162 199 237
162 200 237
162 200 237
162 200 237
162 200 237
163 200 237
163 200 237
163 200 237
163 200 237
163 200 237
163 200 237
163 200 237
163 200 237
163 200 237
163 200 237
164 200 237
164 200 237
164 200 237
164 200 237
164 201 237
164 201 237
164 201 237
164 201 237
164 201 237
164 201 237
164 201 237
165 201 237
165 201 237
165 201 237
165 201 237
165 201 237
165 201 237
165 201 237
165 201 237
165 201 237
165 201 237
166 202 238
166 202 238
166 202 238
166 202 238
166 202 238
166 202 238
166 202 238
166 202 238
166 202 238
166 202 238
166 202 238
167 202 238
167 202 238
167 202 238
167 202 238
167 202 238
167 202 238
167 202 238
167 203 238
167 203 238
167 203 238
168 203 238
168 203 238
168 203 238
168 203 238
168 203 238
168 203 238
168 203 238
168 203 238
168 203 238
168 203 238
168 203 238
168 203 238
169 203 238
169 203 238
169 203 238
169 203 238
169 204 238
169 204 238
169 204 238
169 204 238
169 204 238
169 204 238
169 204 238
169 204 238
170 204 238
170 204 238
170 204 238
170 204 238
170 204 238
170 204 238
170 204 238
170 204 238
170 204 238
170 204 238
170 204 238
170 204 238
171 205 239
171 205 239
171 205 239
171 205 239
171 205 239
171 205 239
171 205 239
171 205 239
171 205 239
171 205 239
171 205 239
171 205 239
171 205 239
172 205 239
172 205 239
172 205 239
172 205 239
172 205 239
172 205 239
172 205 239
172 205 239
172 205 239
172 206 239
172 206 239
172 206 239
172 206 239
172 206 239
173 206 239
173 206 239
173 206 239
173 206 239
173 206 239
173 206 239
173 206 239
173 206 239
173 206 239
173 206 239
173 206 239
173 206 239
173 206 239
173 206 239
173 206 239
174 206 239
174 206 239
174 206 239
174 206 239
174 206 239
174 206 239
173 206 239
173 206 239
173 206 239
173 206 239
173 206 239
173 206 239
173 206 239
173 206 239
173 206 239
173 206 239
173 206 239
173 206 239
173 206 239
173 206 239
173 206 239
172 206 239
172 206 239
172 206 239
172 206 239
172 206 239
172 205 239
172 205 239
172 205 239
172 205 239
172 205 239
172 205 239
172 205 239
172 205 239
172 205 239
171 205 239
171 205 239
171 205 239
171 205 239
171 205 239
171 205 239
171 205 239
171 205 239
171 205 239
171 205 239
171 205 239
171 205 239
171 205 239
170 204 238
170 204 238
170 204 238
170 204 238
170 204 238
170 204 238
170 204 238
170 204 238
170 204 238
170 204 238
170 204 238
170 204 238
169 204 238
169 204 238
169 204 238
169 204 238
169 204 238
169 204 238
169 204 238
169 204 238
169 203 238
169 203 238
169 203 238
169 203 238
168 203 238
168 203 238
168 203 238
168 203 238
168 203 238
168 203 238
168 203 238
168 203 238
168 203 238
168 203 238
168 203 238
167 203 238
167 203 238
167 203 238
167 202 238
167 202 238
167 202 238
167 202 238
167 202 238
167 202 238
167 202 238
167 202 238
166 202 238
166 202 238
166 202 238
166 202 238
166 202 238
166 202 238
166 202 238
166 202 238
166 202 238
166 202 238
165 201 237
165 201 237
165 201 237
165 201 237
165 201 237
165 201 237
165 201 237
165 201 237
165 201 237
165 201 237
165 201 237
164 201 237
164 201 237
164 201 237
164 201 237
164 201 237
164 201 237
164 201 237
164 200 237
164 200 237
164 200 237
163 200 237
163 200 237
163 200 237
163 200 237
163 200 237
163 200 237
163 200 237
163 200 237
163 200 237
163 200 237
163 200 237
162 200 237
162 200 237
162 200 237
162 200 237
162 199 237
162 199 237
162 199 237
162 199 237
162 199 237
162 199 237
162 199 237
162 199 237
161 199 237
161 199 237
161 199 237
161 199 237
161 199 237
161 199 237
161 199 237
161 199 237
161 199 237
161 199 237
161 199 237
161 199 237
161 199 237
160 198 236
160 198 236
160 198 236
160 198 236
160 198 236
160 198 236
160 198 236
160 198 236
160 198 236
160 198 236
160 198 236
160 198 236
160 198 236
160 198 236
160 198 236
160 198 236
160 198 236
160 198 236
160 198 236
160 198 236
159 198 236
159 198 236
159 198 236
159 198 236
159 198 236
159 198 236
159 198 236
159 198 236
159 198 236
159 198 236
159 198 236
159 198 236
159 198 236
159 198 236
159 198 236
159 198 236
159 198 236
159 198 236
159 198 236
159 198 236
159 198 236
159 198 236
159 198 236
159 198 236
159 198 236
159 198 236
159 198 236
159 198 236
159 198 236
159 198 236
159 198 236
159 198 236
159 198 236
159 198 236
159 198 236
159 198 236
159 198 236
159 198 236
159 198 236
159 198 236
160 198 236
160 198 236
160 198 236
160 198 236
160 198 236
160 198 236
160 198 236
160 198 236
160 198 236
160 198 236
160 198 236
160 198 236
160 198 236
160 198 236
160 198 236
160 198 236
160 198 236
160 198 236
160 198 236
161 199 237
161 199 237
161 199 237
161 199 237
161 199 237
161 199 237
161 199 237
161 199 237
161 199 237
161 199 237
161 199 237
161 199 237
161 199 237
161 199 237
162 199 237
162 199 237
162 199 237
162 199 237
162 199 237
162 199 237
162 199 237
162 199 237
162 200 237
162 200 237
162 200 237
162 200 237
163 200 237
163 200 237
163 200 237
163 200 237
163 200 237
163 200 237
163 200 237
163 200 237
163 200 237
163 200 237
163 200 237
164 200 237
164 200 237
164 200 237
164 201 237
164 201 237
164 201 237
164 201 237
164 201 237
164 201 237
164 201 237
165 201 237
165 201 237
165 201 237
165 201 237
165 201 237
165 201 237
165 201 237
165 201 237
165 201 237
165 201 237
165 201 237
166 202 238
166 202 238
166 202 238
166 202 238
166 202 238
166 202 238
166 202 238
166 202 238
166 202 238
166 202 238
167 202 238
167 202 238
167 202 238
167 202 238
167 202 238
167 202 238
167 202 238
167 202 238
167 203 238
167 203 238
167 203 238
168 203 238
168 203 238
168 203 238
168 203 238
168 203 238
168 203 238
168 203 238
168 203 238
168 203 238
168 203 238
168 203 238
169 203 238
169 203 238
169 203 238
169 203 238
169 204 238
169 204 238
169 204 238
169 204 238
169 204 238
169 204 238
169 204 238
169 204 238
170 204 238
170 204 238
170 204 238
170 204 238
170 204 238
170 204 238
170 204 238
170 204 238
170 204 238
170 204 238
170 204 238
170 204 238
171 205 239
171 205 239
171 205 239
171 205 239
171 205 239
171 205 239
171 205 239
171 205 239
171 205 239
171 205 239
171 205 239
171 205 239
171 205 239
172 205 239
172 205 239
172 205 239
172 205 239
172 205 239
172 205 239
172 205 239
172 205 239
172 205 239
172 206 239
172 206 239
172 206 239
172 206 239
172 206 239
173 206 239
173 206 239
173 206 239
173 206 239
173 206 239
173 206 239
173 206 239
173 206 239
173 206 239
173 206 239
173 206 239
173 206 239
173 206 239
173 206 239
173 206 239
174 206 239
174 206 239
174 206 239
174 206 239
174 206 239
174 207 239
174 207 239
174 207 239
174 207 239
174 206 239
174 206 239
174 206 239
174 206 239
174 206 239
173 206 239
173 206 239
173 206 239
173 206 239
173 206 239
173 206 239
173 206 239
173 206 239
173 206 239
173 206 239
173 206 239
173 206 239
173 206 239
173 206 239
173 206 239
172 206 239
172 206 239
172 206 239
172 206 239
172 206 239
172 205 239
172 205 239
172 205 239
172 205 239
172 205 239
172 205 239
172 205 239
172 205 239
172 205 239
171 205 239
171 205 239
171 205 239
171 205 239
171 205 239
171 205 239
171 205 239
171 205 239
171 205 239
171 205 239
171 205 239
171 205 239
171 205 239
170 204 238
170 204 238
170 204 238
170 204 238
170 204 238
170 204 238
170 204 238
170 204 238
170 204 238
170 204 238
170 204 238
170 204 238
169 204 238
169 204 238
169 204 238
169 204 238
169 204 238
169 204 238
169 204 238
169 203 238
169 203 238
169 203 238
169 203 238
168 203 238
168 203 238
168 203 238
168 203 238
168 203 238
168 203 238
168 203 238
168 203 238
168 203 238
168 203 238
168 203 238
167 203 238
167 203 238
167 203 238
167 203 238
167 202 238
167 202 238
167 202 238
167 202 238
167 202 238
167 202 238
167 202 238
166 202 238
166 202 238
166 202 238
166 202 238
166 202 238
166 202 238
166 202 238
166 202 238
166 202 238
166 202 238
166 202 238
165 201 237
165 201 237
165 201 237
165 201 237
165 201 237
165 201 237
165 201 237
165 201 237
165 201 237
165 201 237
164 201 237
164 201 237
164 201 237
164 201 237
164 201 237
164 201 237
164 201 237
164 200 237
164 200 237
164 200 237
164 200 237
163 200 237
163 200 237
163 200 237
163 200 237
163 200 237
163 200 237
163 200 237
163 200 237
163 200 237
163 200 237
163 200 237
162 200 237
162 200 237
162 200 237
162 200 237
162 199 237
162 199 237
162 199 237
162 199 237
162 199 237
162 199 237
162 199 237
162 199 237
162 199 237
161 199 237
161 199 237
161 199 237
161 199 237
161 199 237
161 199 237
161 199 237
161 199 237
161 199 237
161 199 237
161 199 237
161 199 237
161 199 237
161 199 237
160 198 236
160 198 236
160 198 236
160 198 236
160 198 236
160 198 236
160 198 236
160 198 236
160 198 236
160 198 236
160 198 236
160 198 236
160 198 236
160 198 236
160 198 236
160 198 236
160 198 236
160 198 236
160 198 236
160 198 236
160 198 236
160 198 236
160 198 236
160 198 236
160 198 236
160 198 236
154 198 233
132 200 221
120 201 215
84 205 195
91 204 198
94 204 199
87 204 195
103 203 203
80 205 189
90 204 194
94 204 196
112 202 206
110 203 203
127 202 214
143 200 224
157 198 234
160 198 236
160 198 236
160 198 236
160 198 236
160 198 236
160 198 236
160 198 236
160 198 236
160 198 236
160 198 236
160 198 236
160 198 236
160 198 236
160 198 236
160 198 236
160 198 236
160 198 236
160 198 236
160 198 236
160 198 236
160 198 236
160 198 236
160 198 236
160 198 236
160 198 236
160 198 236
161 199 237
161 199 237
161 199 237
161 199 237
161 199 237
161 199 237
161 199 237
161 199 237
161 199 237
161 199 237
161 199 237
161 199 237
161 199 237
161 199 237
162 199 237
162 199 237
162 199 237
162 199 237
162 199 237
162 199 237
162 199 237
162 199 237
162 199 237
162 200 237
162 200 237
162 200 237
162 200 237
163 200 237
163 200 237
163 200 237
163 200 237
163 200 237
163 200 237
163 200 237
163 200 237
163 200 237
163 200 237
163 200 237
164 200 237
164 200 237
164 200 237
164 200 237
164 201 237
164 201 237
164 201 237
164 201 237
164 201 237
164 201 237
164 201 237
165 201 237
165 201 237
165 201 237
165 201 237
165 201 237
165 201 237
165 201 237
165 201 237
165 201 237
165 201 237
166 202 238
166 202 238
166 202 238
166 202 238
166 202 238
166 202 238
166 202 238
166 202 238
166 202 238
166 202 238
166 202 238
167 202 238
167 202 238
167 202 238
167 202 238
167 202 238
167 202 238
167 202 238
167 203 238
167 203 238
167 203 238
168 203 238
168 203 238
168 203 238
168 203 238
168 203 238
168 203 238
168 203 238
168 203 238
168 203 238
168 203 238
168 203 238
168 203 238
169 203 238
169 203 238
169 203 238
169 203 238
169 204 238
169 204 238
169 204 238
169 204 238
169 204 238
169 204 238
169 204 238
170 204 238
170 204 238
170 204 238
170 204 238
170 204 238
170 204 238
170 204 238
170 204 238
170 204 238
170 204 238
170 204 238
170 204 238
170 204 238
171 205 239
171 205 239
171 205 239
171 205 239
171 205 239
171 205 239
171 205 239
171 205 239
171 205 239
171 205 239
171 205 239
171 205 239
171 205 239
172 205 239
172 205 239
172 205 239
172 205 239
172 205 239
172 205 239
172 205 239
172 205 239
172 206 239
172 206 239
172 206 239
172 206 239
172 206 239
173 206 239
173 206 239
173 206 239
173 206 239
173 206 239
173 206 239
173 206 239
173 206 239
173 206 239
173 206 239
173 206 239
173 206 239
173 206 239
173 206 239
173 206 239
174 206 239
174 206 239
174 206 239
174 206 239
174 206 239
174 207 239
174 207 239
174 207 239
174 207 239
174 207 239
174 207 239
174 207 239
174 207 239
174 207 239
174 207 239
174 207 239
174 207 239
174 206 239
174 206 239
174 206 239
174 206 239
174 206 239
173 206 239
173 206 239
173 206 239
173 206 239
173 206 239
173 206 239
173 206 239
173 206 239
173 206 239
173 206 239
173 206 239
173 206 239
173 206 239
173 206 239
173 206 239
172 206 239
172 206 239
172 206 239
172 206 239
172 205 239
172 205 239
172 205 239
172 205 239
172 205 239
172 205 239
172 205 239
172 205 239
172 205 239
171 205 239
171 205 239
171 205 239
171 205 239
171 205 239
171 205 239
171 205 239
171 205 239
171 205 239
171 205 239
171 205 239
171 205 239
171 205 239
170 204 238
170 204 238
170 204 238
170 204 238
170 204 238
170 204 238
170 204 238
170 204 238
170 204 238
170 204 238
170 204 238
170 204 238
169 204 238
169 204 238
169 204 238
169 204 238
169 204 238
169 204 238
169 204 238
169 204 238
169 203 238
169 203 238
169 203 238
169 203 238
168 203 238
168 203 238
168 203 238
168 203 238
168 203 238
168 203 238
168 203 238
168 203 238
168 203 238
168 203 238
168 203 238
167 203 238
167 203 238
167 203 238
167 203 238
167 202 238
167 202 238
167 202 238
167 202 238
167 202 238
167 202 238
166 202 238
166 202 238
166 202 238
166 202 238
166 202 238
166 202 238
166 202 238
166 202 238
166 202 238
166 202 238
166 202 238
165 201 237
165 201 237
165 201 237
165 201 237
165 201 237
165 201 237
165 201 237
165 201 237
165 201 237
165 201 237
165 201 237
164 201 237
164 201 237
164 201 237
164 201 237
164 201 237
164 201 237
164 201 237
164 200 237
164 200 237
164 200 237
164 200 237
163 200 237
163 200 237
163 200 237
163 200 237
163 200 237
163 200 237
163 200 237
163 200 237
163 200 237
163 200 237
163 200 237
162 200 237
162 200 237
162 200 237
162 200 237
162 200 237
162 199 237
162 199 237
162 199 237
162 199 237
162 199 237
162 199 237
162 199 237
162 199 237
161 199 237
161 199 237
161 199 237
161 199 237
161 199 237
161 199 237
161 199 237
161 199 237
161 199 237
161 199 237
161 199 237
161 199 237
161 199 237
161 199 237
161 199 237
161 199 237
161 199 237
160 198 236
160 198 236
160 198 236
160 198 236
160 198 236
160 198 236
160 198 236
160 198 236
160 198 236
160 198 236
160 198 236
160 198 236
160 198 236
156 198 234
120 201 217
63 203 190
41 204 180
41 204 181
0 206 157
0 207 148
0 204 152
0 203 153
0 202 155
0 202 156
0 202 156
0 201 157
0 201 157
1 201 158
4 201 158
7 201 157
11 203 155
14 202 155
17 203 153
20 205 151
24 206 148
38 206 155
61 205 167
86 204 182
116 202 202
134 201 215
152 199 229
160 198 236
160 198 236
160 198 236
160 198 236
160 198 236
160 198 236
160 198 236
160 198 236
160 198 236
160 198 236
160 198 236
160 198 236
160 198 236
161 199 237
161 199 237
161 199 237
161 199 237
161 199 237
161 199 237
161 199 237
161 199 237
161 199 237
161 199 237
161 199 237
161 199 237
161 199 237
161 199 237
161 199 237
161 199 237
162 199 237
162 199 237
162 199 237
162 199 237
162 199 237
162 199 237
162 199 237
162 199 237
162 199 237
162 200 237
162 200 237
162 200 237
162 200 237
162 200 237
163 200 237
163 200 237
163 200 237
163 200 237
163 200 237
163 200 237
163 200 237
163 200 237
163 200 237
163 200 237
163 200 237
164 200 237
164 200 237
164 200 237
164 200 237
164 201 237
164 201 237
164 201 237
164 201 237
164 201 237
164 201 237
164 201 237
165 201 237
165 201 237
165 201 237
165 201 237
165 201 237
165 201 237
165 201 237
165 201 237
165 201 237
165 201 237
165 201 237
166 202 238
166 202 238
166 202 238
166 202 238
166 202 238
166 202 238
166 202 238
166 202 238
166 202 238
166 202 238
166 202 238
167 202 238
167 202 238
167 202 238
167 202 238
167 202 238
167 202 238
167 202 238
167 203 238
167 203 238
167 203 238
168 203 238
168 203 238
168 203 238
168 203 238
168 203 238
168 203 238
168 203 238
168 203 238
168 203 238
168 203 238
168 203 238
169 203 238
169 203 238
169 203 238
169 203 238
169 204 238
169 204 238
169 204 238
169 204 238
169 204 238
169 204 238
169 204 238
169 204 238
170 204 238
170 204 238
170 204 238
170 204 238
170 204 238
170 204 238
170 204 238
170 204 238
170 204 238
170 204 238
170 204 238
170 204 238
171 205 239
171 205 239
171 205 239
171 205 239
171 205 239
171 205 239
171 205 239
171 205 239
171 205 239
171 205 239
171 205 239
171 205 239
171 205 239
172 205 239
172 205 239
172 205 239
172 205 239
172 205 239
172 205 239
172 205 239
172 205 239
172 205 239
172 206 239
172 206 239
172 206 239
172 206 239
172 206 239
173 206 239
173 206 239
173 206 239
173 206 239
173 206 239
173 206 239
173 206 239
173 206 239
173 206 239
173 206 239
173 206 239
173 206 239
173 206 239
173 206 239
174 206 239
174 206 239
174 206 239
174 206 239
174 206 239
174 207 239
174 207 239
174 207 239
174 207 239
174 207 239
174 207 239
174 207 239
174 207 239
175 207 239
174 207 239
174 207 239
174 207 239
174 207 239
174 207 239
174 207 239
174 207 239
174 207 239
174 207 239
174 207 239
174 207 239
174 206 239
174 206 239
174 206 239
174 206 239
174 206 239
173 206 239
173 206 239
173 206 239
173 206 239
173 206 239
173 206 239
173 206 239
173 206 239
173 206 239
173 206 239
173 206 239
173 206 239
173 206 239
173 206 239
173 206 239
172 206 239
172 206 239
172 206 239
172 206 239
172 205 239
172 205 239
172 205 239
172 205 239
172 205 239
172 205 239
172 205 239
172 205 239
172 205 239
171 205 239
171 205 239
171 205 239
171 205 239
171 205 239
171 205 239
171 205 239
171 205 239
171 205 239
171 205 239
171 205 239
171 205 239
171 205 239
170 204 238
170 204 238
170 204 238
170 204 238
170 204 238
170 204 238
170 204 238
170 204 238
170 204 238
170 204 238
170 204 238
170 204 238
169 204 238
169 204 238
169 204 238
169 204 238
169 204 238
169 204 238
169 204 238
169 204 238
169 203 238
169 203 238
169 203 238
168 203 238
168 203 238
168 203 238
168 203 238
168 203 238
168 203 238
168 203 238
168 203 238
168 203 238
168 203 238
168 203 238
167 203 238
167 203 238
167 203 238
167 203 238
167 202 238
167 202 238
167 202 238
167 202 238
167 202 238
167 202 238
167 202 238
166 202 238
166 202 238
166 202 238
166 202 238
166 202 238
166 202 238
166 202 238
166 202 238
166 202 238
166 202 238
166 202 238
165 201 237
165 201 237
165 201 237
165 201 237
165 201 237
165 201 237
165 201 237
165 201 237
165 201 237
165 201 237
165 201 237
164 201 237
164 201 237
164 201 237
164 201 237
164 201 237
164 201 237
164 201 237
164 200 237
164 200 237
164 200 237
164 200 237
163 200 237
163 200 237
163 200 237
163 200 237
163 200 237
163 200 237
163 200 237
163 200 237
163 200 237
163 200 237
163 200 237
163 200 237
162 200 237
162 200 237
162 200 237
162 200 237
162 199 237
162 199 237
162 199 237
162 199 237
162 199 237
162 199 237
162 199 237
162 199 237
162 199 237
162 199 237
161 199 237
161 199 237
161 199 237
161 199 237
161 199 237
161 199 237
161 199 237
161 199 237
161 199 237
161 199 237
161 199 237
161 199 237
161 199 237
161 199 237
161 199 237
161 199 237
161 199 237
161 199 237
161 199 237
161 199 237
154 199 233
111 200 214
57 202 191
0 203 166
0 202 150
0 200 154
0 198 156
0 196 160
0 196 161
0 195 163
0 194 164
0 193 166
0 193 166
0 192 168
0 192 168
0 192 168
0 191 169
0 191 169
1 191 169
4 191 169
7 192 169
10 192 168
13 192 168
16 193 166
20 193 166
23 194 164
26 195 163
29 196 161
32 197 159
36 199 156
39 200 153
50 202 155
69 202 165
99 202 186
129 201 209
156 199 232
161 199 237
161 199 237
161 199 237
161 199 237
161 199 237
161 199 237
161 199 237
161 199 237
161 199 237
161 199 237
161 199 237
161 199 237
161 199 237
161 199 237
161 199 237
161 199 237
161 199 237
161 199 237
161 199 237
161 199 237
162 199 237
162 199 237
162 199 237
162 199 237
162 199 237
162 199 237
162 199 237
162 199 237
162 199 237
162 199 237
162 200 237
162 200 237
162 200 237
162 200 237
163 200 237
163 200 237
163 200 237
163 200 237
163 200 237
163 200 237
163 200 237
163 200 237
163 200 237
163 200 237
163 200 237
163 200 237
164 200 237
164 200 237
164 200 237
164 200 237
164 201 237
164 201 237
164 201 237
164 201 237
164 201 237
164 201 237
164 201 237
165 201 237
165 201 237
165 201 237
165 201 237
165 201 237
165 201 237
165 201 237
165 201 237
165 201 237
165 201 237
165 201 237
166 202 238
166 202 238
166 202 238
166 202 238
166 202 238
166 202 238
166 202 238
166 202 238
166 202 238
166 202 238
166 202 238
167 202 238
167 202 238
167 202 238
167 202 238
167 202 238
167 202 238
167 202 238
167 203 238
167 203 238
167 203 238
167 203 238
168 203 238
168 203 238
168 203 238
168 203 238
168 203 238
168 203 238
168 203 238
168 203 238
168 203 238
168 203 238
168 203 238
169 203 238
169 203 238
169 203 238
169 204 238
169 204 238
169 204 238
169 204 238
169 204 238
169 204 238
169 204 238
169 204 238
170 204 238
170 204 238
170 204 238
170 204 238
170 204 238
170 204 238
170 204 238
170 204 238
170 204 238
170 204 238
170 204 238
170 204 238
171 205 239
171 205 239
171 205 239
171 205 239
171 205 239
171 205 239
171 205 239
171 205 239
171 205 239
171 205 239
171 205 239
171 205 239
171 205 239
172 205 239
172 205 239
172 205 239
172 205 239
172 205 239
172 205 239
172 205 239
172 205 239
172 205 239
172 206 239
172 206 239
172 206 239
172 206 239
173 206 239
173 206 239
173 206 239
173 206 239
173 206 239
173 206 239
173 206 239
173 206 239
173 206 239
173 206 239
173 206 239
173 206 239
173 206 239
173 206 239
173 206 239
174 206 239
174 206 239
174 206 239
174 206 239
174 206 239
174 207 239
174 207 239
174 207 239
174 207 239
174 207 239
174 207 239
174 207 239
174 207 239
174 207 239
174 207 239
174 207 239
175 207 239
175 207 239
175 207 239
175 207 239
175 207 239
175 207 239
174 207 239
174 207 239
174 207 239
174 207 239
174 207 239
174 207 239
174 207 239
174 207 239
174 207 239
174 207 239
174 207 239
174 206 239
174 206 239
174 206 239
174 206 239
174 206 239
173 206 239
173 206 239
173 206 239
173 206 239
173 206 239
173 206 239
173 206 239
173 206 239
173 206 239
173 206 239
173 206 239
173 206 239
173 206 239
173 206 239
172 206 239
172 206 239
172 206 239
172 206 239
172 206 239
172 205 239
172 205 239
172 205 239
172 205 239
172 205 239
172 205 239
172 205 239
172 205 239
172 205 239
171 205 239
171 205 239
171 205 239
171 205 239
171 205 239
171 205 239
171 205 239
171 205 239
171 205 239
171 205 239
171 205 239
171 205 239
170 204 238
170 204 238
170 204 238
170 204 238
170 204 238
170 204 238
170 204 238
170 204 238
170 204 238
170 204 238
170 204 238
170 204 238
169 204 238
169 204 238
169 204 238
169 204 238
169 204 238
169 204 238
169 204 238
169 204 238
169 203 238
169 203 238
169 203 238
169 203 238
168 203 238
168 203 238
168 203 238
168 203 238
168 203 238
168 203 238
168 203 238
168 203 238
168 203 238
168 203 238
168 203 238
167 203 238
167 203 238
167 203 238
167 203 238
167 202 238
167 202 238
167 202 238
167 202 238
167 202 238
167 202 238
167 202 238
166 202 238
166 202 238
166 202 238
166 202 238
166 202 238
166 202 238
166 202 238
166 202 238
166 202 238
166 202 238
165 201 237
165 201 237
165 201 237
165 201 237
165 201 237
165 201 237
165 201 237
165 201 237
165 201 237
165 201 237
165 201 237
164 201 237
164 201 237
164 201 237
164 201 237
164 201 237
164 201 237
164 201 237
164 201 237
164 200 237
164 200 237
164 200 237
164 200 237
163 200 237
163 200 237
163 200 237
163 200 237
163 200 237
163 200 237
163 200 237
163 200 237
163 200 237
163 200 237
163 200 237
163 200 237
163 200 237
162 200 237
162 200 237
162 200 237
162 200 237
162 200 237
162 199 237
162 199 237
162 199 237
162 199 237
162 199 237
162 199 237
162 199 237
162 199 237
162 199 237
162 199 237
162 199 237
161 199 237
161 199 237
161 199 237
161 199 237
161 199 237
161 199 237
161 199 237
161 199 237
161 199 237
161 199 237
140 199 227
44 201 187
0 200 168
0 200 149
0 196 154
0 194 159
0 193 161
0 191 165
0 190 167
0 188 169
0 188 170
0 187 172
0 186 172
0 185 174
0 186 174
0 184 176
0 184 176
0 184 176
0 184 177
0 184 177
0 184 177
1 184 177
4 184 177
7 184 177
10 184 177
13 184 176
16 185 175
19 185 175
22 185 174
25 186 173
28 187 171
31 188 170
34 188 169
38 189 167
41 191 164
44 192 162
48 193 159
52 196 155
57 199 151
83 200 167
122 200 198
150 199 225
161 199 237
161 199 237
161 199 237
161 199 237
161 199 237
161 199 237
161 199 237
161 199 237
161 199 237
161 199 237
162 199 237
162 199 237
162 199 237
162 199 237
162 199 237
162 199 237
162 199 237
162 199 237
162 199 237
162 199 237
162 199 237
162 199 237
162 200 237
162 200 237
162 200 237
162 200 237
163 200 237
163 200 237
163 200 237
163 200 237
163 200 237
163 200 237
163 200 237
163 200 237
163 200 237
163 200 237
163 200 237
163 200 237
163 200 237
164 200 237
164 200 237
164 200 237
164 200 237
164 201 237
164 201 237
164 201 237
164 201 237
164 201 237
164 201 237
164 201 237
165 201 237
165 201 237
165 201 237
165 201 237
165 201 237
165 201 237
165 201 237
165 201 237
165 201 237
165 201 237
165 201 237
166 202 238
166 202 238
166 202 238
166 202 238
166 202 238
166 202 238
166 202 238
166 202 238
166 202 238
166 202 238
166 202 238
167 202 238
167 202 238
167 202 238
167 202 238
167 202 238
167 202 238
167 202 238
167 202 238
167 203 238
167 203 238
167 203 238
168 203 238
168 203 238
168 203 238
168 203 238
168 203 238
168 203 238
168 203 238
168 203 238
168 203 238
168 203 238
168 203 238
169 203 238
169 203 238
169 203 238
169 203 238
169 204 238
169 204 238
169 204 238
169 204 238
169 204 238
169 204 238
169 204 238
169 204 238
170 204 238
170 204 238
170 204 238
170 204 238
170 204 238
170 204 238
170 204 238
170 204 238
170 204 238
170 204 238
170 204 238
170 204 238
171 205 239
171 205 239
171 205 239
171 205 239
171 205 239
171 205 239
171 205 239
171 205 239
171 205 239
171 205 239
171 205 239
171 205 239
172 205 239
172 205 239
172 205 239
172 205 239
172 205 239
172 205 239
172 205 239
172 205 239
172 205 239
172 206 239
172 206 239
172 206 239
172 206 239
172 206 239
173 206 239
173 206 239
173 206 239
173 206 239
173 206 239
173 206 239
173 206 239
173 206 239
173 206 239
173 206 239
173 206 239
173 206 239
173 206 239
173 206 239
174 206 239
174 206 239
174 206 239
174 206 239
174 206 239
174 207 239
174 207 239
174 207 239
174 207 239
174 207 239
174 207 239
174 207 239
174 207 239
174 207 239
174 207 239
174 207 239
175 207 239
175 207 239
175 207 239
175 207 239
175 207 239
175 207 239
175 207 239
175 207 239
175 207 239
175 207 239
175 207 239
175 207 239
175 207 239
175 207 239
174 207 239
174 207 239
174 207 239
174 207 239
174 207 239
174 207 239
174 207 239
174 207 239
174 207 239
174 207 239
174 207 239
174 206 239
174 206 239
174 206 239
174 206 239
174 206 239
173 206 239
173 206 239
173 206 239
173 206 239
173 206 239
173 206 239
173 206 239
173 206 239
173 206 239
173 206 239
173 206 239
173 206 239
173 206 239
173 206 239
172 206 239
172 206 239
172 206 239
172 206 239
172 206 239
172 205 239
172 205 239
172 205 239
172 205 239
172 205 239
172 205 239
172 205 239
172 205 239
171 205 239
171 205 239
171 205 239
171 205 239
171 205 239
171 205 239
171 205 239
171 205 239
171 205 239
171 205 239
171 205 239
171 205 239
171 205 239
170 204 238
170 204 238
170 204 238
170 204 238
170 204 238
170 204 238
170 204 238
170 204 238
170 204 238
170 204 238
170 204 238
170 204 238
169 204 238
169 204 238
169 204 238
169 204 238
169 204 238
169 204 238
169 204 238
169 204 238
169 203 238
169 203 238
169 203 238
168 203 238
168 203 238
168 203 238
168 203 238
168 203 238
168 203 238
168 203 238
168 203 238
168 203 238
168 203 238
168 203 238
168 203 238
167 203 238
167 203 238
167 203 238
167 202 238
167 202 238
167 202 238
167 202 238
167 202 238
167 202 238
167 202 238
167 202 238
166 202 238
166 202 238
166 202 238
166 202 238
166 202 238
166 202 238
166 202 238
166 202 238
166 202 238
166 202 238
166 202 238
165 201 237
165 201 237
165 201 237
165 201 237
165 201 237
165 201 237
165 201 237
165 201 237
165 201 237
165 201 237
165 201 237
164 201 237
164 201 237
164 201 237
164 201 237
164 201 237
164 201 237
164 201 237
164 201 237
164 200 237
164 200 237
164 200 237
164 200 237
163 200 237
163 200 237
163 200 237
163 200 237
163 200 237
163 200 237
163 200 237
163 200 237
163 200 237
163 200 237
163 200 237
163 200 237
163 200 237
163 200 237
162 200 237
162 200 237
162 200 237
162 200 237
162 200 237
162 199 237
162 199 237
162 199 237
162 199 237
162 199 237
162 199 237
162 199 237
162 199 237
162 199 237
162 199 237
162 199 237
162 199 237
147 199 231
51 199 192
0 197 161
0 195 151
0 191 158
0 190 160
0 187 165
0 186 167
0 185 170
0 184 172
0 183 174
0 182 175
0 181 177
0 180 178
0 180 179
0 179 180
0 179 180
0 178 182
0 178 182
0 178 183
0 177 183
0 178 183
0 177 184
0 178 183
1 177 184
4 177 183
7 178 183
10 177 183
13 178 183
16 178 182
18 178 182
22 179 181
25 179 180
28 180 179
31 180 178
34 181 177
37 182 175
40 183 174
43 184 172
47 185 170
50 186 168
54 188 164
57 190 161
61 192 157
66 195 152
88 198 163
116 199 188
156 199 231
162 199 237
162 199 237
162 199 237
162 199 237
162 199 237
162 199 237
162 199 237
162 199 237
162 199 237
162 199 237
162 199 237
162 199 237
162 199 237
162 200 237
162 200 237
162 200 237
162 200 237
162 200 237
163 200 237
163 200 237
163 200 237
163 200 237
163 200 237
163 200 237
163 200 237
163 200 237
163 200 237
163 200 237
163 200 237
163 200 237
163 200 237
164 200 237
164 200 237
164 200 237
164 200 237
164 201 237
164 201 237
164 201 237
164 201 237
164 201 237
164 201 237
164 201 237
164 201 237
165 201 237
165 201 237
165 201 237
165 201 237
165 201 237
165 201 237
165 201 237
165 201 237
165 201 237
165 201 237
165 201 237
166 202 238
166 202 238
166 202 238
166 202 238
166 202 238
166 202 238
166 202 238
166 202 238
166 202 238
166 202 238
166 202 238
166 202 238
167 202 238
167 202 238
167 202 238
167 202 238
167 202 238
167 202 238
167 202 238
167 203 238
167 203 238
167 203 238
168 203 238
168 203 238
168 203 238
168 203 238
168 203 238
168 203 238
168 203 238
168 203 238
168 203 238
168 203 238
168 203 238
169 203 238
169 203 238
169 203 238
169 203 238
169 204 238
169 204 238
169 204 238
169 204 238
169 204 238
169 204 238
169 204 238
169 204 238
170 204 238
170 204 238
170 204 238
170 204 238
170 204 238
170 204 238
170 204 238
170 204 238
170 204 238
170 204 238
170 204 238
170 204 238
171 205 239
171 205 239
171 205 239
171 205 239
171 205 239
171 205 239
171 205 239
171 205 239
171 205 239
171 205 239
171 205 239
171 205 239
172 205 239
172 205 239
172 205 239
172 205 239
172 205 239
172 205 239
172 205 239
172 205 239
172 205 239
172 206 239
172 206 239
172 206 239
172 206 239
172 206 239
173 206 239
173 206 239
173 206 239
173 206 239
173 206 239
173 206 239
173 206 239
173 206 239
173 206 239
173 206 239
173 206 239
173 206 239
173 206 239
173 206 239
174 206 239
174 206 239
174 206 239
174 206 239
174 206 239
174 207 239
174 207 239
174 207 239
174 207 239
174 207 239
174 207 239
174 207 239
174 207 239
174 207 239
174 207 239
174 207 239
175 207 239
175 207 239
175 207 239
175 207 239
175 207 239
175 207 239
175 207 239
175 207 239
175 207 239
175 207 239
175 207 239
175 207 239
175 207 239
175 207 239
175 207 239
175 207 239
175 207 239
175 207 239
175 207 239
175 207 239
175 207 239
175 207 239
174 207 239
174 207 239
174 207 239
174 207 239
174 207 239
174 207 239
174 207 239
174 207 239
174 207 239
174 207 239
174 207 239
174 206 239
174 206 239
174 206 239
174 206 239
174 206 239
173 206 239
173 206 239
173 206 239
173 206 239
173 206 239
173 206 239
173 206 239
173 206 239
173 206 239
173 206 239
173 206 239
173 206 239
173 206 239
173 206 239
172 206 239
172 206 239
172 206 239
172 206 239
172 206 239
172 205 239
172 205 239
172 205 239
172 205 239
172 205 239
172 205 239
172 205 239
172 205 239
171 205 239
171 205 239
171 205 239
171 205 239
171 205 239
171 205 239
171 205 239
171 205 239
171 205 239
171 205 239
171 205 239
171 205 239
171 205 239
170 204 238
170 204 238
170 204 238
170 204 238
170 204 238
170 204 238
170 204 238
170 204 238
170 204 238
170 204 238
170 204 238
170 204 238
169 204 238
169 204 238
169 204 238
169 204 238
169 204 238
169 204 238
169 204 238
169 203 238
169 203 238
169 203 238
169 203 238
168 203 238
168 203 238
168 203 238
168 203 238
168 203 238
168 203 238
168 203 238
168 203 238
168 203 238
168 203 238
168 203 238
167 203 238
167 203 238
167 203 238
167 203 238
167 202 238
167 202 238
167 202 238
167 202 238
167 202 238
167 202 238
167 202 238
166 202 238
166 202 238
166 202 238
166 202 238
166 202 238
166 202 238
166 202 238
166 202 238
166 202 238
166 202 238
166 202 238
166 202 238
165 201 237
165 201 237
165 201 237
165 201 237
165 201 237
165 201 237
165 201 237
165 201 237
165 201 237
165 201 237
165 201 237
164 201 237
164 201 237
164 201 237
164 201 237
164 201 237
164 201 237
164 201 237
164 201 237
164 200 237
164 200 237
164 200 237
164 200 237
164 200 237
163 200 237
163 200 237
163 200 237
163 200 237
163 200 237
163 200 237
163 200 237
163 200 237
163 200 237
163 200 237
163 200 237
163 200 237
163 200 237
163 200 237
162 200 237
162 200 237
162 200 237
162 200 237
162 200 237
162 200 237
162 200 237
162 199 237
162 199 237
162 199 237
103 199 213
14 197 180
0 193 151
0 189 156
0 187 161
0 185 165
0 182 169
0 181 171
0 180 174
0 179 176
0 178 177
0 177 179
0 176 181
0 175 182
0 175 183
0 174 184
0 174 185
0 173 186
0 173 187
0 172 187
0 172 188
0 172 188
0 172 189
0 171 189
0 172 189
0 172 189
1 171 189
4 171 189
7 171 189
9 172 188
12 172 188
15 172 188
18 172 187
21 173 187
24 173 186
27 174 185
30 174 184
33 175 183
36 175 182
39 176 181
42 177 179
45 178 177
49 179 176
52 180 173
56 181 171
59 182 168
63 184 165
66 186 161
71 190 155
76 192 151
108 196 177
144 199 214
162 199 237
162 199 237
162 199 237
162 199 237
162 200 237
162 200 237
162 200 237
162 200 237
162 200 237
162 200 237
163 200 237
163 200 237
163 200 237
163 200 237
163 200 237
163 200 237
163 200 237
163 200 237
163 200 237
163 200 237
163 200 237
163 200 237
163 200 237
163 200 237
163 200 237
164 200 237
164 200 237
164 200 237
164 200 237
164 201 237
164 201 237
164 201 237
164 201 237
164 201 237
164 201 237
164 201 237
164 201 237
165 201 237
165 201 237
165 201 237
165 201 237
165 201 237
165 201 237
165 201 237
165 201 237
165 201 237
165 201 237
165 201 237
166 202 238
166 202 238
166 202 238
166 202 238
166 202 238
166 202 238
166 202 238
166 202 238
166 202 238
166 202 238
166 202 238
166 202 238
167 202 238
167 202 238
167 202 238
167 202 238
167 202 238
167 202 238
167 202 238
167 203 238
167 203 238
167 203 238
167 203 238
168 203 238
168 203 238
168 203 238
168 203 238
168 203 238
168 203 238
168 203 238
168 203 238
168 203 238
168 203 238
168 203 238
169 203 238
169 203 238
169 203 238
169 204 238
169 204 238
169 204 238
169 204 238
169 204 238
169 204 238
169 204 238
169 204 238
170 204 238
170 204 238
170 204 238
170 204 238
170 204 238
170 204 238
170 204 238
170 204 238
170 204 238
170 204 238
170 204 238
170 204 238
171 205 239
171 205 239
171 205 239
171 205 239
171 205 239
171 205 239
171 205 239
171 205 239
171 205 239
171 205 239
171 205 239
171 205 239
171 205 239
172 205 239
172 205 239
172 205 239
172 205 239
172 205 239
172 205 239
172 205 239
172 205 239
172 206 239
172 206 239
172 206 239
172 206 239
172 206 239
173 206 239
173 206 239
173 206 239
173 206 239
173 206 239
173 206 239
173 206 239
173 206 239
173 206 239
173 206 239
173 206 239
173 206 239
173 206 239
173 206 239
174 206 239
174 206 239
174 206 239
174 206 239
174 206 239
174 207 239
174 207 239
174 207 239
174 207 239
174 207 239
174 207 239
174 207 239
174 207 239
174 207 239
174 207 239
175 207 239
175 207 239
175 207 239
175 207 239
175 207 239
175 207 239
175 207 239
175 207 239
175 207 239
175 207 239
175 207 239
175 207 239
175 207 239
175 207 239
176 208 240
175 207 239
175 207 239
175 207 239
175 207 239
175 207 239
175 207 239
175 207 239
175 207 239
175 207 239
175 207 239
175 207 239
175 207 239
175 207 239
175 207 239
175 207 239
175 207 239
175 207 239
174 207 239
174 207 239
174 207 239
174 207 239
174 207 239
174 207 239
174 207 239
174 207 239
174 207 239
174 207 239
174 206 239
174 206 239
174 206 239
174 206 239
174 206 239
173 206 239
173 206 239
173 206 239
173 206 239
173 206 239
173 206 239
173 206 239
173 206 239
173 206 239
173 206 239
173 206 239
173 206 239
173 206 239
173 206 239
172 206 239
172 206 239
172 206 239
172 206 239
172 206 239
172 205 239
172 205 239
172 205 239
172 205 239
172 205 239
172 205 239
172 205 239
172 205 239
171 205 239
171 205 239
171 205 239
171 205 239
171 205 239
171 205 239
171 205 239
171 205 239
171 205 239
171 205 239
171 205 239
171 205 239
171 205 239
170 204 238
170 204 238
170 204 238
170 204 238
170 204 238
170 204 238
170 204 238
170 204 238
170 204 238
170 204 238
170 204 238
170 204 238
169 204 238
169 204 238
169 204 238
169 204 238
169 204 238
169 204 238
169 204 238
169 203 238
169 203 238
169 203 238
169 203 238
168 203 238
168 203 238
168 203 238
168 203 238
168 203 238
168 203 238
168 203 238
168 203 238
168 203 238
168 203 238
168 203 238
167 203 238
167 203 238
167 203 238
167 203 238
167 202 238
167 202 238
167 202 238
167 202 238
167 202 238
167 202 238
167 202 238
166 202 238
166 202 238
166 202 238
166 202 238
166 202 238
166 202 238
166 202 238
166 202 238
166 202 238
166 202 238
166 202 238
165 201 237
165 201 237
165 201 237
165 201 237
165 201 237
165 201 237
165 201 237
165 201 237
165 201 237
165 201 237
165 201 237
165 201 237
164 201 237
164 201 237
164 201 237
164 201 237
164 201 237
164 201 237
164 201 237
164 201 237
164 201 237
164 200 237
164 200 237
164 200 237
164 200 237
164 200 237
163 200 237
163 200 237
163 200 237
163 200 237
163 200 237
163 200 237
163 200 237
163 200 237
163 200 237
163 200 237
163 200 237
163 200 237
163 200 237
163 200 237
163 200 237
163 200 237
160 200 236
66 197 200
0 193 169
0 188 152
0 184 159
0 182 164
0 180 168
0 178 171
0 176 174
0 176 176
0 174 178
0 173 180
0 172 182
0 172 184
0 171 185
0 170 186
0 169 188
0 169 189
0 168 190
0 168 190
0 168 191
0 167 192
0 167 192
0 167 193
0 166 193
0 166 193
0 166 194
0 166 194
0 166 194
1 166 194
4 166 194
7 166 194
10 166 193
12 167 193
15 167 193
18 167 192
21 167 192
24 168 191
27 168 190
30 168 190
32 168 189
36 170 187
38 170 186
41 171 185
45 171 184
48 172 182
51 173 180
54 174 178
58 175 176
61 177 174
65 178 171
68 180 168
72 182 164
76 184 159
81 188 153
104 193 169
130 197 195
161 200 235
163 200 237
163 200 237
163 200 237
163 200 237
163 200 237
163 200 237
163 200 237
163 200 237
163 200 237
163 200 237
163 200 237
163 200 237
163 200 237
163 200 237
163 200 237
163 200 237
164 200 237
164 200 237
164 200 237
164 200 237
164 200 237
164 201 237
164 201 237
164 201 237
164 201 237
164 201 237
164 201 237
164 201 237
164 201 237
165 201 237
165 201 237
165 201 237
165 201 237
165 201 237
165 201 237
165 201 237
165 201 237
165 201 237
165 201 237
165 201 237
165 201 237
165 201 237
166 202 238
166 202 238
166 202 238
166 202 238
166 202 238
166 202 238
166 202 238
166 202 238
166 202 238
166 202 238
166 202 238
167 202 238
167 202 238
167 202 238
167 202 238
167 202 238
167 202 238
167 202 238
167 203 238
167 203 238
167 203 238
167 203 238
168 203 238
168 203 238
168 203 238
168 203 238
168 203 238
168 203 238
168 203 238
168 203 238
168 203 238
168 203 238
168 203 238
169 203 238
169 203 238
169 203 238
169 203 238
169 204 238
169 204 238
169 204 238
169 204 238
169 204 238
169 204 238
169 204 238
169 204 238
170 204 238
170 204 238
170 204 238
170 204 238
170 204 238
170 204 238
170 204 238
170 204 238
170 204 238
170 204 238
170 204 238
171 205 239
171 205 239
171 205 239
171 205 239
171 205 239
171 205 239
171 205 239
171 205 239
171 205 239
171 205 239
171 205 239
171 205 239
171 205 239
172 205 239
172 205 239
172 205 239
172 205 239
172 205 239
172 205 239
172 205 239
172 205 239
172 206 239
172 206 239
172 206 239
172 206 239
172 206 239
173 206 239
173 206 239
173 206 239
173 206 239
173 206 239
173 206 239
173 206 239
173 206 239
173 206 239
173 206 239
173 206 239
173 206 239
173 206 239
173 206 239
174 206 239
174 206 239
174 206 239
174 206 239
174 206 239
174 207 239
174 207 239
174 207 239
174 207 239
174 207 239
174 207 239
174 207 239
174 207 239
174 207 239
174 207 239
175 207 239
175 207 239
175 207 239
175 207 239
175 207 239
175 207 239
175 207 239
175 207 239
175 207 239
175 207 239
175 207 239
175 207 239
175 207 239
175 207 239
175 207 239
175 207 239
175 207 239
176 208 240
176 208 240
176 208 240
176 208 240
176 208 240
176 208 240
175 207 239
175 207 239
175 207 239
175 207 239
175 207 239
175 207 239
175 207 239
175 207 239
175 207 239
175 207 239
175 207 239
175 207 239
175 207 239
175 207 239
175 207 239
175 207 239
175 207 239
174 207 239
174 207 239
174 207 239
174 207 239
174 207 239
174 207 239
174 207 239
174 207 239
174 207 239
174 207 239
174 206 239
174 206 239
174 206 239
174 206 239
174 206 239
173 206 239
173 206 239
173 206 239
173 206 239
173 206 239
173 206 239
173 206 239
173 206 239
173 206 239
173 206 239
173 206 239
173 206 239
173 206 239
173 206 239
172 206 239
172 206 239
172 206 239
172 206 239
172 206 239
172 205 239
172 205 239
172 205 239
172 205 239
172 205 239
172 205 239
172 205 239
172 205 239
171 205 239
171 205 239
171 205 239
171 205 239
171 205 239
171 205 239
171 205 239
171 205 239
171 205 239
171 205 239
171 205 239
171 205 239
171 205 239
170 204 238
170 204 238
170 204 238
170 204 238
170 204 238
170 204 238
170 204 238
170 204 238
170 204 238
170 204 238
170 204 238
169 204 238
169 204 238
169 204 238
169 204 238
169 204 238
169 204 238
169 204 238
169 204 238
169 203 238
169 203 238
169 203 238
169 203 238
168 203 238
168 203 238
168 203 238
168 203 238
168 203 238
168 203 238
168 203 238
168 203 238
168 203 238
168 203 238
168 203 238
167 203 238
167 203 238
167 203 238
167 203 238
167 202 238
167 202 238
167 202 238
167 202 238
167 202 238
167 202 238
167 202 238
166 202 238
166 202 238
166 202 238
166 202 238
166 202 238
166 202 238
166 202 238
166 202 238
166 202 238
166 202 238
166 202 238
166 202 238
165 201 237
165 201 237
165 201 237
165 201 237
165 201 237
165 201 237
165 201 237
165 201 237
165 201 237
165 201 237
165 201 237
165 201 237
164 201 237
164 201 237
164 201 237
164 201 237
164 201 237
164 201 237
164 201 237
164 201 237
164 201 237
164 201 237
164 200 237
164 200 237
164 200 237
164 200 237
164 200 237
163 200 237
163 200 237
163 200 237
163 200 237
163 200 237
163 200 237
163 200 237
163 200 237
155 200 234
64 196 200
0 189 159
0 183 155
0 181 160
0 178 165
0 176 169
0 174 173
0 173 176
0 171 179
0 170 181
0 169 183
0 168 184
0 167 186
0 167 187
0 166 189
0 165 191
0 165 191
0 164 192
0 164 193
0 163 194
0 163 195
0 163 195
0 162 196
0 162 197
0 162 197
0 161 197
0 161 198
0 161 198
0 161 198
0 161 198
1 161 198
4 161 198
7 161 198
9 161 198
12 162 197
15 162 197
18 162 197
20 162 196
23 162 196
26 163 195
29 163 194
32 164 193
35 164 192
38 165 191
41 165 190
44 166 189
47 167 188
50 167 186
53 168 184
57 169 182
60 170 180
63 172 178
67 172 176
70 174 173
74 176 170
78 178 165
82 181 160
87 184 154
105 190 162
130 195 190
162 200 236
163 200 237
163 200 237
163 200 237
163 200 237
163 200 237
163 200 237
163 200 237
163 200 237
163 200 237
164 200 237
164 200 237
164 200 237
164 200 237
164 200 237
164 201 237
164 201 237
164 201 237
164 201 237
164 201 237
164 201 237
164 201 237
164 201 237
164 201 237
165 201 237
165 201 237
165 201 237
165 201 237
165 201 237
165 201 237
165 201 237
165 201 237
165 201 237
165 201 237
165 201 237
165 201 237
166 202 238
166 202 238
166 202 238
166 202 238
166 202 238
166 202 238
166 202 238
166 202 238
166 202 238
166 202 238
166 202 238
167 202 238
167 202 238
167 202 238
167 202 238
167 202 238
167 202 238
167 202 238
167 202 238
167 203 238
167 203 238
167 203 238
167 203 238
168 203 238
168 203 238
168 203 238
168 203 238
168 203 238
168 203 238
168 203 238
168 203 238
168 203 238
168 203 238
168 203 238
169 203 238
169 203 238
169 203 238
169 203 238
169 204 238
169 204 238
169 204 238
169 204 238
169 204 238
169 204 238
169 204 238
169 204 238
170 204 238
170 204 238
170 204 238
170 204 238
170 204 238
170 204 238
170 204 238
170 204 238
170 204 238
170 204 238
170 204 238
171 205 239
171 205 239
171 205 239
171 205 239
171 205 239
171 205 239
171 205 239
171 205 239
171 205 239
171 205 239
171 205 239
171 205 239
171 205 239
172 205 239
172 205 239
172 205 239
172 205 239
172 205 239
172 205 239
172 205 239
172 205 239
172 205 239
172 206 239
172 206 239
172 206 239
172 206 239
173 206 239
173 206 239
173 206 239
173 206 239
173 206 239
173 206 239
173 206 239
173 206 239
173 206 239
173 206 239
173 206 239
173 206 239
173 206 239
173 206 239
174 206 239
174 206 239
174 206 239
174 206 239
174 206 239
174 207 239
174 207 239
174 207 239
174 207 239
174 207 239
174 207 239
174 207 239
174 207 239
174 207 239
174 207 239
175 207 239
175 207 239
175 207 239
175 207 239
175 207 239
175 207 239
175 207 239
175 207 239
175 207 239
175 207 239
175 207 239
175 207 239
175 207 239
175 207 239
175 207 239
175 207 239
176 208 240
176 208 240
176 208 240
176 208 240
176 208 240
176 208 240
176 208 240
176 208 240
176 208 240
176 208 240
176 208 240
176 208 240
176 208 240
176 208 240
176 208 240
176 208 240
175 207 239
175 207 239
175 207 239
175 207 239
175 207 239
175 207 239
175 207 239
175 207 239
175 207 239
175 207 239
175 207 239
175 207 239
175 207 239
175 207 239
175 207 239
175 207 239
174 207 239
174 207 239
174 207 239
174 207 239
174 207 239
174 207 239
174 207 239
174 207 239
174 207 239
174 207 239
174 206 239
174 206 239
174 206 239
174 206 239
174 206 239
173 206 239
173 206 239
173 206 239
173 206 239
173 206 239
173 206 239
173 206 239
173 206 239
173 206 239
173 206 239
173 206 239
173 206 239
173 206 239
173 206 239
172 206 239
172 206 239
172 206 239
172 206 239
172 206 239
172 205 239
172 205 239
172 205 239
172 205 239
172 205 239
172 205 239
172 205 239
172 205 239
171 205 239
171 205 239
171 205 239
171 205 239
171 205 239
171 205 239
171 205 239
171 205 239
171 205 239
171 205 239
171 205 239
171 205 239
170 204 238
170 204 238
170 204 238
170 204 238
170 204 238
170 204 238
170 204 238
170 204 238
170 204 238
170 204 238
170 204 238
170 204 238
169 204 238
169 204 238
169 204 238
169 204 238
169 204 238
169 204 238
169 204 238
169 204 238
169 203 238
169 203 238
169 203 238
169 203 238
168 203 238
168 203 238
168 203 238
168 203 238
168 203 238
168 203 238
168 203 238
168 203 238
168 203 238
168 203 238
168 203 238
167 203 238
167 203 238
167 203 238
167 203 238
167 202 238
167 202 238
167 202 238
167 202 238
167 202 238
167 202 238
167 202 238
167 202 238
166 202 238
166 202 238
166 202 238
166 202 238
166 202 238
166 202 238
166 202 238
166 202 238
166 202 238
166 202 238
166 202 238
166 202 238
165 201 237
165 201 237
165 201 237
165 201 237
165 201 237
165 201 237
165 201 237
165 201 237
165 201 237
165 201 237
165 201 237
165 201 237
165 201 237
164 201 237
164 201 237
164 201 237
164 201 237
164 201 237
164 201 237
164 201 237
164 201 237
164 201 237
164 200 237
164 200 237
164 200 237
164 200 237
164 200 237
164 200 237
163 200 237
94 197 212
0 186 164
0 180 155
0 177 161
0 174 167
0 172 170
0 171 174
0 169 177
0 168 180
0 166 182
0 165 184
0 164 186
0 164 188
0 162 190
0 162 191
0 161 192
0 161 194
0 160 195
0 160 196
0 159 196
0 159 197
0 158 198
0 158 199
0 158 199
0 157 200
0 157 200
0 157 201
0 157 201
0 157 201
0 156 202
0 157 201
0 156 202
1 157 202
3 156 202
6 157 201
9 157 201
12 157 201
15 157 201
17 157 200
20 157 200
23 158 199
26 158 199
29 158 198
31 159 197
34 159 197
37 159 196
40 160 195
43 161 193
46 161 192
49 162 191
52 163 190
55 163 188
59 164 186
62 165 184
65 166 182
69 168 180
72 169 177
76 170 174
80 172 171
84 175 166
88 177 161
93 180 154
108 187 158
149 197 214
163 200 237
164 200 237
164 200 237
164 200 237
164 200 237
164 200 237
164 201 237
164 201 237
164 201 237
164 201 237
164 201 237
164 201 237
164 201 237
164 201 237
164 201 237
164 201 237
165 201 237
165 201 237
165 201 237
165 201 237
165 201 237
165 201 237
165 201 237
165 201 237
165 201 237
165 201 237
165 201 237
165 201 237
165 201 237
165 201 237
166 202 238
166 202 238
166 202 238
166 202 238
166 202 238
166 202 238
166 202 238
166 202 238
166 202 238
166 202 238
166 202 238
167 202 238
167 202 238
167 202 238
167 202 238
167 202 238
167 202 238
167 202 238
167 202 238
167 203 238
167 203 238
167 203 238
167 203 238
168 203 238
168 203 238
168 203 238
168 203 238
168 203 238
168 203 238
168 203 238
168 203 238
168 203 238
168 203 238
168 203 238
169 203 238
169 203 238
169 203 238
169 203 238
169 204 238
169 204 238
169 204 238
169 204 238
169 204 238
169 204 238
169 204 238
169 204 238
170 204 238
170 204 238
170 204 238
170 204 238
170 204 238
170 204 238
170 204 238
170 204 238
170 204 238
170 204 238
170 204 238
170 204 238
171 205 239
171 205 239
171 205 239
171 205 239
171 205 239
171 205 239
171 205 239
171 205 239
171 205 239
171 205 239
171 205 239
171 205 239
172 205 239
172 205 239
172 205 239
172 205 239
172 205 239
172 205 239
172 205 239
172 205 239
172 206 239
172 206 239
172 206 239
172 206 239
172 206 239
173 206 239
173 206 239
173 206 239
173 206 239
173 206 239
173 206 239
173 206 239
173 206 239
173 206 239
173 206 239
173 206 239
173 206 239
173 206 239
173 206 239
174 206 239
174 206 239
174 206 239
174 206 239
174 207 239
174 207 239
174 207 239
174 207 239
174 207 239
174 207 239
174 207 239
174 207 239
174 207 239
174 207 239
175 207 239
175 207 239
175 207 239
175 207 239
175 207 239
175 207 239
175 207 239
175 207 239
175 207 239
175 207 239
175 207 239
175 207 239
175 207 239
175 207 239
175 207 239
175 207 239
175 207 239
176 208 240
176 208 240
176 208 240
176 208 240
176 208 240
176 208 240
176 208 240
176 208 240
176 208 240
176 208 240
176 208 240
176 208 240
176 208 240
176 208 240
176 208 240
176 208 240
176 208 240
176 208 240
176 208 240
176 208 240
176 208 240
176 208 240
176 208 240
176 208 240
175 207 239
175 207 239
175 207 239
175 207 239
175 207 239
175 207 239
175 207 239
175 207 239
175 207 239
175 207 239
175 207 239
175 207 239
175 207 239
175 207 239
175 207 239
175 207 239
175 207 239
174 207 239
174 207 239
174 207 239
174 207 239
174 207 239
174 207 239
174 207 239
174 207 239
174 207 239
174 207 239
174 206 239
174 206 239
174 206 239
174 206 239
174 206 239
173 206 239
173 206 239
173 206 239
173 206 239
173 206 239
173 206 239
173 206 239
173 206 239
173 206 239
173 206 239
173 206 239
173 206 239
173 206 239
172 206 239
172 206 239
172 206 239
172 206 239
172 205 239
172 205 239
172 205 239
172 205 239
172 205 239
172 205 239
172 205 239
172 205 239
172 205 239
171 205 239
171 205 239
171 205 239
171 205 239
171 205 239
171 205 239
171 205 239
171 205 239
171 205 239
171 205 239
171 205 239
171 205 239
170 204 238
170 204 238
170 204 238
170 204 238
170 204 238
170 204 238
170 204 238
170 204 238
170 204 238
170 204 238
170 204 238
170 204 238
169 204 238
169 204 238
169 204 238
169 204 238
169 204 238
169 204 238
169 204 238
169 204 238
169 203 238
169 203 238
169 203 238
169 203 238
168 203 238
168 203 238
168 203 238
168 203 238
168 203 238
168 203 238
168 203 238
168 203 238
168 203 238
168 203 238
168 203 238
167 203 238
167 203 238
167 203 238
167 203 238
167 202 238
167 202 238
167 202 238
167 202 238
167 202 238
167 202 238
167 202 238
167 202 238
166 202 238
166 202 238
166 202 238
166 202 238
166 202 238
166 202 238
166 202 238
166 202 238
166 202 238
166 202 238
166 202 238
166 202 238
165 201 237
165 201 237
165 201 237
165 201 237
165 201 237
165 201 237
165 201 237
165 201 237
165 201 237
165 201 237
165 201 237
165 201 237
165 201 237
165 201 237
164 201 237
164 201 237
164 201 237
164 201 237
164 201 237
164 201 237
164 201 237
164 201 237
164 201 237
120 198 221
0 186 167
0 178 153
0 174 161
0 172 165
0 169 170
0 168 174
0 166 178
0 164 181
0 163 183
0 162 185
0 161 187
0 160 189
0 159 191
0 158 193
0 158 194
0 157 195
0 156 196
0 156 198
0 155 199
0 155 199
0 154 200
0 154 201
0 154 202
0 153 203
0 153 203
0 153 203
0 153 204
0 153 204
0 152 204
0 152 205
0 152 205
0 152 205
0 152 205
1 152 205
4 152 205
6 152 205
9 153 205
12 152 205
15 152 204
17 152 204
20 153 203
23 153 203
26 153 202
28 154 202
31 154 201
34 154 201
37 155 199
40 155 199
43 156 198
46 156 197
49 157 195
52 158 194
55 158 193
58 159 191
61 160 189
64 161 187
68 162 185
71 163 183
75 164 181
78 166 178
82 167 174
86 170 170
90 171 166
95 174 161
100 178 153
125 188 176
156 198 223
164 201 237
164 201 237
164 201 237
164 201 237
164 201 237
164 201 237
164 201 237
164 201 237
164 201 237
165 201 237
165 201 237
165 201 237
165 201 237
165 201 237
165 201 237
165 201 237
165 201 237
165 201 237
165 201 237
165 201 237
165 201 237
165 201 237
165 201 237
166 202 238
166 202 238
166 202 238
166 202 238
166 202 238
166 202 238
166 202 238
166 202 238
166 202 238
166 202 238
166 202 238
166 202 238
167 202 238
167 202 238
167 202 238
167 202 238
167 202 238
167 202 238
167 202 238
167 202 238
167 203 238
167 203 238
167 203 238
167 203 238
168 203 238
168 203 238
168 203 238
168 203 238
168 203 238
168 203 238
168 203 238
168 203 238
168 203 238
168 203 238
168 203 238
169 203 238
169 203 238
169 203 238
169 203 238
169 204 238
169 204 238
169 204 238
169 204 238
169 204 238
169 204 238
169 204 238
169 204 238
170 204 238
170 204 238
170 204 238
170 204 238
170 204 238
170 204 238
170 204 238
170 204 238
170 204 238
170 204 238
170 204 238
171 205 239
171 205 239
171 205 239
171 205 239
171 205 239
171 205 239
171 205 239
171 205 239
171 205 239
171 205 239
171 205 239
171 205 239
171 205 239
172 205 239
172 205 239
172 205 239
172 205 239
172 205 239
172 205 239
172 205 239
172 205 239
172 206 239
172 206 239
172 206 239
172 206 239
172 206 239
173 206 239
173 206 239
173 206 239
173 206 239
173 206 239
173 206 239
173 206 239
173 206 239
173 206 239
173 206 239
173 206 239
173 206 239
173 206 239
173 206 239
174 206 239
174 206 239
174 206 239
174 206 239
174 207 239
174 207 239
174 207 239
174 207 239
174 207 239
174 207 239
174 207 239
174 207 239
174 207 239
174 207 239
175 207 239
175 207 239
175 207 239
175 207 239
175 207 239
175 207 239
175 207 239
175 207 239
175 207 239
175 207 239
175 207 239
175 207 239
175 207 239
175 207 239
175 207 239
175 207 239
175 207 239
176 208 240
176 208 240
176 208 240
176 208 240
176 208 240
176 208 240
176 208 240
176 208 240
176 208 240
176 208 240
176 208 240
176 208 240
176 208 240
176 208 240
177 208 240
177 208 240
176 208 240
176 208 240
176 208 240
176 208 240
176 208 240
176 208 240
176 208 240
176 208 240
176 208 240
176 208 240
176 208 240
176 208 240
176 208 240
176 208 240
176 208 240
176 208 240
176 208 240
175 207 239
175 207 239
175 207 239
175 207 239
175 207 239
175 207 239
175 207 239
175 207 239
175 207 239
175 207 239
175 207 239
175 207 239
175 207 239
175 207 239
175 207 239
175 207 239
174 207 239
174 207 239
174 207 239
174 207 239
174 207 239
174 207 239
174 207 239
174 207 239
174 207 239
174 207 239
174 206 239
174 206 239
174 206 239
174 206 239
174 206 239
173 206 239
173 206 239
173 206 239
173 206 239
173 206 239
173 206 239
173 206 239
173 206 239
173 206 239
173 206 239
173 206 239
173 206 239
173 206 239
173 206 239
172 206 239
172 206 239
172 206 239
172 206 239
172 205 239
172 205 239
172 205 239
172 205 239
172 205 239
172 205 239
172 205 239
172 205 239
171 205 239
171 205 239
171 205 239
171 205 239
171 205 239
171 205 239
171 205 239
171 205 239
171 205 239
171 205 239
171 205 239
171 205 239
170 204 238
170 204 238
170 204 238
170 204 238
170 204 238
170 204 238
170 204 238
170 204 238
170 204 238
170 204 238
170 204 238
170 204 238
169 204 238
169 204 238
169 204 238
169 204 238
169 204 238
169 204 238
169 204 238
169 204 238
169 203 238
169 203 238
169 203 238
169 203 238
168 203 238
168 203 238
168 203 238
168 203 238
168 203 238
168 203 238
168 203 238
168 203 238
168 203 238
168 203 238
168 203 238
168 203 238
167 203 238
167 203 238
167 203 238
167 203 238
167 202 238
167 202 238
167 202 238
167 202 238
167 202 238
167 202 238
167 202 238
167 202 238
166 202 238
166 202 238
166 202 238
166 202 238
166 202 238
166 202 238
166 202 238
166 202 238
166 202 238
166 202 238
166 202 238
166 202 238
166 202 238
165 201 237
165 201 237
165 201 237
165 201 237
165 201 237
165 201 237
165 201 237
165 201 237
165 201 237
165 201 237
165 201 237
165 201 237
165 201 237
165 201 237
165 201 237
150 200 232
12 189 185
0 177 152
0 172 159
0 169 165
0 166 170
0 165 174
0 163 178
0 161 181
0 160 183
0 159 186
0 158 188
0 156 190
0 156 192
0 155 194
0 154 195
0 153 197
0 153 198
0 152 199
0 152 200
0 151 201
0 151 202
0 150 203
0 150 204
0 149 205
0 149 205
0 149 206
0 149 206
0 148 207
0 149 207
0 148 207
0 148 208
0 148 208
0 148 208
0 148 208
0 148 208
1 148 208
4 148 208
6 148 208
9 148 208
12 148 207
14 148 207
17 148 207
20 149 207
23 149 206
25 149 206
28 149 205
31 150 205
34 150 204
36 150 203
39 151 202
42 151 201
45 152 200
48 152 199
51 153 198
54 153 197
57 154 195
60 155 193
63 155 192
67 157 190
70 158 188
74 159 186
77 160 184
81 162 180
84 163 177
88 165 174
92 166 170
96 169 165
101 172 159
108 176 153
135 189 186
161 200 230
165 201 237
165 201 237
165 201 237
165 201 237
165 201 237
165 201 237
165 201 237
165 201 237
165 201 237
165 201 237
165 201 237
165 201 237
165 201 237
165 201 237
165 201 237
166 202 238
166 202 238
166 202 238
166 202 238
166 202 238
166 202 238
166 202 238
166 202 238
166 202 238
166 202 238
166 202 238
166 202 238
166 202 238
167 202 238
167 202 238
167 202 238
167 202 238
167 202 238
167 202 238
167 202 238
167 202 238
167 203 238
167 203 238
167 203 238
167 203 238
168 203 238
168 203 238
168 203 238
168 203 238
168 203 238
168 203 238
168 203 238
168 203 238
168 203 238
168 203 238
168 203 238
168 203 238
169 203 238
169 203 238
169 203 238
169 203 238
169 204 238
169 204 238
169 204 238
169 204 238
169 204 238
169 204 238
169 204 238
169 204 238
170 204 238
170 204 238
170 204 238
170 204 238
170 204 238
170 204 238
170 204 238
170 204 238
170 204 238
170 204 238
170 204 238
171 205 239
171 205 239
171 205 239
171 205 239
171 205 239
171 205 239
171 205 239
171 205 239
171 205 239
171 205 239
171 205 239
171 205 239
171 205 239
172 205 239
172 205 239
172 205 239
172 205 239
172 205 239
172 205 239
172 205 239
172 205 239
172 206 239
172 206 239
172 206 239
172 206 239
173 206 239
173 206 239
173 206 239
173 206 239
173 206 239
173 206 239
173 206 239
173 206 239
173 206 239
173 206 239
173 206 239
173 206 239
173 206 239
173 206 239
174 206 239
174 206 239
174 206 239
174 206 239
174 206 239
174 207 239
174 207 239
174 207 239
174 207 239
174 207 239
174 207 239
174 207 239
174 207 239
174 207 239
174 207 239
175 207 239
175 207 239
175 207 239
175 207 239
175 207 239
175 207 239
175 207 239
175 207 239
175 207 239
175 207 239
175 207 239
175 207 239
175 207 239
175 207 239
175 207 239
175 207 239
176 208 240
176 208 240
176 208 240
176 208 240
176 208 240
176 208 240
176 208 240
176 208 240
176 208 240
176 208 240
176 208 240
176 208 240
176 208 240
176 208 240
176 208 240
176 208 240
176 208 240
176 208 240
177 208 240
177 208 240
177 208 240
177 208 240
177 208 240
177 208 240
177 208 240
176 208 240
176 208 240
176 208 240
176 208 240
176 208 240
176 208 240
176 208 240
176 208 240
176 208 240
176 208 240
176 208 240
176 208 240
176 208 240
176 208 240
176 208 240
176 208 240
176 208 240
176 208 240
175 207 239
175 207 239
175 207 239
175 207 239
175 207 239
175 207 239
175 207 239
175 207 239
175 207 239
175 207 239
175 207 239
175 207 239
175 207 239
175 207 239
175 207 239
174 207 239
174 207 239
174 207 239
174 207 239
174 207 239
174 207 239
174 207 239
174 207 239
174 207 239
174 207 239
174 206 239
174 206 239
174 206 239
174 206 239
174 206 239
173 206 239
173 206 239
173 206 239
173 206 239
173 206 239
173 206 239
173 206 239
173 206 239
173 206 239
173 206 239
173 206 239
173 206 239
173 206 239
173 206 239
172 206 239
172 206 239
172 206 239
172 206 239
172 205 239
172 205 239
172 205 239
172 205 239
172 205 239
172 205 239
172 205 239
172 205 239
171 205 239
171 205 239
171 205 239
171 205 239
171 205 239
171 205 239
171 205 239
171 205 239
171 205 239
171 205 239
171 205 239
171 205 239
171 205 239
170 204 238
170 204 238
170 204 238
170 204 238
170 204 238
170 204 238
170 204 238
170 204 238
170 204 238
170 204 238
170 204 238
170 204 238
169 204 238
169 204 238
169 204 238
169 204 238
169 204 238
169 204 238
169 204 238
169 204 238
169 203 238
169 203 238
169 203 238
168 203 238
168 203 238
168 203 238
168 203 238
168 203 238
168 203 238
168 203 238
168 203 238
168 203 238
168 203 238
168 203 238
168 203 238
167 203 238
167 203 238
167 203 238
167 203 238
167 202 238
167 202 238
167 202 238
167 202 238
167 202 238
167 202 238
167 202 238
167 202 238
167 202 238
166 202 238
166 202 238
166 202 238
166 202 238
166 202 238
166 202 238
166 202 238
166 202 238
166 202 238
166 202 238
166 202 238
166 202 238
166 202 238
165 201 237
165 201 237
165 201 237
165 201 237
165 201 237
165 201 237
165 201 237
165 201 237
165 201 237
88 195 211
0 179 163
0 170 157
0 167 163
0 164 169
0 162 173
0 160 177
0 159 180
0 157 183
0 156 186
0 155 188
0 154 190
0 152 193
0 152 194
0 151 196
0 150 197
0 149 199
0 149 200
0 148 201
0 148 203
0 147 204
0 147 205
0 147 205
0 146 206
0 146 207
0 145 208
0 145 208
0 145 209
0 145 209
0 144 210
0 144 210
0 144 210
0 144 211
0 144 211
0 144 211
0 144 211
0 144 211
1 144 211
3 144 211
6 144 211
9 144 211
11 144 210
14 144 210
17 144 210
20 145 209
22 145 209
25 145 209
28 145 208
31 146 207
33 146 207
36 146 206
39 146 205
42 147 205
45 147 204
47 148 203
50 148 201
53 149 200
56 149 199
59 150 198
63 151 196
66 152 194
69 153 193
72 154 190
76 155 188
79 155 186
83 157 183
86 159 180
90 160 177
94 162 173
98 164 169
103 166 164
109 170 156
127 181 168
151 194 207
165 201 237
165 201 237
165 201 237
165 201 237
165 201 237
165 201 237
165 201 237
165 201 237
165 201 237
166 202 238
166 202 238
166 202 238
166 202 238
166 202 238
166 202 238
166 202 238
166 202 238
166 202 238
166 202 238
166 202 238
166 202 238
166 202 238
167 202 238
167 202 238
167 202 238
167 202 238
167 202 238
167 202 238
167 202 238
167 202 238
167 202 238
167 203 238
167 203 238
167 203 238
167 203 238
168 203 238
168 203 238
168 203 238
168 203 238
168 203 238
168 203 238
168 203 238
168 203 238
168 203 238
168 203 238
168 203 238
168 203 238
169 203 238
169 203 238
169 203 238
169 203 238
169 204 238
169 204 238
169 204 238
169 204 238
169 204 238
169 204 238
169 204 238
169 204 238
170 204 238
170 204 238
170 204 238
170 204 238
170 204 238
170 204 238
170 204 238
170 204 238
170 204 238
170 204 238
170 204 238
171 205 239
171 205 239
171 205 239
171 205 239
171 205 239
171 205 239
171 205 239
171 205 239
171 205 239
171 205 239
171 205 239
171 205 239
172 205 239
172 205 239
172 205 239
172 205 239
172 205 239
172 205 239
172 205 239
172 205 239
172 205 239
172 206 239
172 206 239
172 206 239
172 206 239
173 206 239
173 206 239
173 206 239
173 206 239
173 206 239
173 206 239
173 206 239
173 206 239
173 206 239
173 206 239
173 206 239
173 206 239
173 206 239
173 206 239
174 206 239
174 206 239
174 206 239
174 206 239
174 206 239
174 207 239
174 207 239
174 207 239
174 207 239
174 207 239
174 207 239
174 207 239
174 207 239
174 207 239
175 207 239
175 207 239
175 207 239
175 207 239
175 207 239
175 207 239
175 207 239
175 207 239
175 207 239
175 207 239
175 207 239
175 207 239
175 207 239
175 207 239
175 207 239
175 207 239
176 208 240
176 208 240
176 208 240
176 208 240
176 208 240
176 208 240
176 208 240
176 208 240
176 208 240
176 208 240
176 208 240
176 208 240
176 208 240
176 208 240
176 208 240
176 208 240
176 208 240
176 208 240
177 208 240
177 208 240
177 208 240
177 208 240
177 208 240
177 208 240
177 208 240
177 208 240
177 208 240
177 208 240
177 208 240
177 208 240
177 208 240
177 208 240
177 208 240
177 208 240
177 208 240
176 208 240
176 208 240
176 208 240
176 208 240
176 208 240
176 208 240
176 208 240
176 208 240
176 208 240
176 208 240
176 208 240
176 208 240
176 208 240
176 208 240
176 208 240
176 208 240
176 208 240
175 207 239
175 207 239
175 207 239
175 207 239
175 207 239
175 207 239
175 207 239
175 207 239
175 207 239
175 207 239
175 207 239
175 207 239
175 207 239
175 207 239
175 207 239
175 207 239
174 207 239
174 207 239
174 207 239
174 207 239
174 207 239
174 207 239
174 207 239
174 207 239
174 207 239
174 207 239
174 206 239
174 206 239
174 206 239
174 206 239
173 206 239
173 206 239
173 206 239
173 206 239
173 206 239
173 206 239
173 206 239
173 206 239
173 206 239
173 206 239
173 206 239
173 206 239
173 206 239
173 206 239
172 206 239
172 206 239
172 206 239
172 206 239
172 205 239
172 205 239
172 205 239
172 205 239
172 205 239
172 205 239
172 205 239
172 205 239
172 205 239
171 205 239
171 205 239
171 205 239
171 205 239
171 205 239
171 205 239
171 205 239
171 205 239
171 205 239
171 205 239
171 205 239
171 205 239
170 204 238
170 204 238
170 204 238
170 204 238
170 204 238
170 204 238
170 204 238
170 204 238
170 204 238
170 204 238
170 204 238
170 204 238
169 204 238
169 204 238
169 204 238
169 204 238
169 204 238
169 204 238
169 204 238
169 204 238
169 203 238
169 203 238
169 203 238
169 203 238
168 203 238
168 203 238
168 203 238
168 203 238
168 203 238
168 203 238
168 203 238
168 203 238
168 203 238
168 203 238
168 203 238
168 203 238
167 203 238
167 203 238
167 203 238
167 203 238
167 202 238
167 202 238
167 202 238
167 202 238
167 202 238
167 202 238
167 202 238
167 202 238
167 202 238
166 202 238
166 202 238
166 202 238
166 202 238
166 202 238
166 202 238
166 202 238
166 202 238
166 202 238
166 202 238
166 202 238
166 202 238
166 202 238
166 202 238
165 201 237
160 201 235
12 186 187
0 169 153
0 165 161
0 162 166
0 160 171
0 158 176
0 156 180
0 154 183
0 153 186
0 152 188
0 151 191
0 150 193
0 149 195
0 148 196
0 147 198
0 147 200
0 146 201
0 145 202
0 145 203
0 144 204
0 144 205
0 143 207
0 143 208
0 142 208
0 142 209
0 142 210
0 141 210
0 141 211
0 141 211
0 141 212
0 140 212
0 140 213
0 140 213
0 140 213
0 140 213
0 140 214
0 140 214
0 140 214
1 140 214
3 140 214
6 140 214
9 140 213
12 140 213
14 140 213
17 140 213
19 141 212
22 141 212
25 141 211
28 141 211
30 141 210
33 142 210
36 142 209
39 142 208
41 143 207
44 143 207
47 143 206
50 144 205
53 144 204
56 145 202
59 146 201
62 146 200
65 147 198
68 148 196
71 149 194
74 150 193
78 150 191
81 152 188
85 153 186
89 155 183
93 156 179
96 158 176
101 160 172
105 162 167
110 165 161
116 169 151
142 186 187
164 201 234
165 201 237
166 202 238
166 202 238
166 202 238
166 202 238
166 202 238
166 202 238
166 202 238
166 202 238
166 202 238
166 202 238
166 202 238
166 202 238
166 202 238
166 202 238
167 202 238
167 202 238
167 202 238
167 202 238
167 202 238
167 202 238
167 202 238
167 202 238
167 202 238
167 203 238
167 203 238
167 203 238
167 203 238
168 203 238
168 203 238
168 203 238
168 203 238
168 203 238
168 203 238
168 203 238
168 203 238
168 203 238
168 203 238
168 203 238
168 203 238
169 203 238
169 203 238
169 203 238
169 203 238
169 204 238
169 204 238
169 204 238
169 204 238
169 204 238
169 204 238
169 204 238
169 204 238
170 204 238
170 204 238
170 204 238
170 204 238
170 204 238
170 204 238
170 204 238
170 204 238
170 204 238
170 204 238
170 204 238
170 204 238
171 205 239
171 205 239
171 205 239
171 205 239
171 205 239
171 205 239
171 205 239
171 205 239
171 205 239
171 205 239
171 205 239
171 205 239
172 205 239
172 205 239
172 205 239
172 205 239
172 205 239
172 205 239
172 205 239
172 205 239
172 205 239
172 206 239
172 206 239
172 206 239
172 206 239
173 206 239
173 206 239
173 206 239
173 206 239
173 206 239
173 206 239
173 206 239
173 206 239
173 206 239
173 206 239
173 206 239
173 206 239
173 206 239
173 206 239
174 206 239
174 206 239
174 206 239
174 206 239
174 207 239
174 207 239
174 207 239
174 207 239
174 207 239
174 207 239
174 207 239
174 207 239
174 207 239
174 207 239
175 207 239
175 207 239
175 207 239
175 207 239
175 207 239
175 207 239
175 207 239
175 207 239
175 207 239
175 207 239
175 207 239
175 207 239
175 207 239
175 207 239
175 207 239
175 207 239
176 208 240
176 208 240
176 208 240
176 208 240
176 208 240
176 208 240
176 208 240
176 208 240
176 208 240
176 208 240
176 208 240
176 208 240
176 208 240
176 208 240
176 208 240
176 208 240
176 208 240
177 208 240
177 208 240
177 208 240
177 208 240
177 208 240
177 208 240
177 208 240
177 208 240
177 208 240
177 208 240
177 208 240
177 209 240
177 209 240
177 209 240
177 209 240
177 208 240
177 208 240
177 208 240
177 208 240
177 208 240
177 208 240
177 208 240
177 208 240
177 208 240
177 208 240
177 208 240
177 208 240
176 208 240
176 208 240
176 208 240
176 208 240
176 208 240
176 208 240
176 208 240
176 208 240
176 208 240
176 208 240
176 208 240
176 208 240
176 208 240
176 208 240
176 208 240
176 208 240
176 208 240
175 207 239
175 207 239
175 207 239
175 207 239
175 207 239
175 207 239
175 207 239
175 207 239
175 207 239
175 207 239
175 207 239
175 207 239
175 207 239
175 207 239
175 207 239
175 207 239
174 207 239
174 207 239
174 207 239
174 207 239
174 207 239
174 207 239
174 207 239
174 207 239
174 207 239
174 206 239
174 206 239
174 206 239
174 206 239
174 206 239
173 206 239
173 206 239
173 206 239
173 206 239
173 206 239
173 206 239
173 206 239
173 206 239
173 206 239
173 206 239
173 206 239
173 206 239
173 206 239
172 206 239
172 206 239
172 206 239
172 206 239
172 205 239
172 205 239
172 205 239
172 205 239
172 205 239
172 205 239
172 205 239
172 205 239
172 205 239
171 205 239
171 205 239
171 205 239
171 205 239
171 205 239
171 205 239
171 205 239
171 205 239
171 205 239
171 205 239
171 205 239
171 205 239
170 204 238
170 204 238
170 204 238
170 204 238
170 204 238
170 204 238
170 204 238
170 204 238
170 204 238
170 204 238
170 204 238
170 204 238
169 204 238
169 204 238
169 204 238
169 204 238
169 204 238
169 204 238
169 204 238
169 204 238
169 203 238
169 203 238
169 203 238
169 203 238
168 203 238
168 203 238
168 203 238
168 203 238
168 203 238
168 203 238
168 203 238
168 203 238
168 203 238
168 203 238
168 203 238
168 203 238
168 203 238
167 203 238
167 203 238
167 203 238
167 203 238
167 202 238
167 202 238
167 202 238
167 202 238
167 202 238
167 202 238
167 202 238
167 202 238
167 202 238
166 202 238
166 202 238
166 202 238
166 202 238
166 202 238
166 202 238
166 202 238
166 202 238
166 202 238
127 198 224
0 175 162
0 164 155
0 160 163
0 158 169
0 155 174
0 154 178
0 152 182
0 151 185
0 149 188
0 148 191
0 147 192
0 146 194
0 145 196
0 144 198
0 143 200
0 143 201
0 142 203
0 141 204
0 141 206
0 141 206
0 140 208
0 140 209
0 139 210
0 139 210
0 138 211
0 138 212
0 138 212
0 138 213
0 137 214
0 137 214
0 137 215
0 137 215
0 137 215
0 136 215
0 136 216
0 136 216
0 136 216
0 136 216
0 136 216
1 136 216
4 136 216
6 136 216
9 136 216
11 136 215
14 136 215
17 137 215
19 137 215
22 137 214
25 137 214
27 137 213
30 137 213
33 138 212
35 138 212
38 138 211
41 139 210
44 139 210
47 140 209
49 140 208
52 140 207
55 141 205
58 141 204
61 142 203
64 143 202
67 143 200
71 144 198
74 145 197
77 146 195
80 147 192
84 148 190
87 149 188
91 150 185
95 152 182
99 153 178
103 155 174
108 158 169
113 160 164
118 164 155
135 176 169
161 198 223
166 202 238
166 202 238
166 202 238
166 202 238
166 202 238
166 202 238
166 202 238
166 202 238
166 202 238
167 202 238
167 202 238
167 202 238
167 202 238
167 202 238
167 202 238
167 202 238
167 202 238
167 202 238
167 203 238
167 203 238
167 203 238
167 203 238
168 203 238
168 203 238
168 203 238
168 203 238
168 203 238
168 203 238
168 203 238
168 203 238
168 203 238
168 203 238
168 203 238
168 203 238
168 203 238
169 203 238
169 203 238
169 203 238
169 203 238
169 204 238
169 204 238
169 204 238
169 204 238
169 204 238
169 204 238
169 204 238
169 204 238
170 204 238
170 204 238
170 204 238
170 204 238
170 204 238
170 204 238
170 204 238
170 204 238
170 204 238
170 204 238
170 204 238
170 204 238
171 205 239
171 205 239
171 205 239
171 205 239
171 205 239
171 205 239
171 205 239
171 205 239
171 205 239
171 205 239
171 205 239
171 205 239
172 205 239
172 205 239
172 205 239
172 205 239
172 205 239
172 205 239
172 205 239
172 205 239
172 205 239
172 206 239
172 206 239
172 206 239
172 206 239
173 206 239
173 206 239
173 206 239
173 206 239
173 206 239
173 206 239
173 206 239
173 206 239
173 206 239
173 206 239
173 206 239
173 206 239
173 206 239
174 206 239
174 206 239
174 206 239
174 206 239
174 206 239
174 207 239
174 207 239
174 207 239
174 207 239
174 207 239
174 207 239
174 207 239
174 207 239
174 207 239
174 207 239
175 207 239
175 207 239
175 207 239
175 207 239
175 207 239
175 207 239
175 207 239
175 207 239
175 207 239
175 207 239
175 207 239
175 207 239
175 207 239
175 207 239
175 207 239
176 208 240
176 208 240
176 208 240
176 208 240
176 208 240
176 208 240
176 208 240
176 208 240
176 208 240
176 208 240
176 208 240
176 208 240
176 208 240
176 208 240
176 208 240
176 208 240
176 208 240
177 208 240
177 208 240
177 208 240
177 208 240
177 208 240
177 208 240
177 208 240
177 208 240
177 208 240
177 208 240
177 208 240
177 208 240
177 209 240
177 209 240
177 209 240
177 209 240
178 209 240
178 209 240
177 209 240
177 209 240
177 209 240
177 209 240
177 209 240
177 209 240
177 209 240
177 208 240
177 208 240
177 208 240
177 208 240
177 208 240
177 208 240
177 208 240
177 208 240
177 208 240
177 208 240
177 208 240
177 208 240
176 208 240
176 208 240
176 208 240
176 208 240
176 208 240
176 208 240
176 208 240
176 208 240
176 208 240
176 208 240
176 208 240
176 208 240
176 208 240
176 208 240
176 208 240
176 208 240
176 208 240
175 207 239
175 207 239
175 207 239
175 207 239
175 207 239
175 207 239
175 207 239
175 207 239
175 207 239
175 207 239
175 207 239
175 207 239
175 207 239
175 207 239
175 207 239
174 207 239
174 207 239
174 207 239
174 207 239
174 207 239
174 207 239
174 207 239
174 207 239
174 207 239
174 207 239
174 206 239
174 206 239
174 206 239
174 206 239
173 206 239
173 206 239
173 206 239
173 206 239
173 206 239
173 206 239
173 206 239
173 206 239
173 206 239
173 206 239
173 206 239
173 206 239
173 206 239
172 206 239
172 206 239
172 206 239
172 206 239
172 206 239
172 205 239
172 205 239
172 205 239
172 205 239
172 205 239
172 205 239
172 205 239
172 205 239
171 205 239
171 205 239
171 205 239
171 205 239
171 205 239
171 205 239
171 205 239
171 205 239
171 205 239
171 205 239
171 205 239
171 205 239
171 205 239
170 204 238
170 204 238
170 204 238
170 204 238
170 204 238
170 204 238
170 204 238
170 204 238
170 204 238
170 204 238
170 204 238
170 204 238
169 204 238
169 204 238
169 204 238
169 204 238
169 204 238
169 204 238
169 204 238
169 204 238
169 203 238
169 203 238
169 203 238
169 203 238
168 203 238
168 203 238
168 203 238
168 203 238
168 203 238
168 203 238
168 203 238
168 203 238
168 203 238
168 203 238
168 203 238
168 203 238
168 203 238
167 203 238
167 203 238
167 203 238
167 203 238
167 203 238
167 202 238
167 202 238
167 202 238
167 202 238
167 202 238
167 202 238
167 202 238
167 202 238
167 202 238
166 202 238
166 202 238
64 190 204
0 168 159
0 159 159
0 156 166
0 153 172
0 152 176
0 150 180
0 148 184
0 147 187
0 146 189
0 144 192
0 143 194
0 142 196
0 141 198
0 141 200
0 140 202
0 139 203
0 139 205
0 138 206
0 138 207
0 137 208
0 136 209
0 136 210
0 136 211
0 135 212
0 135 213
0 134 214
0 134 214
0 134 215
0 134 215
0 133 216
0 133 216
0 133 217
0 133 217
0 133 217
0 133 218
0 133 218
0 133 218
0 133 218
0 132 218
0 132 218
1 133 218
3 133 218
6 133 218
9 132 218
11 133 218
14 133 218
16 133 217
19 133 217
22 133 217
24 133 216
27 134 216
30 134 215
33 134 215
35 134 214
38 135 214
41 135 213
43 135 212
46 136 211
49 136 210
52 136 209
55 137 208
58 137 207
61 138 206
64 138 205
67 140 203
70 140 202
73 141 200
76 142 198
79 142 196
83 143 194
86 144 192
90 145 190
93 147 187
97 148 184
101 150 180
105 152 176
110 153 172
115 156 166
120 159 159
130 167 155
156 191 208
166 202 238
167 202 238
167 202 238
167 202 238
167 202 238
167 202 238
167 202 238
167 202 238
167 202 238
167 202 238
167 202 238
167 203 238
167 203 238
167 203 238
167 203 238
167 203 238
168 203 238
168 203 238
168 203 238
168 203 238
168 203 238
168 203 238
168 203 238
168 203 238
168 203 238
168 203 238
168 203 238
168 203 238
168 203 238
169 203 238
169 203 238
169 203 238
169 203 238
169 204 238
169 204 238
169 204 238
169 204 238
169 204 238
169 204 238
169 204 238
169 204 238
170 204 238
170 204 238
170 204 238
170 204 238
170 204 238
170 204 238
170 204 238
170 204 238
170 204 238
170 204 238
170 204 238
170 204 238
171 205 239
171 205 239
171 205 239
171 205 239
171 205 239
171 205 239
171 205 239
171 205 239
171 205 239
171 205 239
171 205 239
171 205 239
171 205 239
172 205 239
172 205 239
172 205 239
172 205 239
172 205 239
172 205 239
172 205 239
172 205 239
172 206 239
172 206 239
172 206 239
172 206 239
173 206 239
173 206 239
173 206 239
173 206 239
173 206 239
173 206 239
173 206 239
173 206 239
173 206 239
173 206 239
173 206 239
173 206 239
173 206 239
173 206 239
174 206 239
174 206 239
174 206 239
174 206 239
174 207 239
174 207 239
174 207 239
174 207 239
174 207 239
174 207 239
174 207 239
174 207 239
174 207 239
174 207 239
175 207 239
175 207 239
175 207 239
175 207 239
175 207 239
175 207 239
175 207 239
175 207 239
175 207 239
175 207 239
175 207 239
175 207 239
175 207 239
175 207 239
175 207 239
176 208 240
176 208 240
176 208 240
176 208 240
176 208 240
176 208 240
176 208 240
176 208 240
176 208 240
176 208 240
176 208 240
176 208 240
176 208 240
176 208 240
176 208 240
176 208 240
176 208 240
177 208 240
177 208 240
177 208 240
177 208 240
177 208 240
177 208 240
177 208 240
177 208 240
177 208 240
177 208 240
177 208 240
177 208 240
177 209 240
177 209 240
177 209 240
177 209 240
177 209 240
177 209 240
177 209 240
178 209 240
178 209 240
178 209 240
178 209 240
178 209 240
178 209 240
178 209 240
178 209 240
178 209 240
177 209 240
177 209 240
177 209 240
177 209 240
177 209 240
177 209 240
177 209 240
177 208 240
177 208 240
177 208 240
177 208 240
177 208 240
177 208 240
177 208 240
177 208 240
177 208 240
177 208 240
177 208 240
177 208 240
176 208 240
176 208 240
176 208 240
176 208 240
176 208 240
176 208 240
176 208 240
176 208 240
176 208 240
176 208 240
176 208 240
176 208 240
176 208 240
176 208 240
176 208 240
176 208 240
175 207 239
175 207 239
175 207 239
175 207 239
175 207 239
175 207 239
175 207 239
175 207 239
175 207 239
175 207 239
175 207 239
175 207 239
175 207 239
175 207 239
175 207 239
174 207 239
174 207 239
174 207 239
174 207 239
174 207 239
174 207 239
174 207 239
174 207 239
174 207 239
174 207 239
174 206 239
174 206 239
174 206 239
174 206 239
174 206 239
173 206 239
173 206 239
173 206 239
173 206 239
173 206 239
173 206 239
173 206 239
173 206 239
173 206 239
173 206 239
173 206 239
173 206 239
173 206 239
172 206 239
172 206 239
172 206 239
172 206 239
172 205 239
172 205 239
172 205 239
172 205 239
172 205 239
172 205 239
172 205 239
172 205 239
172 205 239
171 205 239
171 205 239
171 205 239
171 205 239
171 205 239
171 205 239
171 205 239
171 205 239
171 205 239
171 205 239
171 205 239
171 205 239
170 204 238
170 204 238
170 204 238
170 204 238
170 204 238
170 204 238
170 204 238
170 204 238
170 204 238
170 204 238
170 204 238
170 204 238
170 204 238
169 204 238
169 204 238
169 204 238
169 204 238
169 204 238
169 204 238
169 204 238
169 204 238
169 203 238
169 203 238
169 203 238
169 203 238
168 203 238
168 203 238
168 203 238
168 203 238
168 203 238
168 203 238
168 203 238
168 203 238
168 203 238
168 203 238
168 203 238
168 203 238
168 203 238
168 203 238
167 203 238
167 203 238
167 203 238
167 203 238
167 203 238
167 202 238
167 202 238
167 202 238
167 202 238
6 182 186
0 160 153
0 155 162
0 152 168
0 150 173
0 148 178
0 146 182
0 145 185
0 143 188
0 142 191
0 141 194
0 140 196
0 139 198
0 138 200
0 137 201
0 137 203
0 136 205
0 135 206
0 135 207
0 134 209
0 134 210
0 133 211
0 133 212
0 132 213
0 132 214
0 131 214
0 131 215
0 131 216
0 131 217
0 130 217
0 130 218
0 130 218
0 130 219
0 129 219
0 129 219
0 129 220
0 129 220
0 129 220
0 129 220
0 129 220
0 129 220
0 129 220
1 129 220
3 129 220
6 129 220
8 129 220
11 129 220
14 129 220
16 129 219
19 129 219
22 130 219
24 130 218
27 130 218
30 130 218
32 130 217
35 131 217
37 131 216
40 131 215
43 131 215
46 132 214
49 132 213
51 133 212
54 133 211
57 133 210
60 134 209
63 135 207
66 135 206
69 136 205
72 137 203
75 137 202
78 138 200
82 139 198
85 140 196
89 141 193
92 142 191
96 143 188
100 145 185
103 146 182
108 147 178
112 149 174
117 153 168
123 155 161
130 160 150
154 187 200
167 202 237
167 202 238
167 202 238
167 202 238
167 203 238
167 203 238
167 203 238
167 203 238
167 203 238
168 203 238
168 203 238
168 203 238
168 203 238
168 203 238
168 203 238
168 203 238
168 203 238
168 203 238
168 203 238
168 203 238
168 203 238
168 203 238
168 203 238
169 203 238
169 203 238
169 203 238
169 203 238
169 204 238
169 204 238
169 204 238
169 204 238
169 204 238
169 204 238
169 204 238
169 204 238
170 204 238
170 204 238
170 204 238
170 204 238
170 204 238
170 204 238
170 204 238
170 204 238
170 204 238
170 204 238
170 204 238
170 204 238
170 204 238
171 205 239
171 205 239
171 205 239
171 205 239
171 205 239
171 205 239
171 205 239
171 205 239
171 205 239
171 205 239
171 205 239
171 205 239
172 205 239
172 205 239
172 205 239
172 205 239
172 205 239
172 205 239
172 205 239
172 205 239
172 206 239
172 206 239
172 206 239
172 206 239
172 206 239
173 206 239
173 206 239
173 206 239
173 206 239
173 206 239
173 206 239
173 206 239
173 206 239
173 206 239
173 206 239
173 206 239
173 206 239
173 206 239
174 206 239
174 206 239
174 206 239
174 206 239
174 206 239
174 207 239
174 207 239
174 207 239
174 207 239
174 207 239
174 207 239
174 207 239
174 207 239
174 207 239
175 207 239
175 207 239
175 207 239
175 207 239
175 207 239
175 207 239
175 207 239
175 207 239
175 207 239
175 207 239
175 207 239
175 207 239
175 207 239
175 207 239
175 207 239
175 207 239
176 208 240
176 208 240
176 208 240
176 208 240
176 208 240
176 208 240
176 208 240
176 208 240
176 208 240
176 208 240
176 208 240
176 208 240
176 208 240
176 208 240
176 208 240
176 208 240
177 208 240
177 208 240
177 208 240
177 208 240
177 208 240
177 208 240
177 208 240
177 208 240
177 208 240
177 208 240
177 208 240
177 208 240
177 209 240
177 209 240
177 209 240
177 209 240
177 209 240
177 209 240
178 209 240
178 209 240
178 209 240
178 209 240
178 209 240
178 209 240
178 209 240
178 209 240
178 209 240
178 209 240
178 209 240
178 209 240
178 209 240
178 209 240
178 209 240
178 209 240
178 209 240
178 209 240
178 209 240
178 209 240
178 209 240
177 209 240
177 209 240
177 209 240
177 209 240
177 209 240
177 209 240
177 208 240
177 208 240
177 208 240
177 208 240
177 208 240
177 208 240
177 208 240
177 208 240
177 208 240
177 208 240
177 208 240
177 208 240
176 208 240
176 208 240
176 208 240
176 208 240
176 208 240
176 208 240
176 208 240
176 208 240
176 208 240
176 208 240
176 208 240
176 208 240
176 208 240
176 208 240
176 208 240
176 208 240
175 207 239
175 207 239
175 207 239
175 207 239
175 207 239
175 207 239
175 207 239
175 207 239
175 207 239
175 207 239
175 207 239
175 207 239
175 207 239
175 207 239
175 207 239
174 207 239
174 207 239
174 207 239
174 207 239
174 207 239
174 207 239
174 207 239
174 207 239
174 207 239
174 207 239
174 206 239
174 206 239
174 206 239
174 206 239
173 206 239
173 206 239
173 206 239
173 206 239
173 206 239
173 206 239
173 206 239
173 206 239
173 206 239
173 206 239
173 206 239
173 206 239
173 206 239
173 206 239
172 206 239
172 206 239
172 206 239
172 206 239
172 205 239
172 205 239
172 205 239
172 205 239
172 205 239
172 205 239
172 205 239
172 205 239
171 205 239
171 205 239
171 205 239
171 205 239
171 205 239
171 205 239
171 205 239
171 205 239
171 205 239
171 205 239
171 205 239
171 205 239
171 205 239
170 204 238
170 204 238
170 204 238
170 204 238
170 204 238
170 204 238
170 204 238
170 204 238
170 204 238
170 204 238
170 204 238
170 204 238
170 204 238
169 204 238
169 204 238
169 204 238
169 204 238
169 204 238
169 204 238
169 204 238
169 204 238
169 203 238
169 203 238
169 203 238
169 203 238
168 203 238
168 203 238
168 203 238
168 203 238
168 203 238
168 203 238
168 203 238
168 203 238
168 203 238
168 203 238
168 203 238
168 203 238
168 203 238
168 203 238
168 203 238
167 203 238
164 202 237
0 176 179
0 155 154
0 151 163
0 149 169
0 146 175
0 144 180
0 143 183
0 141 186
0 140 190
0 139 192
0 138 195
0 136 197
0 136 199
0 135 201
0 134 203
0 133 204
0 133 206
0 132 207
0 131 209
0 131 210
0 131 211
0 130 212
0 129 213
0 129 214
0 129 215
0 128 216
0 128 217
0 128 217
0 127 218
0 127 219
0 127 219
0 126 220
0 126 220
0 126 221
0 126 221
0 126 221
0 126 222
0 126 222
0 126 222
0 126 222
0 125 222
0 125 222
0 125 222
1 125 222
3 126 222
6 125 222
8 125 222
11 126 222
14 126 222
16 126 222
19 126 221
21 126 221
24 126 221
27 126 220
29 127 220
32 127 219
35 127 219
37 127 218
40 128 217
43 128 217
46 128 216
48 129 215
51 129 214
54 129 213
57 130 212
60 130 211
63 131 210
65 131 209
69 132 207
72 133 206
75 133 204
78 134 203
81 135 201
84 135 199
87 136 197
91 137 195
95 138 192
98 140 190
102 141 186
106 142 183
110 144 179
115 146 175
120 148 170
125 151 163
132 156 153
150 177 182
167 202 236
167 203 238
168 203 238
168 203 238
168 203 238
168 203 238
168 203 238
168 203 238
168 203 238
168 203 238
168 203 238
168 203 238
168 203 238
168 203 238
168 203 238
168 203 238
169 203 238
169 203 238
169 203 238
169 203 238
169 204 238
169 204 238
169 204 238
169 204 238
169 204 238
169 204 238
169 204 238
169 204 238
169 204 238
170 204 238
170 204 238
170 204 238
170 204 238
170 204 238
170 204 238
170 204 238
170 204 238
170 204 238
170 204 238
170 204 238
170 204 238
170 204 238
171 205 239
171 205 239
171 205 239
171 205 239
171 205 239
171 205 239
171 205 239
171 205 239
171 205 239
171 205 239
171 205 239
171 205 239
171 205 239
172 205 239
172 205 239
172 205 239
172 205 239
172 205 239
172 205 239
172 205 239
172 205 239
172 206 239
172 206 239
172 206 239
172 206 239
173 206 239
173 206 239
173 206 239
173 206 239
173 206 239
173 206 239
173 206 239
173 206 239
173 206 239
173 206 239
173 206 239
173 206 239
173 206 239
173 206 239
174 206 239
174 206 239
174 206 239
174 206 239
174 207 239
174 207 239
174 207 239
174 207 239
174 207 239
174 207 239
174 207 239
174 207 239
174 207 239
174 207 239
175 207 239
175 207 239
175 207 239
175 207 239
175 207 239
175 207 239
175 207 239
175 207 239
175 207 239
175 207 239
175 207 239
175 207 239
175 207 239
175 207 239
175 207 239
176 208 240
176 208 240
176 208 240
176 208 240
176 208 240
176 208 240
176 208 240
176 208 240
176 208 240
176 208 240
176 208 240
176 208 240
176 208 240
176 208 240
176 208 240
176 208 240
177 208 240
177 208 240
177 208 240
177 208 240
177 208 240
177 208 240
177 208 240
177 208 240
177 208 240
177 208 240
177 208 240
177 208 240
177 209 240
177 209 240
177 209 240
177 209 240
177 209 240
177 209 240
178 209 240
178 209 240
178 209 240
178 209 240
178 209 240
178 209 240
178 209 240
178 209 240
178 209 240
178 209 240
178 209 240
178 209 240
178 209 240
178 209 240
178 209 240
178 209 240
178 209 240
178 209 240
178 209 240
178 209 240
178 209 240
178 209 240
178 209 240
178 209 240
178 209 240
178 209 240
178 209 240
178 209 240
178 209 240
178 209 240
178 209 240
177 209 240
177 209 240
177 209 240
177 209 240
177 209 240
177 209 240
177 208 240
177 208 240
177 208 240
177 208 240
177 208 240
177 208 240
177 208 240
177 208 240
177 208 240
177 208 240
177 208 240
177 208 240
176 208 240
176 208 240
176 208 240
176 208 240
176 208 240
176 208 240
176 208 240
176 208 240
176 208 240
176 208 240
176 208 240
176 208 240
176 208 240
176 208 240
176 208 240
176 208 240
175 207 239
175 207 239
175 207 239
175 207 239
175 207 239
175 207 239
175 207 239
175 207 239
175 207 239
175 207 239
175 207 239
175 207 239
175 207 239
175 207 239
175 207 239
174 207 239
174 207 239
174 207 239
174 207 239
174 207 239
174 207 239
174 207 239
174 207 239
174 207 239
174 207 239
174 206 239
174 206 239
174 206 239
174 206 239
173 206 239
173 206 239
173 206 239
173 206 239
173 206 239
173 206 239
173 206 239
173 206 239
173 206 239
173 206 239
173 206 239
173 206 239
173 206 239
172 206 239
172 206 239
172 206 239
172 206 239
172 206 239
172 205 239
172 205 239
172 205 239
172 205 239
172 205 239
172 205 239
172 205 239
172 205 239
171 205 239
171 205 239
171 205 239
171 205 239
171 205 239
171 205 239
171 205 239
171 205 239
171 205 239
171 205 239
171 205 239
171 205 239
171 205 239
170 204 238
170 204 238
170 204 238
170 204 238
170 204 238
170 204 238
170 204 238
170 204 238
170 204 238
170 204 238
170 204 238
170 204 238
170 204 238
169 204 238
169 204 238
169 204 238
169 204 238
169 204 238
169 204 238
169 204 238
169 204 238
169 204 238
169 203 238
169 203 238
169 203 238
169 203 238
168 203 238
168 203 238
168 203 238
168 203 238
168 203 238
168 203 238
168 203 238
168 203 238
168 203 238
158 202 235
0 171 172
0 151 156
0 147 165
0 145 171
0 142 176
0 141 180
0 139 184
0 138 188
0 136 191
0 135 193
0 134 196
0 133 198
0 132 200
0 132 202
0 131 204
0 130 206
0 129 207
0 129 209
0 128 210
0 127 211
0 127 213
0 127 214
0 126 214
0 126 215
0 125 216
0 125 217
0 125 218
0 124 219
0 124 219
0 124 220
0 123 221
0 123 221
0 123 222
0 123 222
0 123 222
0 123 223
0 122 223
0 122 223
0 122 224
0 122 224
0 122 224
0 122 224
0 122 224
0 122 224
1 122 224
3 122 224
6 122 224
9 122 224
11 122 224
14 122 224
16 122 223
19 123 223
21 123 223
24 123 222
27 123 222
29 123 222
32 123 221
34 124 221
37 124 220
40 124 219
42 124 219
45 125 218
48 125 217
51 125 216
54 126 216
56 126 215
59 127 213
62 127 212
65 128 211
68 128 210
71 129 209
74 129 207
77 130 206
80 131 204
83 131 202
87 132 200
90 133 198
94 134 196
97 135 193
101 137 190
105 138 188
109 139 184
113 141 180
117 143 176
122 145 171
128 148 164
134 151 156
148 167 165
167 201 233
168 203 238
168 203 238
168 203 238
168 203 238
168 203 238
168 203 238
168 203 238
168 203 238
168 203 238
169 203 238
169 203 238
169 203 238
169 203 238
169 204 238
169 204 238
169 204 238
169 204 238
169 204 238
169 204 238
169 204 238
169 204 238
169 204 238
170 204 238
170 204 238
170 204 238
170 204 238
170 204 238
170 204 238
170 204 238
170 204 238
170 204 238
170 204 238
170 204 238
170 204 238
170 204 238
171 205 239
171 205 239
171 205 239
171 205 239
171 205 239
171 205 239
171 205 239
171 205 239
171 205 239
171 205 239
171 205 239
171 205 239
171 205 239
172 205 239
172 205 239
172 205 239
172 205 239
172 205 239
172 205 239
172 205 239
172 205 239
172 206 239
172 206 239
172 206 239
172 206 239
172 206 239
173 206 239
173 206 239
173 206 239
173 206 239
173 206 239
173 206 239
173 206 239
173 206 239
173 206 239
173 206 239
173 206 239
173 206 239
173 206 239
174 206 239
174 206 239
174 206 239
174 206 239
174 206 239
174 207 239
174 207 239
174 207 239
174 207 239
174 207 239
174 207 239
174 207 239
174 207 239
174 207 239
175 207 239
175 207 239
175 207 239
175 207 239
175 207 239
175 207 239
175 207 239
175 207 239
175 207 239
175 207 239
175 207 239
175 207 239
175 207 239
175 207 239
175 207 239
176 208 240
176 208 240
176 208 240
176 208 240
176 208 240
176 208 240
176 208 240
176 208 240
176 208 240
176 208 240
176 208 240
176 208 240
176 208 240
176 208 240
176 208 240
176 208 240
177 208 240
177 208 240
177 208 240
177 208 240
177 208 240
177 208 240
177 208 240
177 208 240
177 208 240
177 208 240
177 208 240
177 208 240
177 209 240
177 209 240
177 209 240
177 209 240
177 209 240
177 209 240
178 209 240
178 209 240
178 209 240
178 209 240
178 209 240
178 209 240
178 209 240
178 209 240
178 209 240
178 209 240
178 209 240
178 209 240
178 209 240
178 209 240
178 209 240
178 209 240
178 209 240
178 209 240
179 209 240
179 209 240
179 209 240
178 209 240
178 209 240
178 209 240
178 209 240
178 209 240
178 209 240
178 209 240
178 209 240
178 209 240
178 209 240
178 209 240
178 209 240
178 209 240
178 209 240
178 209 240
178 209 240
178 209 240
178 209 240
178 209 240
178 209 240
177 209 240
177 209 240
177 209 240
177 209 240
177 209 240
177 209 240
177 208 240
177 208 240
177 208 240
177 208 240
177 208 240
177 208 240
177 208 240
177 208 240
177 208 240
177 208 240
177 208 240
177 208 240
176 208 240
176 208 240
176 208 240
176 208 240
176 208 240
176 208 240
176 208 240
176 208 240
176 208 240
176 208 240
176 208 240
176 208 240
176 208 240
176 208 240
176 208 240
176 208 240
175 207 239
175 207 239
175 207 239
175 207 239
175 207 239
175 207 239
175 207 239
175 207 239
175 207 239
175 207 239
175 207 239
175 207 239
175 207 239
175 207 239
175 207 239
174 207 239
174 207 239
174 207 239
174 207 239
174 207 239
174 207 239
174 207 239
174 207 239
174 207 239
174 206 239
174 206 239
174 206 239
174 206 239
174 206 239
173 206 239
173 206 239
173 206 239
173 206 239
173 206 239
173 206 239
173 206 239
173 206 239
173 206 239
173 206 239
173 206 239
173 206 239
173 206 239
172 206 239
172 206 239
172 206 239
172 206 239
172 205 239
172 205 239
172 205 239
172 205 239
172 205 239
172 205 239
172 205 239
172 205 239
172 205 239
171 205 239
171 205 239
171 205 239
171 205 239
171 205 239
171 205 239
171 205 239
171 205 239
171 205 239
171 205 239
171 205 239
171 205 239
171 205 239
170 204 238
170 204 238
170 204 238
170 204 238
170 204 238
170 204 238
170 204 238
170 204 238
170 204 238
170 204 238
170 204 238
170 204 238
170 204 238
169 204 238
169 204 238
169 204 238
169 204 238
169 204 238
169 204 238
169 204 238
169 204 238
169 204 238
169 204 238
169 203 238
169 203 238
169 203 238
169 203 238
169 203 238
168 203 238
159 202 235
0 166 170
0 148 157
0 144 166
0 141 172
0 139 177
0 138 181
0 136 185
0 135 188
0 133 192
0 132 194
0 131 197
0 130 199
0 129 201
0 128 203
0 128 205
0 127 207
0 126 208
0 126 210
0 125 211
0 124 212
0 124 214
0 124 215
0 123 216
0 123 217
0 122 218
0 122 218
0 122 219
0 121 220
0 121 221
0 121 221
0 120 222
0 120 222
0 120 223
0 120 223
0 120 224
0 119 224
0 119 225
0 119 225
0 119 225
0 119 225
0 119 226
0 119 226
0 119 226
0 119 226
0 119 226
1 119 226
3 119 226
6 119 226
8 119 226
11 119 226
13 119 225
16 119 225
18 119 225
21 119 225
24 119 224
26 120 224
29 120 223
32 120 223
34 120 223
37 120 222
39 121 221
42 121 221
45 121 220
48 122 219
50 122 218
53 122 218
56 123 217
59 123 216
62 124 215
64 124 214
67 125 212
70 125 211
73 126 210
76 126 208
80 127 207
83 128 205
86 128 203
89 129 201
92 130 199
96 131 197
100 132 194
103 133 192
107 134 189
111 136 185
116 138 181
120 139 177
125 141 172
130 144 166
137 148 157
149 162 163
167 200 231
168 203 238
169 203 238
169 203 238
169 203 238
169 203 238
169 203 238
169 203 238
169 204 238
169 204 238
169 204 238
169 204 238
169 204 238
169 204 238
169 204 238
169 204 238
169 204 238
170 204 238
170 204 238
170 204 238
170 204 238
170 204 238
170 204 238
170 204 238
170 204 238
170 204 238
170 204 238
170 204 238
170 204 238
170 204 238
171 205 239
171 205 239
171 205 239
171 205 239
171 205 239
171 205 239
171 205 239
171 205 239
171 205 239
171 205 239
171 205 239
171 205 239
171 205 239
172 205 239
172 205 239
172 205 239
172 205 239
172 205 239
172 205 239
172 205 239
172 205 239
172 205 239
172 206 239
172 206 239
172 206 239
172 206 239
173 206 239
173 206 239
173 206 239
173 206 239
173 206 239
173 206 239
173 206 239
173 206 239
173 206 239
173 206 239
173 206 239
173 206 239
173 206 239
174 206 239
174 206 239
174 206 239
174 206 239
174 206 239
174 207 239
174 207 239
174 207 239
174 207 239
174 207 239
174 207 239
174 207 239
174 207 239
174 207 239
175 207 239
175 207 239
175 207 239
175 207 239
175 207 239
175 207 239
175 207 239
175 207 239
175 207 239
175 207 239
175 207 239
175 207 239
175 207 239
175 207 239
175 207 239
176 208 240
176 208 240
176 208 240
176 208 240
176 208 240
176 208 240
176 208 240
176 208 240
176 208 240
176 208 240
176 208 240
176 208 240
176 208 240
176 208 240
176 208 240
176 208 240
177 208 240
177 208 240
177 208 240
177 208 240
177 208 240
177 208 240
177 208 240
177 208 240
177 208 240
177 208 240
177 208 240
177 208 240
177 209 240
177 209 240
177 209 240
177 209 240
177 209 240
177 209 240
178 209 240
178 209 240
178 209 240
178 209 240
178 209 240
178 209 240
178 209 240
178 209 240
178 209 240
178 209 240
178 209 240
178 209 240
178 209 240
178 209 240
178 209 240
178 209 240
178 209 240
178 209 240
178 209 240
179 209 240
179 209 240
179 209 240
179 209 240
179 210 240
179 210 240
179 209 240
179 209 240
179 209 240
179 209 240
179 209 240
179 209 240
179 209 240
178 209 240
178 209 240
178 209 240
178 209 240
178 209 240
178 209 240
178 209 240
178 209 240
178 209 240
178 209 240
178 209 240
178 209 240
178 209 240
178 209 240
178 209 240
178 209 240
178 209 240
178 209 240
178 209 240
177 209 240
177 209 240
177 209 240
177 209 240
177 209 240
177 209 240
177 208 240
177 208 240
177 208 240
177 208 240
177 208 240
177 208 240
177 208 240
177 208 240
177 208 240
177 208 240
177 208 240
177 208 240
176 208 240
176 208 240
176 208 240
176 208 240
176 208 240
176 208 240
176 208 240
176 208 240
176 208 240
176 208 240
176 208 240
176 208 240
176 208 240
176 208 240
176 208 240
176 208 240
175 207 239
175 207 239
175 207 239
175 207 239
175 207 239
175 207 239
175 207 239
175 207 239
175 207 239
175 207 239
175 207 239
175 207 239
175 207 239
175 207 239
175 207 239
174 207 239
174 207 239
174 207 239
174 207 239
174 207 239
174 207 239
174 207 239
174 207 239
174 207 239
174 206 239
174 206 239
174 206 239
174 206 239
174 206 239
173 206 239
173 206 239
173 206 239
173 206 239
173 206 239
173 206 239
173 206 239
173 206 239
173 206 239
173 206 239
173 206 239
173 206 239
173 206 239
172 206 239
172 206 239
172 206 239
172 206 239
172 206 239
172 205 239
172 205 239
172 205 239
172 205 239
172 205 239
172 205 239
172 205 239
172 205 239
171 205 239
171 205 239
171 205 239
171 205 239
171 205 239
171 205 239
171 205 239
171 205 239
171 205 239
171 205 239
171 205 239
171 205 239
171 205 239
170 204 238
170 204 238
170 204 238
170 204 238
170 204 238
170 204 238
170 204 238
170 204 238
170 204 238
170 204 238
170 204 238
170 204 238
170 204 238
170 204 238
169 204 238
169 204 238
169 204 238
169 204 238
169 204 238
169 204 238
169 204 238
169 204 238
169 204 238
162 202 236
0 160 165
0 144 157
0 141 166
0 138 173
0 136 177
0 134 182
0 133 186
0 131 189
0 130 193
0 129 195
0 128 197
0 127 200
0 126 202
0 125 204
0 125 206
0 124 208
0 123 209
0 122 211
0 122 212
0 121 213
0 121 215
0 120 216
0 120 217
0 120 218
0 119 219
0 119 220
0 119 220
0 118 221
0 118 222
0 118 223
0 117 223
0 117 224
0 117 224
0 117 225
0 116 225
0 116 226
0 116 226
0 116 226
0 116 227
0 116 227
0 116 227
0 116 227
0 115 228
0 116 228
0 116 228
0 115 228
1 116 228
3 116 228
6 116 228
8 116 227
11 116 227
13 116 227
16 116 227
19 116 227
21 116 226
24 116 226
26 117 226
29 116 225
31 117 225
34 117 224
37 117 224
39 117 223
42 118 223
45 118 222
47 118 221
50 118 221
53 119 220
55 119 219
58 119 218
61 120 217
64 120 216
67 121 215
70 121 213
73 122 212
76 122 211
79 123 209
82 124 207
85 124 206
88 125 204
92 126 202
95 127 200
98 128 198
102 129 195
106 130 192
110 131 189
114 133 186
118 134 182
123 136 177
128 138 172
133 141 166
139 144 158
151 158 161
168 201 234
169 204 238
169 204 238
169 204 238
169 204 238
169 204 238
169 204 238
169 204 238
169 204 238
169 204 238
170 204 238
170 204 238
170 204 238
170 204 238
170 204 238
170 204 238
170 204 238
170 204 238
170 204 238
170 204 238
170 204 238
170 204 238
170 204 238
170 204 238
171 205 239
171 205 239
171 205 239
171 205 239
171 205 239
171 205 239
171 205 239
171 205 239
171 205 239
171 205 239
171 205 239
171 205 239
171 205 239
172 205 239
172 205 239
172 205 239
172 205 239
172 205 239
172 205 239
172 205 239
172 205 239
172 205 239
172 206 239
172 206 239
172 206 239
172 206 239
173 206 239
173 206 239
173 206 239
173 206 239
173 206 239
173 206 239
173 206 239
173 206 239
173 206 239
173 206 239
173 206 239
173 206 239
173 206 239
174 206 239
174 206 239
174 206 239
174 206 239
174 206 239
174 207 239
174 207 239
174 207 239
174 207 239
174 207 239
174 207 239
174 207 239
174 207 239
174 207 239
175 207 239
175 207 239
175 207 239
175 207 239
175 207 239
175 207 239
175 207 239
175 207 239
175 207 239
175 207 239
175 207 239
175 207 239
175 207 239
175 207 239
175 207 239
176 208 240
176 208 240
176 208 240
176 208 240
176 208 240
176 208 240
176 208 240
176 208 240
176 208 240
176 208 240
176 208 240
176 208 240
176 208 240
176 208 240
176 208 240
176 208 240
177 208 240
177 208 240
177 208 240
177 208 240
177 208 240
177 208 240
177 208 240
177 208 240
177 208 240
177 208 240
177 208 240
177 208 240
177 209 240
177 209 240
177 209 240
177 209 240
177 209 240
178 209 240
178 209 240
178 209 240
178 209 240
178 209 240
178 209 240
178 209 240
178 209 240
178 209 240
178 209 240
178 209 240
178 209 240
178 209 240
178 209 240
178 209 240
178 209 240
178 209 240
178 209 240
178 209 240
178 209 240
179 209 240
179 209 240
179 209 240
179 209 240
179 209 240
179 209 240
179 209 240
179 210 240
179 210 240
179 210 240
179 210 240
179 210 240
179 210 240
179 210 240
179 210 240
179 210 240
179 210 240
179 209 240
179 209 240
179 209 240
179 209 240
179 209 240
179 209 240
179 209 240
178 209 240
178 209 240
178 209 240
178 209 240
178 209 240
178 209 240
178 209 240
178 209 240
178 209 240
178 209 240
178 209 240
178 209 240
178 209 240
178 209 240
178 209 240
178 209 240
178 209 240
178 209 240
178 209 240
177 209 240
177 209 240
177 209 240
177 209 240
177 209 240
177 209 240
177 208 240
177 208 240
177 208 240
177 208 240
177 208 240
177 208 240
177 208 240
177 208 240
177 208 240
177 208 240
177 208 240
176 208 240
176 208 240
176 208 240
176 208 240
176 208 240
176 208 240
176 208 240
176 208 240
176 208 240
176 208 240
176 208 240
176 208 240
176 208 240
176 208 240
176 208 240
176 208 240
175 207 239
175 207 239
175 207 239
175 207 239
175 207 239
175 207 239
175 207 239
175 207 239
175 207 239
175 207 239
175 207 239
175 207 239
175 207 239
175 207 239
175 207 239
174 207 239
174 207 239
174 207 239
174 207 239
174 207 239
174 207 239
174 207 239
174 207 239
174 207 239
174 206 239
174 206 239
174 206 239
174 206 239
174 206 239
173 206 239
173 206 239
173 206 239
173 206 239
173 206 239
173 206 239
173 206 239
173 206 239
173 206 239
173 206 239
173 206 239
173 206 239
173 206 239
172 206 239
172 206 239
172 206 239
172 206 239
172 205 239
172 205 239
172 205 239
172 205 239
172 205 239
172 205 239
172 205 239
172 205 239
172 205 239
171 205 239
171 205 239
171 205 239
171 205 239
171 205 239
171 205 239
171 205 239
171 205 239
171 205 239
171 205 239
171 205 239
171 205 239
171 205 239
171 205 239
170 204 238
170 204 238
170 204 238
170 204 238
170 204 238
170 204 238
170 204 238
170 204 238
170 204 238
170 204 238
170 204 238
170 204 238
170 204 238
170 204 238
169 204 238
169 204 238
163 203 236
0 155 160
0 141 157
0 138 166
0 135 173
0 133 178
0 131 182
0 130 186
0 128 190
0 127 193
0 126 196
0 125 198
0 124 201
0 123 203
0 122 205
0 121 207
0 121 208
0 120 210
0 119 211
0 119 213
0 118 214
0 118 215
0 117 217
0 117 218
0 117 219
0 116 220
0 116 221
0 115 222
0 115 222
0 115 223
0 115 224
0 114 224
0 114 225
0 114 226
0 114 226
0 113 227
0 113 227
0 113 227
0 113 228
0 113 228
0 113 228
0 113 228
0 113 229
0 113 229
0 113 229
0 112 229
0 112 229
0 112 229
1 112 229
3 112 229
6 113 229
8 112 229
11 112 229
13 113 229
16 113 229
18 113 228
21 113 228
24 113 228
26 113 227
29 113 227
31 113 227
34 114 226
36 114 226
39 114 225
42 114 224
44 115 224
47 115 223
50 115 222
52 116 221
55 116 221
58 116 220
60 116 219
63 117 218
66 117 217
69 118 215
72 118 214
75 119 213
78 120 212
81 120 210
84 121 208
88 122 207
91 122 205
94 123 203
98 124 200
101 125 198
105 126 196
108 127 193
113 128 190
117 130 186
121 131 183
125 133 178
130 135 173
136 138 166
143 142 156
155 158 166
168 200 231
169 204 238
169 204 238
170 204 238
170 204 238
170 204 238
170 204 238
170 204 238
170 204 238
170 204 238
170 204 238
170 204 238
170 204 238
170 204 238
170 204 238
170 204 238
170 204 238
171 205 239
171 205 239
171 205 239
171 205 239
171 205 239
171 205 239
171 205 239
171 205 239
171 205 239
171 205 239
171 205 239
171 205 239
171 205 239
171 205 239
172 205 239
172 205 239
172 205 239
172 205 239
172 205 239
172 205 239
172 205 239
172 205 239
172 205 239
172 206 239
172 206 239
172 206 239
172 206 239
173 206 239
173 206 239
173 206 239
173 206 239
173 206 239
173 206 239
173 206 239
173 206 239
173 206 239
173 206 239
173 206 239
173 206 239
173 206 239
173 206 239
174 206 239
174 206 239
174 206 239
174 206 239
174 207 239
174 207 239
174 207 239
174 207 239
174 207 239
174 207 239
174 207 239
174 207 239
174 207 239
175 207 239
175 207 239
175 207 239
175 207 239
175 207 239
175 207 239
175 207 239
175 207 239
175 207 239
175 207 239
175 207 239
175 207 239
175 207 239
175 207 239
175 207 239
176 208 240
176 208 240
176 208 240
176 208 240
176 208 240
176 208 240
176 208 240
176 208 240
176 208 240
176 208 240
176 208 240
176 208 240
176 208 240
176 208 240
176 208 240
176 208 240
177 208 240
177 208 240
177 208 240
177 208 240
177 208 240
177 208 240
177 208 240
177 208 240
177 208 240
177 208 240
177 208 240
177 209 240
177 209 240
177 209 240
177 209 240
177 209 240
177 209 240
178 209 240
178 209 240
178 209 240
178 209 240
178 209 240
178 209 240
178 209 240
178 209 240
178 209 240
178 209 240
178 209 240
178 209 240
178 209 240
178 209 240
178 209 240
178 209 240
178 209 240
178 209 240
178 209 240
179 209 240
179 209 240
179 209 240
179 209 240
179 209 240
179 209 240
179 209 240
179 210 240
179 210 240
179 210 240
179 210 240
179 210 240
179 210 240
179 210 240
179 210 240
179 210 240
179 210 240
179 210 240
179 210 240
179 210 240
179 210 240
179 210 240
179 210 240
179 210 240
179 210 240
179 210 240
179 210 240
179 210 240
179 209 240
179 209 240
179 209 240
179 209 240
179 209 240
179 209 240
179 209 240
178 209 240
178 209 240
178 209 240
178 209 240
178 209 240
178 209 240
178 209 240
178 209 240
178 209 240
178 209 240
178 209 240
178 209 240
178 209 240
178 209 240
178 209 240
178 209 240
178 209 240
178 209 240
178 209 240
177 209 240
177 209 240
177 209 240
177 209 240
177 209 240
177 209 240
177 208 240
177 208 240
177 208 240
177 208 240
177 208 240
177 208 240
177 208 240
177 208 240
177 208 240
177 208 240
177 208 240
176 208 240
176 208 240
176 208 240
176 208 240
176 208 240
176 208 240
176 208 240
176 208 240
176 208 240
176 208 240
176 208 240
176 208 240
176 208 240
176 208 240
176 208 240
176 208 240
175 207 239
175 207 239
175 207 239
175 207 239
175 207 239
175 207 239
175 207 239
175 207 239
175 207 239
175 207 239
175 207 239
175 207 239
175 207 239
175 207 239
174 207 239
174 207 239
174 207 239
174 207 239
174 207 239
174 207 239
174 207 239
174 207 239
174 207 239
174 207 239
174 206 239
174 206 239
174 206 239
174 206 239
174 206 239
173 206 239
173 206 239
173 206 239
173 206 239
173 206 239
173 206 239
173 206 239
173 206 239
173 206 239
173 206 239
173 206 239
173 206 239
173 206 239
172 206 239
172 206 239
172 206 239
172 206 239
172 206 239
172 205 239
172 205 239
172 205 239
172 205 239
172 205 239
172 205 239
172 205 239
172 205 239
172 205 239
171 205 239
171 205 239
171 205 239
171 205 239
171 205 239
171 205 239
171 205 239
171 205 239
171 205 239
171 205 239
171 205 239
171 205 239
171 205 239
171 205 239
170 204 238
170 204 238
170 204 238
170 204 238
170 204 238
170 204 238
170 204 238
170 204 238
170 204 238
163 203 236
0 158 168
0 139 156
0 135 166
0 132 173
0 130 178
0 128 183
0 126 187
0 125 190
0 124 194
0 123 196
0 122 199
0 121 201
0 120 203
0 119 205
0 119 207
0 118 209
0 117 211
0 117 212
0 116 214
0 115 215
0 115 216
0 115 217
0 114 219
0 114 220
0 113 221
0 113 222
0 113 222
0 112 223
0 112 224
0 112 225
0 111 225
0 111 226
0 111 227
0 111 227
0 110 228
0 110 228
0 110 229
0 110 229
0 110 229
0 110 230
0 110 230
0 110 230
0 110 230
0 109 230
0 109 231
0 109 231
0 109 231
0 109 231
1 109 231
3 109 231
6 109 231
8 109 231
11 109 230
13 110 230
16 109 230
18 110 230
21 110 230
23 110 229
26 110 229
28 110 228
31 110 228
34 111 228
36 111 227
39 111 227
41 111 226
44 111 225
47 112 225
49 112 224
52 112 223
55 113 222
58 113 221
60 113 221
63 114 220
66 114 218
69 114 218
72 115 216
75 116 215
78 116 214
81 117 212
84 117 211
87 118 209
90 118 207
93 119 205
97 120 203
100 121 201
104 122 199
107 123 196
111 124 194
115 125 190
119 127 187
124 128 183
128 130 178
134 132 173
139 135 166
146 138 157
157 156 164
169 202 234
170 204 238
170 204 238
170 204 238
170 204 238
170 204 238
170 204 238
170 204 238
170 204 238
170 204 238
171 205 239
171 205 239
171 205 239
171 205 239
171 205 239
171 205 239
171 205 239
171 205 239
171 205 239
171 205 239
171 205 239
171 205 239
171 205 239
171 205 239
172 205 239
172 205 239
172 205 239
172 205 239
172 205 239
172 205 239
172 205 239
172 205 239
172 205 239
172 206 239
172 206 239
172 206 239
172 206 239
172 206 239
173 206 239
173 206 239
173 206 239
173 206 239
173 206 239
173 206 239
173 206 239
173 206 239
173 206 239
173 206 239
173 206 239
173 206 239
173 206 239
173 206 239
174 206 239
174 206 239
174 206 239
174 206 239
174 207 239
174 207 239
174 207 239
174 207 239
174 207 239
174 207 239
174 207 239
174 207 239
174 207 239
175 207 239
175 207 239
175 207 239
175 207 239
175 207 239
175 207 239
175 207 239
175 207 239
175 207 239
175 207 239
175 207 239
175 207 239
175 207 239
175 207 239
175 207 239
176 208 240
176 208 240
176 208 240
176 208 240
176 208 240
176 208 240
176 208 240
176 208 240
176 208 240
176 208 240
176 208 240
176 208 240
176 208 240
176 208 240
176 208 240
176 208 240
177 208 240
177 208 240
177 208 240
177 208 240
177 208 240
177 208 240
177 208 240
177 208 240
177 208 240
177 208 240
177 208 240
177 209 240
177 209 240
177 209 240
177 209 240
177 209 240
177 209 240
178 209 240
178 209 240
178 209 240
178 209 240
178 209 240
178 209 240
178 209 240
178 209 240
178 209 240
178 209 240
178 209 240
178 209 240
178 209 240
178 209 240
178 209 240
178 209 240
178 209 240
178 209 240
178 209 240
179 209 240
179 209 240
179 209 240
179 209 240
179 209 240
179 209 240
179 209 240
179 210 240
179 210 240
179 210 240
179 210 240
179 210 240
179 210 240
179 210 240
179 210 240
179 210 240
179 210 240
179 210 240
179 210 240
179 210 240
180 210 240
180 210 240
180 210 240
180 210 240
180 210 240
179 210 240
179 210 240
179 210 240
179 210 240
179 210 240
179 210 240
179 210 240
179 210 240
179 210 240
179 210 240
179 210 240
179 210 240
179 210 240
179 210 240
179 209 240
179 209 240
179 209 240
179 209 240
179 209 240
179 209 240
179 209 240
178 209 240
178 209 240
178 209 240
178 209 240
178 209 240
178 209 240
178 209 240
178 209 240
178 209 240
178 209 240
178 209 240
178 209 240
178 209 240
178 209 240
178 209 240
178 209 240
178 209 240
178 209 240
178 209 240
177 209 240
177 209 240
177 209 240
177 209 240
177 209 240
177 208 240
177 208 240
177 208 240
177 208 240
177 208 240
177 208 240
177 208 240
177 208 240
177 208 240
177 208 240
177 208 240
177 208 240
176 208 240
176 208 240
176 208 240
176 208 240
176 208 240
176 208 240
176 208 240
176 208 240
176 208 240
176 208 240
176 208 240
176 208 240
176 208 240
176 208 240
176 208 240
175 207 239
175 207 239
175 207 239
175 207 239
175 207 239
175 207 239
175 207 239
175 207 239
175 207 239
175 207 239
175 207 239
175 207 239
175 207 239
175 207 239
175 207 239
174 207 239
174 207 239
174 207 239
174 207 239
174 207 239
174 207 239
174 207 239
174 207 239
174 207 239
174 206 239
174 206 239
174 206 239
174 206 239
174 206 239
173 206 239
173 206 239
173 206 239
173 206 239
173 206 239
173 206 239
173 206 239
173 206 239
173 206 239
173 206 239
173 206 239
173 206 239
173 206 239
172 206 239
172 206 239
172 206 239
172 206 239
172 206 239
172 205 239
172 205 239
172 205 239
172 205 239
172 205 239
172 205 239
172 205 239
172 205 239
172 205 239
172 205 239
171 205 239
171 205 239
171 205 239
171 205 239
171 205 239
171 205 239
171 205 239
171 205 239
171 205 239
171 205 239
171 205 239
171 205 239
171 205 239
171 205 239
170 204 238
170 204 238
167 204 237
0 160 174
0 135 156
0 132 166
0 129 173
0 127 178
0 125 183
0 124 187
0 122 190
0 121 194
0 120 196
0 119 199
0 118 202
0 117 204
0 116 206
0 115 208
0 115 210
0 114 211
0 114 213
0 113 214
0 113 216
0 112 217
0 111 218
0 111 219
0 111 220
0 110 221
0 110 222
0 110 223
0 109 224
0 109 225
0 109 226
0 109 226
0 108 227
0 108 228
0 108 228
0 107 229
0 107 229
0 107 230
0 107 230
0 107 230
0 107 231
0 107 231
0 107 231
0 107 231
0 106 232
0 106 232
0 106 232
0 106 232
0 106 232
0 106 232
1 106 232
3 106 232
6 106 232
8 106 232
11 107 232
13 106 232
16 107 231
18 106 231
21 107 231
23 107 231
26 107 230
28 107 230
31 107 230
33 107 229
36 108 229
39 108 228
41 108 228
44 108 227
46 109 226
49 109 226
52 109 225
54 109 224
57 110 223
60 110 222
63 110 221
65 111 220
68 111 219
71 112 218
74 112 217
77 113 216
80 113 214
83 114 213
86 114 211
89 115 210
93 116 208
96 116 206
99 117 204
103 118 202
106 119 199
110 120 196
114 121 194
118 122 190
122 123 187
127 125 183
131 127 178
136 129 173
142 132 166
149 135 157
162 160 174
170 204 237
170 204 238
170 204 238
171 205 239
171 205 239
171 205 239
171 205 239
171 205 239
171 205 239
171 205 239
171 205 239
171 205 239
171 205 239
171 205 239
171 205 239
171 205 239
171 205 239
172 205 239
172 205 239
172 205 239
172 205 239
172 205 239
172 205 239
172 205 239
172 205 239
172 205 239
172 205 239
172 206 239
172 206 239
172 206 239
172 206 239
172 206 239
173 206 239
173 206 239
173 206 239
173 206 239
173 206 239
173 206 239
173 206 239
173 206 239
173 206 239
173 206 239
173 206 239
173 206 239
173 206 239
174 206 239
174 206 239
174 206 239
174 206 239
174 206 239
174 207 239
174 207 239
174 207 239
174 207 239
174 207 239
174 207 239
174 207 239
174 207 239
174 207 239
175 207 239
175 207 239
175 207 239
175 207 239
175 207 239
175 207 239
175 207 239
175 207 239
175 207 239
175 207 239
175 207 239
175 207 239
175 207 239
175 207 239
175 207 239
176 208 240
176 208 240
176 208 240
176 208 240
176 208 240
176 208 240
176 208 240
176 208 240
176 208 240
176 208 240
176 208 240
176 208 240
176 208 240
176 208 240
176 208 240
177 208 240
177 208 240
177 208 240
177 208 240
177 208 240
177 208 240
177 208 240
177 208 240
177 208 240
177 208 240
177 208 240
177 208 240
177 209 240
177 209 240
177 209 240
177 209 240
177 209 240
177 209 240
178 209 240
178 209 240
178 209 240
178 209 240
178 209 240
178 209 240
178 209 240
178 209 240
178 209 240
178 209 240
178 209 240
178 209 240
178 209 240
178 209 240
178 209 240
178 209 240
178 209 240
178 209 240
179 209 240
179 209 240
179 209 240
179 209 240
179 209 240
179 209 240
179 209 240
179 210 240
179 210 240
179 210 240
179 210 240
179 210 240
179 210 240
179 210 240
179 210 240
179 210 240
179 210 240
179 210 240
179 210 240
179 210 240
179 210 240
180 210 240
180 210 240
180 210 240
180 210 240
180 210 240
180 210 240
180 210 240
180 210 240
180 210 240
180 210 240
180 210 240
180 210 240
180 210 240
180 210 240
180 210 240
180 210 240
179 210 240
179 210 240
179 210 240
179 210 240
179 210 240
179 210 240
179 210 240
179 210 240
179 210 240
179 210 240
179 210 240
179 210 240
179 210 240
179 210 240
179 209 240
179 209 240
179 209 240
179 209 240
179 209 240
179 209 240
179 209 240
178 209 240
178 209 240
178 209 240
178 209 240
178 209 240
178 209 240
178 209 240
178 209 240
178 209 240
178 209 240
178 209 240
178 209 240
178 209 240
178 209 240
178 209 240
178 209 240
178 209 240
178 209 240
177 209 240
177 209 240
177 209 240
177 209 240
177 209 240
177 209 240
177 208 240
177 208 240
177 208 240
177 208 240
177 208 240
177 208 240
177 208 240
177 208 240
177 208 240
177 208 240
177 208 240
176 208 240
176 208 240
176 208 240
176 208 240
176 208 240
176 208 240
176 208 240
176 208 240
176 208 240
176 208 240
176 208 240
176 208 240
176 208 240
176 208 240
176 208 240
176 208 240
175 207 239
175 207 239
175 207 239
175 207 239
175 207 239
175 207 239
175 207 239
175 207 239
175 207 239
175 207 239
175 207 239
175 207 239
175 207 239
175 207 239
174 207 239
174 207 239
174 207 239
174 207 239
174 207 239
174 207 239
174 207 239
174 207 239
174 207 239
174 207 239
174 206 239
174 206 239
174 206 239
174 206 239
173 206 239
173 206 239
173 206 239
173 206 239
173 206 239
173 206 239
173 206 239
173 206 239
173 206 239
173 206 239
173 206 239
173 206 239
173 206 239
173 206 239
172 206 239
172 206 239
172 206 239
172 206 239
172 206 239
172 205 239
172 205 239
172 205 239
172 205 239
172 205 239
172 205 239
172 205 239
172 205 239
172 205 239
172 205 239
171 205 239
171 205 239
171 205 239
171 205 239
171 205 239
171 205 239
171 205 239
171 205 239
171 205 239
171 205 239
0 168 187
0 132 155
0 129 165
0 126 172
0 124 178
0 122 183
0 121 187
0 119 191
0 118 194
0 117 197
0 116 199
0 115 202
0 114 204
0 114 206
0 113 208
0 112 210
0 112 212
0 111 213
0 110 215
0 110 216
0 109 218
0 109 219
0 108 220
0 108 221
0 108 222
0 107 223
0 107 224
0 106 225
0 106 226
0 106 226
0 106 227
0 105 228
0 105 229
0 105 229
0 105 230
0 104 230
0 104 231
0 104 231
0 104 231
0 104 232
0 104 232
0 104 232
0 104 233
0 104 233
0 104 233
0 103 233
0 103 233
0 103 233
0 103 233
0 103 234
1 103 234
3 103 234
6 103 233
8 103 233
10 103 233
13 103 233
16 103 233
18 104 233
21 104 232
23 104 232
26 104 232
28 104 231
31 104 231
33 104 231
36 105 230
38 105 230
41 105 229
44 105 228
46 105 228
49 106 227
51 106 226
54 106 226
57 107 225
60 107 224
62 107 223
65 107 222
68 108 221
71 108 220
73 109 219
76 109 218
80 110 216
83 110 215
85 111 213
89 111 212
92 112 210
95 113 208
99 113 206
102 114 204
105 115 202
109 116 199
113 117 197
117 118 194
121 119 190
125 121 187
130 122 182
134 124 178
140 126 172
146 129 165
153 132 155
166 169 187
171 205 239
171 205 239
171 205 239
171 205 239
171 205 239
171 205 239
171 205 239
171 205 239
171 205 239
171 205 239
171 205 239
172 205 239
172 205 239
172 205 239
172 205 239
172 205 239
172 205 239
172 205 239
172 205 239
172 205 239
172 206 239
172 206 239
172 206 239
172 206 239
172 206 239
173 206 239
173 206 239
173 206 239
173 206 239
173 206 239
173 206 239
173 206 239
173 206 239
173 206 239
173 206 239
173 206 239
173 206 239
173 206 239
173 206 239
174 206 239
174 206 239
174 206 239
174 206 239
174 206 239
174 207 239
174 207 239
174 207 239
174 207 239
174 207 239
174 207 239
174 207 239
174 207 239
174 207 239
175 207 239
175 207 239
175 207 239
175 207 239
175 207 239
175 207 239
175 207 239
175 207 239
175 207 239
175 207 239
175 207 239
175 207 239
175 207 239
175 207 239
175 207 239
176 208 240
176 208 240
176 208 240
176 208 240
176 208 240
176 208 240
176 208 240
176 208 240
176 208 240
176 208 240
176 208 240
176 208 240
176 208 240
176 208 240
176 208 240
177 208 240
177 208 240
177 208 240
177 208 240
177 208 240
177 208 240
177 208 240
177 208 240
177 208 240
177 208 240
177 208 240
177 209 240
177 209 240
177 209 240
177 209 240
177 209 240
177 209 240
178 209 240
178 209 240
178 209 240
178 209 240
178 209 240
178 209 240
178 209 240
178 209 240
178 209 240
178 209 240
178 209 240
178 209 240
178 209 240
178 209 240
178 209 240
178 209 240
178 209 240
178 209 240
179 209 240
179 209 240
179 209 240
179 209 240
179 209 240
179 209 240
179 209 240
179 210 240
179 210 240
179 210 240
179 210 240
179 210 240
179 210 240
179 210 240
179 210 240
179 210 240
179 210 240
179 210 240
179 210 240
179 210 240
179 210 240
180 210 240
180 210 240
180 210 240
180 210 240
180 210 240
180 210 240
180 210 240
180 210 240
180 210 240
180 210 240
180 210 240
180 210 240
180 210 240
180 210 240
180 210 240
180 210 240
180 210 240
180 210 240
180 210 240
180 210 240
180 210 240
180 210 240
180 210 240
180 210 240
180 210 240
180 210 240
180 210 240
180 210 240
179 210 240
179 210 240
179 210 240
179 210 240
179 210 240
179 210 240
179 210 240
179 210 240
179 210 240
179 210 240
179 210 240
179 210 240
179 210 240
179 210 240
179 209 240
179 209 240
179 209 240
179 209 240
179 209 240
179 209 240
178 209 240
178 209 240
178 209 240
178 209 240
178 209 240
178 209 240
178 209 240
178 209 240
178 209 240
178 209 240
178 209 240
178 209 240
178 209 240
178 209 240
178 209 240
178 209 240
178 209 240
178 209 240
178 209 240
177 209 240
177 209 240
177 209 240
177 209 240
177 209 240
177 209 240
177 208 240
177 208 240
177 208 240
177 208 240
177 208 240
177 208 240
177 208 240
177 208 240
177 208 240
177 208 240
176 208 240
176 208 240
176 208 240
176 208 240
176 208 240
176 208 240
176 208 240
176 208 240
176 208 240
176 208 240
176 208 240
176 208 240
176 208 240
176 208 240
176 208 240
176 208 240
175 207 239
175 207 239
175 207 239
175 207 239
175 207 239
175 207 239
175 207 239
175 207 239
175 207 239
175 207 239
175 207 239
175 207 239
175 207 239
175 207 239
174 207 239
174 207 239
174 207 239
174 207 239
174 207 239
174 207 239
174 207 239
174 207 239
174 207 239
174 207 239
174 206 239
174 206 239
174 206 239
174 206 239
174 206 239
173 206 239
173 206 239
173 206 239
173 206 239
173 206 239
173 206 239
173 206 239
173 206 239
173 206 239
173 206 239
173 206 239
173 206 239
173 206 239
173 206 239
173 206 239
172 206 239
172 206 239
172 206 239
172 206 239
172 205 239
172 205 239
172 205 239
172 205 239
172 205 239
172 205 239
172 205 239
172 205 239
172 205 239
172 205 239
171 205 239
171 205 239
171 205 239
63 182 207
0 130 153
0 126 164
0 123 171
0 121 177
0 119 183
0 118 186
0 117 190
0 115 194
0 114 197
0 113 200
0 112 202
0 111 204
0 111 206
0 110 208
0 109 210
0 109 212
0 108 214
0 108 215
0 107 217
0 106 218
0 106 219
0 105 221
0 105 222
0 105 223
0 104 224
0 104 225
0 104 226
0 103 226
0 103 227
0 103 228
0 103 229
0 102 229
0 102 230
0 102 230
0 102 231
0 101 232
0 101 232
0 101 232
0 101 233
0 101 233
0 101 233
0 101 234
0 101 234
0 101 234
0 100 234
0 100 235
0 100 235
0 101 235
0 100 235
0 100 235
1 100 235
3 100 235
6 100 235
8 101 235
11 100 234
13 101 234
16 101 234
18 101 234
20 101 234
23 101 233
26 101 233
28 101 233
30 101 232
33 101 232
36 101 232
38 102 231
41 102 230
43 102 230
46 103 229
48 103 229
51 103 228
54 103 227
57 103 226
59 104 225
62 104 225
65 105 224
68 105 223
70 105 222
73 105 221
76 106 219
79 106 218
82 107 217
85 107 215
88 108 214
91 109 212
94 109 210
98 110 209
101 111 206
105 111 204
108 112 202
112 113 200
116 114 197
120 115 193
124 117 190
128 118 186
133 120 182
138 122 177
143 124 171
150 127 163
157 130 154
169 180 205
171 205 239
171 205 239
171 205 239
172 205 239
172 205 239
172 205 239
172 205 239
172 205 239
172 205 239
172 205 239
172 205 239
172 205 239
172 205 239
172 206 239
172 206 239
172 206 239
172 206 239
172 206 239
173 206 239
173 206 239
173 206 239
173 206 239
173 206 239
173 206 239
173 206 239
173 206 239
173 206 239
173 206 239
173 206 239
173 206 239
173 206 239
173 206 239
174 206 239
174 206 239
174 206 239
174 206 239
174 206 239
174 207 239
174 207 239
174 207 239
174 207 239
174 207 239
174 207 239
174 207 239
174 207 239
174 207 239
175 207 239
175 207 239
175 207 239
175 207 239
175 207 239
175 207 239
175 207 239
175 207 239
175 207 239
175 207 239
175 207 239
175 207 239
175 207 239
175 207 239
175 207 239
176 208 240
176 208 240
176 208 240
176 208 240
176 208 240
176 208 240
176 208 240
176 208 240
176 208 240
176 208 240
176 208 240
176 208 240
176 208 240
176 208 240
176 208 240
177 208 240
177 208 240
177 208 240
177 208 240
177 208 240
177 208 240
177 208 240
177 208 240
177 208 240
177 208 240
177 208 240
177 208 240
177 209 240
177 209 240
177 209 240
177 209 240
177 209 240
178 209 240
178 209 240
178 209 240
178 209 240
178 209 240
178 209 240
178 209 240
178 209 240
178 209 240
178 209 240
178 209 240
178 209 240
178 209 240
178 209 240
178 209 240
178 209 240
178 209 240
178 209 240
178 209 240
179 209 240
179 209 240
179 209 240
179 209 240
179 209 240
179 209 240
179 210 240
179 210 240
179 210 240
179 210 240
179 210 240
179 210 240
179 210 240
179 210 240
179 210 240
179 210 240
179 210 240
179 210 240
179 210 240
179 210 240
180 210 240
180 210 240
180 210 240
180 210 240
180 210 240
180 210 240
180 210 240
180 210 240
180 210 240
180 210 240
180 210 240
180 210 240
180 210 240
180 210 240
180 210 240
180 210 240
180 210 240
180 210 240
180 210 240
180 210 240
180 210 240
180 210 240
180 210 240
180 210 240
180 210 240
180 210 240
180 210 240
180 210 240
180 210 240
180 210 240
180 210 240
180 210 240
180 210 240
180 210 240
180 210 240
180 210 240
180 210 240
180 210 240
180 210 240
180 210 240
179 210 240
179 210 240
179 210 240
179 210 240
179 210 240
179 210 240
179 210 240
179 210 240
179 210 240
179 210 240
179 210 240
179 210 240
179 210 240
179 210 240
179 209 240
179 209 240
179 209 240
179 209 240
179 209 240
179 209 240
179 209 240
178 209 240
178 209 240
178 209 240
178 209 240
178 209 240
178 209 240
178 209 240
178 209 240
178 209 240
178 209 240
178 209 240
178 209 240
178 209 240
178 209 240
178 209 240
178 209 240
178 209 240
177 209 240
177 209 240
177 209 240
177 209 240
177 209 240
177 209 240
177 208 240
177 208 240
177 208 240
177 208 240
177 208 240
177 208 240
177 208 240
177 208 240
177 208 240
177 208 240
177 208 240
176 208 240
176 208 240
176 208 240
176 208 240
176 208 240
176 208 240
176 208 240
176 208 240
176 208 240
176 208 240
176 208 240
176 208 240
176 208 240
176 208 240
176 208 240
175 207 239
175 207 239
175 207 239
175 207 239
175 207 239
175 207 239
175 207 239
175 207 239
175 207 239
175 207 239
175 207 239
175 207 239
175 207 239
175 207 239
175 207 239
174 207 239
174 207 239
174 207 239
174 207 239
174 207 239
174 207 239
174 207 239
174 207 239
174 207 239
174 207 239
174 206 239
174 206 239
174 206 239
174 206 239
174 206 239
173 206 239
173 206 239
173 206 239
173 206 239
173 206 239
173 206 239
173 206 239
173 206 239
173 206 239
173 206 239
173 206 239
173 206 239
173 206 239
173 206 239
172 206 239
172 206 239
172 206 239
172 206 239
172 206 239
172 206 239
172 205 239
172 205 239
172 205 239
172 205 239
172 205 239
121 194 224
0 130 151
0 124 162
0 121 171
0 119 176
0 116 182
0 115 186
0 114 190
0 113 193
0 112 196
0 111 199
0 110 202
0 109 204
0 108 207
0 107 209
0 107 210
0 106 212
0 105 214
0 105 216
0 104 217
0 104 219
0 103 220
0 103 221
0 102 222
0 102 223
0 102 224
0 101 225
0 101 226
0 101 227
0 100 228
0 100 229
0 100 229
0 100 230
0 99 231
0 99 231
0 99 232
0 99 232
0 99 233
0 98 233
0 98 234
0 98 234
0 98 234
0 98 235
0 98 235
0 98 235
0 98 235
0 98 236
0 98 236
0 98 236
0 97 236
0 97 236
0 97 236
1 97 236
3 97 236
6 98 236
8 98 236
11 98 236
13 98 236
15 98 235
18 98 235
21 98 235
23 98 235
25 98 234
28 98 234
30 98 234
33 98 233
36 99 233
38 99 232
40 99 232
43 99 231
46 99 231
48 100 230
51 100 229
53 100 229
56 100 228
59 101 227
62 101 226
64 101 225
67 102 224
70 102 223
73 102 222
76 103 221
79 103 220
82 104 218
85 104 217
88 105 216
91 105 214
94 106 212
97 106 211
101 107 209
104 108 207
107 109 204
111 110 202
115 111 199
119 111 197
122 113 194
126 114 190
131 115 186
136 117 182
141 119 176
147 121 170
153 124 162
162 131 154
171 197 228
172 205 239
172 205 239
172 205 239
172 205 239
172 205 239
172 206 239
172 206 239
172 206 239
172 206 239
172 206 239
172 206 239
173 206 239
173 206 239
173 206 239
173 206 239
173 206 239
173 206 239
173 206 239
173 206 239
173 206 239
173 206 239
173 206 239
173 206 239
173 206 239
173 206 239
174 206 239
174 206 239
174 206 239
174 206 239
174 206 239
174 207 239
174 207 239
174 207 239
174 207 239
174 207 239
174 207 239
174 207 239
174 207 239
174 207 239
174 207 239
175 207 239
175 207 239
175 207 239
175 207 239
175 207 239
175 207 239
175 207 239
175 207 239
175 207 239
175 207 239
175 207 239
175 207 239
175 207 239
175 207 239
175 207 239
176 208 240
176 208 240
176 208 240
176 208 240
176 208 240
176 208 240
176 208 240
176 208 240
176 208 240
176 208 240
176 208 240
176 208 240
176 208 240
176 208 240
176 208 240
177 208 240
177 208 240
177 208 240
177 208 240
177 208 240
177 208 240
177 208 240
177 208 240
177 208 240
177 208 240
177 208 240
177 209 240
177 209 240
177 209 240
177 209 240
177 209 240
178 209 240
178 209 240
178 209 240
178 209 240
178 209 240
178 209 240
178 209 240
178 209 240
178 209 240
178 209 240
178 209 240
178 209 240
178 209 240
178 209 240
178 209 240
178 209 240
178 209 240
178 209 240
178 209 240
179 209 240
179 209 240
179 209 240
179 209 240
179 209 240
179 209 240
179 210 240
179 210 240
179 210 240
179 210 240
179 210 240
179 210 240
179 210 240
179 210 240
179 210 240
179 210 240
179 210 240
179 210 240
179 210 240
179 210 240
180 210 240
180 210 240
180 210 240
180 210 240
180 210 240
180 210 240
180 210 240
180 210 240
180 210 240
180 210 240
180 210 240
180 210 240
180 210 240
180 210 240
180 210 240
180 210 240
180 210 240
180 210 240
180 210 240
180 210 240
180 210 240
180 210 240
180 210 240
181 211 241
181 211 241
181 211 241
181 211 241
181 211 241
181 211 241
181 211 241
180 210 240
180 210 240
180 210 240
180 210 240
180 210 240
180 210 240
180 210 240
180 210 240
180 210 240
180 210 240
180 210 240
180 210 240
180 210 240
180 210 240
180 210 240
180 210 240
180 210 240
180 210 240
180 210 240
180 210 240
180 210 240
180 210 240
179 210 240
179 210 240
179 210 240
179 210 240
179 210 240
179 210 240
179 210 240
179 210 240
179 210 240
179 210 240
179 210 240
179 210 240
179 210 240
179 210 240
179 209 240
179 209 240
179 209 240
179 209 240
179 209 240
179 209 240
178 209 240
178 209 240
178 209 240
178 209 240
178 209 240
178 209 240
178 209 240
178 209 240
178 209 240
178 209 240
178 209 240
178 209 240
178 209 240
178 209 240
178 209 240
178 209 240
178 209 240
178 209 240
177 209 240
177 209 240
177 209 240
177 209 240
177 209 240
177 209 240
177 208 240
177 208 240
177 208 240
177 208 240
177 208 240
177 208 240
177 208 240
177 208 240
177 208 240
177 208 240
177 208 240
176 208 240
176 208 240
176 208 240
176 208 240
176 208 240
176 208 240
176 208 240
176 208 240
176 208 240
176 208 240
176 208 240
176 208 240
176 208 240
176 208 240
176 208 240
175 207 239
175 207 239
175 207 239
175 207 239
175 207 239
175 207 239
175 207 239
175 207 239
175 207 239
175 207 239
175 207 239
175 207 239
175 207 239
175 207 239
175 207 239
174 207 239
174 207 239
174 207 239
174 207 239
174 207 239
174 207 239
174 207 239
174 207 239
174 207 239
174 207 239
174 206 239
174 206 239
174 206 239
174 206 239
174 206 239
173 206 239
173 206 239
173 206 239
173 206 239
173 206 239
173 206 239
173 206 239
173 206 239
173 206 239
173 206 239
173 206 239
173 206 239
173 206 239
173 206 239
173 206 239
173 206 239
172 206 239
172 206 239
151 201 233
0 134 156
0 121 161
0 118 169
0 116 175
0 114 181
0 112 186
0 111 189
0 110 193
0 109 196
0 108 199
0 107 202
0 106 204
0 105 207
0 104 209
0 104 211
0 103 213
0 103 214
0 102 216
0 101 217
0 101 219
0 100 220
0 100 221
0 100 223
0 99 224
0 99 225
0 99 226
0 98 227
0 98 228
0 98 228
0 97 229
0 97 230
0 97 231
0 97 231
0 96 232
0 96 232
0 96 233
0 96 234
0 96 234
0 95 234
0 96 235
0 95 235
0 95 236
0 95 236
0 95 236
0 95 236
0 95 237
0 95 237
0 95 237
0 95 237
0 95 237
0 95 237
0 94 237
1 94 237
3 95 237
6 95 237
8 95 237
10 95 237
13 95 237
16 95 237
18 95 236
20 95 236
23 95 236
25 95 235
28 95 235
30 96 235
33 95 235
35 96 234
38 96 234
40 96 233
43 96 232
45 96 232
48 97 231
51 97 231
53 97 230
56 98 229
59 98 228
61 98 228
64 98 227
67 99 226
70 99 225
72 99 224
75 100 223
78 100 221
81 100 220
84 101 219
87 102 217
90 102 216
93 102 214
96 103 213
100 104 211
103 105 209
106 105 207
110 106 204
114 107 202
117 108 199
121 109 196
125 110 193
130 111 190
134 112 186
139 114 181
144 116 176
150 118 169
157 121 160
167 132 154
172 201 233
172 206 239
172 206 239
173 206 239
173 206 239
173 206 239
173 206 239
173 206 239
173 206 239
173 206 239
173 206 239
173 206 239
173 206 239
173 206 239
173 206 239
173 206 239
173 206 239
173 206 239
173 206 239
174 206 239
174 206 239
174 206 239
174 206 239
174 206 239
174 207 239
174 207 239
174 207 239
174 207 239
174 207 239
174 207 239
174 207 239
174 207 239
174 207 239
174 207 239
175 207 239
175 207 239
175 207 239
175 207 239
175 207 239
175 207 239
175 207 239
175 207 239
175 207 239
175 207 239
175 207 239
175 207 239
175 207 239
175 207 239
175 207 239
176 208 240
176 208 240
176 208 240
176 208 240
176 208 240
176 208 240
176 208 240
176 208 240
176 208 240
176 208 240
176 208 240
176 208 240
176 208 240
176 208 240
176 208 240
177 208 240
177 208 240
177 208 240
177 208 240
177 208 240
177 208 240
177 208 240
177 208 240
177 208 240
177 208 240
177 208 240
177 209 240
177 209 240
177 209 240
177 209 240
177 209 240
177 209 240
178 209 240
178 209 240
178 209 240
178 209 240
178 209 240
178 209 240
178 209 240
178 209 240
178 209 240
178 209 240
178 209 240
178 209 240
178 209 240
178 209 240
178 209 240
178 209 240
178 209 240
179 209 240
179 209 240
179 209 240
179 209 240
179 209 240
179 209 240
179 209 240
179 210 240
179 210 240
179 210 240
179 210 240
179 210 240
179 210 240
179 210 240
179 210 240
179 210 240
179 210 240
179 210 240
179 210 240
179 210 240
179 210 240
180 210 240
180 210 240
180 210 240
180 210 240
180 210 240
180 210 240
180 210 240
180 210 240
180 210 240
180 210 240
180 210 240
180 210 240
180 210 240
180 210 240
180 210 240
180 210 240
180 210 240
180 210 240
180 210 240
180 210 240
180 210 240
180 210 240
181 211 241
181 211 241
181 211 241
181 211 241
181 211 241
181 211 241
181 211 241
181 211 241
181 211 241
181 211 241
181 211 241
181 211 241
181 211 241
181 211 241
181 211 241
181 211 241
181 211 241
181 211 241
181 211 241
181 211 241
181 211 241
180 210 240
180 210 240
180 210 240
180 210 240
180 210 240
180 210 240
180 210 240
180 210 240
180 210 240
180 210 240
180 210 240
180 210 240
180 210 240
180 210 240
180 210 240
180 210 240
180 210 240
180 210 240
180 210 240
180 210 240
180 210 240
180 210 240
179 210 240
179 210 240
179 210 240
179 210 240
179 210 240
179 210 240
179 210 240
179 210 240
179 210 240
179 210 240
179 210 240
179 210 240
179 210 240
179 209 240
179 209 240
179 209 240
179 209 240
179 209 240
179 209 240
178 209 240
178 209 240
178 209 240
178 209 240
178 209 240
178 209 240
178 209 240
178 209 240
178 209 240
178 209 240
178 209 240
178 209 240
178 209 240
178 209 240
178 209 240
178 209 240
178 209 240
178 209 240
177 209 240
177 209 240
177 209 240
177 209 240
177 209 240
177 209 240
177 208 240
177 208 240
177 208 240
177 208 240
177 208 240
177 208 240
177 208 240
177 208 240
177 208 240
177 208 240
177 208 240
176 208 240
176 208 240
176 208 240
176 208 240
176 208 240
176 208 240
176 208 240
176 208 240
176 208 240
176 208 240
176 208 240
176 208 240
176 208 240
176 208 240
176 208 240
175 207 239
175 207 239
175 207 239
175 207 239
175 207 239
175 207 239
175 207 239
175 207 239
175 207 239
175 207 239
175 207 239
175 207 239
175 207 239
175 207 239
175 207 239
174 207 239
174 207 239
174 207 239
174 207 239
174 207 239
174 207 239
174 207 239
174 207 239
174 207 239
174 207 239
174 206 239
174 206 239
174 206 239
174 206 239
174 206 239
174 206 239
173 206 239
173 206 239
173 206 239
173 206 239
173 206 239
173 206 239
173 206 239
173 206 239
173 206 239
173 206 239
173 206 239
0 149 173
0 119 157
0 116 167
0 113 175
0 111 180
0 110 185
0 108 189
0 107 193
0 106 196
0 105 199
0 104 202
0 103 204
0 102 207
0 102 209
0 101 211
0 100 213
0 100 214
0 99 216
0 99 218
0 98 219
0 98 220
0 97 222
0 97 223
0 97 224
0 96 225
0 96 226
0 96 227
0 95 228
0 95 229
0 95 230
0 94 231
0 94 231
0 94 232
0 94 233
0 93 233
0 93 234
0 93 234
0 93 235
0 93 235
0 93 236
0 92 236
0 92 236
0 92 237
0 92 237
0 92 237
0 92 237
0 92 238
0 92 238
0 92 238
0 92 238
0 92 238
0 92 238
0 92 238
1 92 238
3 92 238
6 92 238
8 92 238
10 92 238
13 92 238
15 92 238
18 92 237
20 92 237
23 92 237
25 92 237
28 92 236
30 93 236
33 93 236
35 93 235
38 93 235
40 93 234
43 93 234
45 94 233
48 94 233
50 94 232
53 94 231
56 94 231
58 95 230
61 95 229
64 95 228
67 96 227
69 96 226
72 96 225
75 97 224
78 97 223
81 98 222
84 98 220
87 98 219
90 99 218
93 99 216
96 100 214
99 101 213
102 101 211
106 102 209
109 103 207
113 103 204
117 104 202
120 105 199
124 106 196
128 107 193
133 108 189
138 110 185
142 111 180
148 113 175
154 116 167
162 119 157
171 147 170
173 206 239
173 206 239
173 206 239
173 206 239
173 206 239
173 206 239
173 206 239
173 206 239
173 206 239
173 206 239
173 206 239
174 206 239
174 206 239
174 206 239
174 206 239
174 206 239
174 206 239
174 207 239
174 207 239
174 207 239
174 207 239
174 207 239
174 207 239
174 207 239
174 207 239
174 207 239
174 207 239
175 207 239
175 207 239
175 207 239
175 207 239
175 207 239
175 207 239
175 207 239
175 207 239
175 207 239
175 207 239
175 207 239
175 207 239
175 207 239
175 207 239
175 207 239
176 208 240
176 208 240
176 208 240
176 208 240
176 208 240
176 208 240
176 208 240
176 208 240
176 208 240
176 208 240
176 208 240
176 208 240
176 208 240
176 208 240
176 208 240
177 208 240
177 208 240
177 208 240
177 208 240
177 208 240
177 208 240
177 208 240
177 208 240
177 208 240
177 208 240
177 208 240
177 209 240
177 209 240
177 209 240
177 209 240
177 209 240
177 209 240
178 209 240
178 209 240
178 209 240
178 209 240
178 209 240
178 209 240
178 209 240
178 209 240
178 209 240
178 209 240
178 209 240
178 209 240
178 209 240
178 209 240
178 209 240
178 209 240
178 209 240
179 209 240
179 209 240
179 209 240
179 209 240
179 209 240
179 209 240
179 209 240
179 210 240
179 210 240
179 210 240
179 210 240
179 210 240
179 210 240
179 210 240
179 210 240
179 210 240
179 210 240
179 210 240
179 210 240
179 210 240
180 210 240
180 210 240
180 210 240
180 210 240
180 210 240
180 210 240
180 210 240
180 210 240
180 210 240
180 210 240
180 210 240
180 210 240
180 210 240
180 210 240
180 210 240
180 210 240
180 210 240
180 210 240
180 210 240
180 210 240
180 210 240
180 210 240
180 210 240
181 211 241
181 211 241
181 211 241
181 211 241
181 211 241
181 211 241
181 211 241
181 211 241
181 211 241
181 211 241
181 211 241
181 211 241
181 211 241
181 211 241
181 211 241
181 211 241
181 211 241
181 211 241
181 211 241
181 211 241
181 211 241
181 211 241
181 211 241
181 211 241
181 211 241
181 211 241
181 211 241
181 211 241
181 211 241
181 211 241
181 211 241
181 211 241
181 211 241
180 210 240
180 210 240
180 210 240
180 210 240
180 210 240
180 210 240
180 210 240
180 210 240
180 210 240
180 210 240
180 210 240
180 210 240
180 210 240
180 210 240
180 210 240
180 210 240
180 210 240
180 210 240
180 210 240
180 210 240
180 210 240
180 210 240
179 210 240
179 210 240
179 210 240
179 210 240
179 210 240
179 210 240
179 210 240
179 210 240
179 210 240
179 210 240
179 210 240
179 210 240
179 210 240
179 209 240
179 209 240
179 209 240
179 209 240
179 209 240
179 209 240
179 209 240
178 209 240
178 209 240
178 209 240
178 209 240
178 209 240
178 209 240
178 209 240
178 209 240
178 209 240
178 209 240
178 209 240
178 209 240
178 209 240
178 209 240
178 209 240
178 209 240
178 209 240
177 209 240
177 209 240
177 209 240
177 209 240
177 209 240
177 209 240
177 208 240
177 208 240
177 208 240
177 208 240
177 208 240
177 208 240
177 208 240
177 208 240
177 208 240
177 208 240
177 208 240
176 208 240
176 208 240
176 208 240
176 208 240
176 208 240
176 208 240
176 208 240
176 208 240
176 208 240
176 208 240
176 208 240
176 208 240
176 208 240
176 208 240
176 208 240
176 208 240
175 207 239
175 207 239
175 207 239
175 207 239
175 207 239
175 207 239
175 207 239
175 207 239
175 207 239
175 207 239
175 207 239
175 207 239
175 207 239
175 207 239
175 207 239
174 207 239
174 207 239
174 207 239
174 207 239
174 207 239
174 207 239
174 207 239
174 207 239
174 207 239
174 207 239
174 206 239
174 206 239
174 206 239
174 206 239
174 206 239
174 206 239
173 206 239
173 206 239
173 206 239
33 172 199
0 117 154
0 113 165
0 111 172
0 109 179
0 108 183
0 106 188
0 105 192
0 103 196
0 102 199
0 101 201
0 101 204
0 100 206
0 99 209
0 99 211
0 98 213
0 97 214
0 97 216
0 96 218
0 96 219
0 95 221
0 95 222
0 94 223
0 94 224
0 93 225
0 93 226
0 93 227
0 92 229
0 92 229
0 92 230
0 92 231
0 91 232
0 91 232
0 91 233
0 91 234
0 91 234
0 90 235
0 90 235
0 90 236
0 90 236
0 90 237
0 90 237
0 90 237
0 90 238
0 89 238
0 89 238
0 89 239
0 89 239
0 89 239
0 89 239
0 89 239
0 89 239
0 89 239
0 89 239
1 89 239
3 89 239
6 89 239
8 89 239
10 89 239
13 89 239
15 89 239
18 89 239
20 89 238
23 89 238
25 90 238
28 90 237
30 90 237
33 90 237
35 90 236
38 90 236
40 90 235
43 90 235
45 91 234
48 91 234
50 91 233
53 91 232
55 92 232
58 92 231
61 92 230
63 92 229
66 93 228
69 93 227
72 93 227
75 94 225
77 94 224
80 94 223
83 95 222
86 95 221
89 96 219
92 96 218
95 97 216
99 97 214
102 98 213
105 98 211
109 99 209
112 100 206
116 101 204
119 101 202
123 102 199
127 104 195
132 104 192
136 106 188
141 107 184
146 109 179
152 111 173
158 114 165
167 118 153
174 172 200
173 206 239
173 206 239
173 206 239
174 206 239
174 206 239
174 206 239
174 206 239
174 206 239
174 206 239
174 207 239
174 207 239
174 207 239
174 207 239
174 207 239
174 207 239
174 207 239
174 207 239
174 207 239
174 207 239
174 207 239
175 207 239
175 207 239
175 207 239
175 207 239
175 207 239
175 207 239
175 207 239
175 207 239
175 207 239
175 207 239
175 207 239
175 207 239
175 207 239
175 207 239
175 207 239
176 208 240
176 208 240
176 208 240
176 208 240
176 208 240
176 208 240
176 208 240
176 208 240
176 208 240
176 208 240
176 208 240
176 208 240
176 208 240
176 208 240
176 208 240
177 208 240
177 208 240
177 208 240
177 208 240
177 208 240
177 208 240
177 208 240
177 208 240
177 208 240
177 208 240
177 208 240
177 209 240
177 209 240
177 209 240
177 209 240
177 209 240
177 209 240
178 209 240
178 209 240
178 209 240
178 209 240
178 209 240
178 209 240
178 209 240
178 209 240
178 209 240
178 209 240
178 209 240
178 209 240
178 209 240
178 209 240
178 209 240
178 209 240
178 209 240
178 209 240
179 209 240
179 209 240
179 209 240
179 209 240
179 209 240
179 210 240
179 210 240
179 210 240
179 210 240
179 210 240
179 210 240
179 210 240
179 210 240
179 210 240
179 210 240
179 210 240
179 210 240
179 210 240
179 210 240
180 210 240
180 210 240
180 210 240
180 210 240
180 210 240
180 210 240
180 210 240
180 210 240
180 210 240
180 210 240
180 210 240
180 210 240
180 210 240
180 210 240
180 210 240
180 210 240
180 210 240
180 210 240
180 210 240
180 210 240
180 210 240
180 210 240
181 211 241
181 211 241
181 211 241
181 211 241
181 211 241
181 211 241
181 211 241
181 211 241
181 211 241
181 211 241
181 211 241
181 211 241
181 211 241
181 211 241
181 211 241
181 211 241
181 211 241
181 211 241
181 211 241
181 211 241
182 211 241
182 211 241
181 211 241
181 211 241
181 211 241
181 211 241
181 211 241
181 211 241
181 211 241
181 211 241
181 211 241
181 211 241
181 211 241
181 211 241
181 211 241
181 211 241
181 211 241
181 211 241
181 211 241
181 211 241
181 211 241
181 211 241
181 211 241
181 211 241
181 211 241
181 211 241
181 211 241
180 210 240
180 210 240
180 210 240
180 210 240
180 210 240
180 210 240
180 210 240
180 210 240
180 210 240
180 210 240
180 210 240
180 210 240
180 210 240
180 210 240
180 210 240
180 210 240
180 210 240
180 210 240
180 210 240
180 210 240
180 210 240
180 210 240
179 210 240
179 210 240
179 210 240
179 210 240
179 210 240
179 210 240
179 210 240
179 210 240
179 210 240
179 210 240
179 210 240
179 210 240
179 210 240
179 209 240
179 209 240
179 209 240
179 209 240
179 209 240
179 209 240
178 209 240
178 209 240
178 209 240
178 209 240
178 209 240
178 209 240
178 209 240
178 209 240
178 209 240
178 209 240
178 209 240
178 209 240
178 209 240
178 209 240
178 209 240
178 209 240
178 209 240
177 209 240
177 209 240
177 209 240
177 209 240
177 209 240
177 209 240
177 208 240
177 208 240
177 208 240
177 208 240
177 208 240
177 208 240
177 208 240
177 208 240
177 208 240
177 208 240
176 208 240
176 208 240
176 208 240
176 208 240
176 208 240
176 208 240
176 208 240
176 208 240
176 208 240
176 208 240
176 208 240
176 208 240
176 208 240
176 208 240
176 208 240
176 208 240
176 208 240
175 207 239
175 207 239
175 207 239
175 207 239
175 207 239
175 207 239
175 207 239
175 207 239
175 207 239
175 207 239
175 207 239
175 207 239
175 207 239
175 207 239
175 207 239
174 207 239
174 207 239
174 207 239
174 207 239
174 207 239
174 207 239
174 207 239
174 207 239
174 207 239
174 207 239
174 207 239
174 207 239
138 198 229
0 117 149
0 111 162
0 109 170
0 106 177
0 105 183
0 103 187
0 102 191
0 101 195
0 100 198
0 99 201
0 98 204
0 97 206
0 97 208
0 96 210
0 95 213
0 95 214
0 94 216
0 93 218
0 93 219
0 93 221
0 92 222
0 92 223
0 91 224
0 91 226
0 91 227
0 90 228
0 90 229
0 90 230
0 89 231
0 89 231
0 89 232
0 89 233
0 88 234
0 88 234
0 88 235
0 88 235
0 88 236
0 88 236
0 87 237
0 87 237
0 87 238
0 87 238
0 87 239
0 87 239
0 87 239
0 87 239
0 87 240
0 86 240
0 86 240
0 86 240
0 86 240
0 86 240
0 86 240
0 86 240
1 86 240
3 86 240
6 86 240
8 86 240
10 86 240
13 86 240
15 86 240
18 87 240
20 87 239
22 87 239
25 87 239
27 87 239
30 87 238
32 87 238
35 87 237
37 87 237
40 88 236
42 88 236
45 88 235
48 88 235
50 88 234
53 88 234
55 89 233
58 89 232
61 89 231
63 89 231
66 90 230
69 90 229
71 90 228
74 91 227
77 91 226
80 91 224
83 92 223
86 92 222
89 93 221
92 93 219
95 94 218
98 94 216
101 95 214
104 95 213
108 96 210
111 97 208
115 97 206
119 98 203
122 99 201
126 100 198
130 101 195
135 102 191
139 103 187
145 105 182
149 106 177
156 109 170
163 111 162
172 120 154
174 202 234
174 207 239
174 207 239
174 207 239
174 207 239
174 207 239
174 207 239
174 207 239
174 207 239
174 207 239
174 207 239
174 207 239
175 207 239
175 207 239
175 207 239
175 207 239
175 207 239
175 207 239
175 207 239
175 207 239
175 207 239
175 207 239
175 207 239
175 207 239
175 207 239
175 207 239
175 207 239
175 207 239
176 208 240
176 208 240
176 208 240
176 208 240
176 208 240
176 208 240
176 208 240
176 208 240
176 208 240
176 208 240
176 208 240
176 208 240
176 208 240
176 208 240
176 208 240
176 208 240
177 208 240
177 208 240
177 208 240
177 208 240
177 208 240
177 208 240
177 208 240
177 208 240
177 208 240
177 208 240
177 208 240
177 209 240
177 209 240
177 209 240
177 209 240
177 209 240
178 209 240
178 209 240
178 209 240
178 209 240
178 209 240
178 209 240
178 209 240
178 209 240
178 209 240
178 209 240
178 209 240
178 209 240
178 209 240
178 209 240
178 209 240
178 209 240
178 209 240
178 209 240
179 209 240
179 209 240
179 209 240
179 209 240
179 209 240
179 209 240
179 210 240
179 210 240
179 210 240
179 210 240
179 210 240
179 210 240
179 210 240
179 210 240
179 210 240
179 210 240
179 210 240
179 210 240
179 210 240
180 210 240
180 210 240
180 210 240
180 210 240
180 210 240
180 210 240
180 210 240
180 210 240
180 210 240
180 210 240
180 210 240
180 210 240
180 210 240
180 210 240
180 210 240
180 210 240
180 210 240
180 210 240
180 210 240
180 210 240
180 210 240
180 210 240
180 210 240
181 211 241
181 211 241
181 211 241
181 211 241
181 211 241
181 211 241
181 211 241
181 211 241
181 211 241
181 211 241
181 211 241
181 211 241
181 211 241
181 211 241
181 211 241
181 211 241
181 211 241
181 211 241
181 211 241
181 211 241
181 211 241
181 211 241
181 211 241
181 211 241
182 211 241
182 211 241
182 211 241
182 211 241
182 211 241
182 211 241
182 211 241
182 211 241
182 211 241
182 211 241
182 211 241
181 211 241
181 211 241
181 211 241
181 211 241
181 211 241
181 211 241
181 211 241
181 211 241
181 211 241
181 211 241
181 211 241
181 211 241
181 211 241
181 211 241
181 211 241
181 211 241
181 211 241
181 211 241
181 211 241
181 211 241
181 211 241
181 211 241
181 211 241
181 211 241
180 210 240
180 210 240
180 210 240
180 210 240
180 210 240
180 210 240
180 210 240
180 210 240
180 210 240
180 210 240
180 210 240
180 210 240
180 210 240
180 210 240
180 210 240
180 210 240
180 210 240
180 210 240
180 210 240
180 210 240
180 210 240
180 210 240
179 210 240
179 210 240
179 210 240
179 210 240
179 210 240
179 210 240
179 210 240
179 210 240
179 210 240
179 210 240
179 210 240
179 210 240
179 210 240
179 209 240
179 209 240
179 209 240
179 209 240
179 209 240
179 209 240
179 209 240
178 209 240
178 209 240
178 209 240
178 209 240
178 209 240
178 209 240
178 209 240
178 209 240
178 209 240
178 209 240
178 209 240
178 209 240
178 209 240
178 209 240
178 209 240
178 209 240
178 209 240
177 209 240
177 209 240
177 209 240
177 209 240
177 209 240
177 208 240
177 208 240
177 208 240
177 208 240
177 208 240
177 208 240
177 208 240
177 208 240
177 208 240
177 208 240
177 208 240
176 208 240
176 208 240
176 208 240
176 208 240
176 208 240
176 208 240
176 208 240
176 208 240
176 208 240
176 208 240
176 208 240
176 208 240
176 208 240
176 208 240
176 208 240
176 208 240
175 207 239
175 207 239
175 207 239
175 207 239
175 207 239
175 207 239
175 207 239
175 207 239
175 207 239
175 207 239
175 207 239
175 207 239
175 207 239
175 207 239
175 207 239
175 207 239
175 207 239
174 207 239
174 207 239
174 207 239
174 207 239
0 139 170
0 110 158
0 106 168
0 104 175
0 102 181
0 101 186
0 99 190
0 98 194
0 97 197
0 96 200
0 95 203
0 95 205
0 94 208
0 93 210
0 93 212
0 92 214
0 91 216
0 91 218
0 90 219
0 90 221
0 89 222
0 89 223
0 89 225
0 88 226
0 88 227
0 88 228
0 87 229
0 87 230
0 87 231
0 86 232
0 86 233
0 86 233
0 86 234
0 86 235
0 85 235
0 85 236
0 85 236
0 85 237
0 85 237
0 84 238
0 85 238
0 84 239
0 84 239
0 84 239
0 84 240
0 84 240
0 84 240
0 84 241
0 84 241
0 84 241
0 84 241
0 84 241
0 84 241
0 84 241
0 84 241
1 84 241
3 84 241
6 84 241
8 84 241
10 84 241
13 84 241
15 84 241
18 84 241
20 84 240
22 84 240
25 84 240
27 84 240
30 84 239
32 84 239
35 85 238
37 84 238
40 85 238
42 85 237
45 85 237
47 85 236
50 86 235
52 85 235
55 86 234
58 86 233
60 86 233
63 87 232
66 87 231
68 87 230
71 87 229
74 88 228
77 88 227
79 88 226
82 89 225
85 89 223
88 89 222
91 90 221
94 91 219
97 91 218
101 91 216
104 92 214
107 93 212
111 93 210
114 94 208
118 94 206
122 96 203
126 96 200
129 97 197
134 98 194
138 99 190
142 101 186
148 102 181
153 104 176
160 106 168
168 109 158
176 148 180
174 206 238
174 207 239
174 207 239
174 207 239
175 207 239
175 207 239
175 207 239
175 207 239
175 207 239
175 207 239
175 207 239
175 207 239
175 207 239
175 207 239
175 207 239
175 207 239
175 207 239
175 207 239
175 207 239
175 207 239
176 208 240
176 208 240
176 208 240
176 208 240
176 208 240
176 208 240
176 208 240
176 208 240
176 208 240
176 208 240
176 208 240
176 208 240
176 208 240
176 208 240
176 208 240
176 208 240
176 208 240
177 208 240
177 208 240
177 208 240
177 208 240
177 208 240
177 208 240
177 208 240
177 208 240
177 208 240
177 208 240
177 208 240
177 209 240
177 209 240
177 209 240
177 209 240
177 209 240
178 209 240
178 209 240
178 209 240
178 209 240
178 209 240
178 209 240
178 209 240
178 209 240
178 209 240
178 209 240
178 209 240
178 209 240
178 209 240
178 209 240
178 209 240
178 209 240
178 209 240
178 209 240
179 209 240
179 209 240
179 209 240
179 209 240
179 209 240
179 209 240
179 210 240
179 210 240
179 210 240
179 210 240
179 210 240
179 210 240
179 210 240
179 210 240
179 210 240
179 210 240
179 210 240
179 210 240
179 210 240
180 210 240
180 210 240
180 210 240
180 210 240
180 210 240
180 210 240
180 210 240
180 210 240
180 210 240
180 210 240
180 210 240
180 210 240
180 210 240
180 210 240
180 210 240
180 210 240
180 210 240
180 210 240
180 210 240
180 210 240
180 210 240
181 211 241
181 211 241
181 211 241
181 211 241
181 211 241
181 211 241
181 211 241
181 211 241
181 211 241
181 211 241
181 211 241
181 211 241
181 211 241
181 211 241
181 211 241
181 211 241
181 211 241
181 211 241
181 211 241
181 211 241
181 211 241
181 211 241
181 211 241
181 211 241
182 211 241
182 211 241
182 211 241
182 211 241
182 211 241
182 211 241
182 211 241
182 211 241
182 211 241
182 211 241
182 211 241
182 211 241
182 211 241
182 211 241
182 211 241
182 211 241
182 211 241
182 211 241
182 211 241
182 211 241
182 211 241
182 211 241
182 211 241
182 211 241
182 211 241
182 211 241
182 211 241
181 211 241
181 211 241
181 211 241
181 211 241
181 211 241
181 211 241
181 211 241
181 211 241
181 211 241
181 211 241
181 211 241
181 211 241
181 211 241
181 211 241
181 211 241
181 211 241
181 211 241
181 211 241
181 211 241
181 211 241
181 211 241
181 211 241
181 211 241
181 211 241
180 210 240
180 210 240
180 210 240
180 210 240
180 210 240
180 210 240
180 210 240
180 210 240
180 210 240
180 210 240
180 210 240
180 210 240
180 210 240
180 210 240
180 210 240
180 210 240
180 210 240
180 210 240
180 210 240
180 210 240
180 210 240
179 210 240
179 210 240
179 210 240
179 210 240
179 210 240
179 210 240
179 210 240
179 210 240
179 210 240
179 210 240
179 210 240
179 210 240
179 210 240
179 209 240
179 209 240
179 209 240
179 209 240
179 209 240
179 209 240
178 209 240
178 209 240
178 209 240
178 209 240
178 209 240
178 209 240
178 209 240
178 209 240
178 209 240
178 209 240
178 209 240
178 209 240
178 209 240
178 209 240
178 209 240
178 209 240
178 209 240
177 209 240
177 209 240
177 209 240
177 209 240
177 209 240
177 209 240
177 208 240
177 208 240
177 208 240
177 208 240
177 208 240
177 208 240
177 208 240
177 208 240
177 208 240
177 208 240
177 208 240
176 208 240
176 208 240
176 208 240
176 208 240
176 208 240
176 208 240
176 208 240
176 208 240
176 208 240
176 208 240
176 208 240
176 208 240
176 208 240
176 208 240
176 208 240
176 208 240
176 208 240
175 207 239
175 207 239
175 207 239
175 207 239
175 207 239
175 207 239
175 207 239
175 207 239
175 207 239
175 207 239
175 207 239
175 207 239
35 170 201
0 108 154
0 104 165
0 102 173
0 100 179
0 98 184
0 97 189
0 96 193
0 95 196
0 94 199
0 93 202
0 92 205
0 91 208
0 91 210
0 90 212
0 89 214
0 89 216
0 88 217
0 88 219
0 87 221
0 87 222
0 87 224
0 86 225
0 86 226
0 85 227
0 85 228
0 85 229
0 84 230
0 84 231
0 84 232
0 84 233
0 83 234
0 83 234
0 83 235
0 83 236
0 83 236
0 83 237
0 82 238
0 82 238
0 82 238
0 82 239
0 82 239
0 82 240
0 82 240
0 81 240
0 81 241
0 81 241
0 81 241
0 81 242
0 81 242
0 81 242
0 81 242
0 81 242
0 81 242
0 81 242
0 81 242
1 81 242
3 81 242
5 81 242
8 81 242
10 81 242
13 81 242
15 81 242
17 81 242
20 81 241
22 81 241
25 81 241
27 82 240
30 81 240
32 82 240
35 82 239
37 82 239
40 82 239
42 82 238
45 82 237
47 82 237
50 83 236
52 83 236
55 83 235
57 83 234
60 83 234
63 84 233
65 84 232
68 84 231
71 85 230
74 85 229
76 85 228
79 86 227
82 86 226
85 86 225
88 87 223
91 87 222
94 87 221
97 88 219
100 88 217
103 89 216
107 90 214
110 90 212
114 91 210
117 91 208
121 92 205
125 93 202
129 94 199
133 95 196
137 96 193
142 97 189
146 98 185
152 100 179
157 102 173
165 105 164
173 108 153
177 174 206
175 207 239
175 207 239
175 207 239
175 207 239
175 207 239
175 207 239
175 207 239
175 207 239
175 207 239
175 207 239
175 207 239
175 207 239
176 208 240
176 208 240
176 208 240
176 208 240
176 208 240
176 208 240
176 208 240
176 208 240
176 208 240
176 208 240
176 208 240
176 208 240
176 208 240
176 208 240
176 208 240
176 208 240
176 208 240
177 208 240
177 208 240
177 208 240
177 208 240
177 208 240
177 208 240
177 208 240
177 208 240
177 208 240
177 208 240
177 208 240
177 209 240
177 209 240
177 209 240
177 209 240
177 209 240
178 209 240
178 209 240
178 209 240
178 209 240
178 209 240
178 209 240
178 209 240
178 209 240
178 209 240
178 209 240
178 209 240
178 209 240
178 209 240
178 209 240
178 209 240
178 209 240
178 209 240
178 209 240
179 209 240
179 209 240
179 209 240
179 209 240
179 209 240
179 209 240
179 210 240
179 210 240
179 210 240
179 210 240
179 210 240
179 210 240
179 210 240
179 210 240
179 210 240
179 210 240
179 210 240
179 210 240
179 210 240
180 210 240
180 210 240
180 210 240
180 210 240
180 210 240
180 210 240
180 210 240
180 210 240
180 210 240
180 210 240
180 210 240
180 210 240
180 210 240
180 210 240
180 210 240
180 210 240
180 210 240
180 210 240
180 210 240
180 210 240
180 210 240
181 211 241
181 211 241
181 211 241
181 211 241
181 211 241
181 211 241
181 211 241
181 211 241
181 211 241
181 211 241
181 211 241
181 211 241
181 211 241
181 211 241
181 211 241
181 211 241
181 211 241
181 211 241
181 211 241
181 211 241
181 211 241
181 211 241
181 211 241
181 211 241
182 211 241
182 211 241
182 211 241
182 211 241
182 211 241
182 211 241
182 211 241
182 211 241
182 211 241
182 211 241
182 211 241
182 211 241
182 211 241
182 211 241
182 211 241
182 211 241
182 211 241
182 212 241
182 212 241
182 212 241
182 212 241
182 212 241
182 212 241
182 211 241
182 211 241
182 211 241
182 211 241
182 211 241
182 211 241
182 211 241
182 211 241
182 211 241
182 211 241
182 211 241
182 211 241
182 211 241
182 211 241
182 211 241
182 211 241
182 211 241
182 211 241
181 211 241
181 211 241
181 211 241
181 211 241
181 211 241
181 211 241
181 211 241
181 211 241
181 211 241
181 211 241
181 211 241
181 211 241
181 211 241
181 211 241
181 211 241
181 211 241
181 211 241
181 211 241
181 211 241
181 211 241
181 211 241
181 211 241
181 211 241
181 211 241
180 210 240
180 210 240
180 210 240
180 210 240
180 210 240
180 210 240
180 210 240
180 210 240
180 210 240
180 210 240
180 210 240
180 210 240
180 210 240
180 210 240
180 210 240
180 210 240
180 210 240
180 210 240
180 210 240
180 210 240
180 210 240
179 210 240
179 210 240
179 210 240
179 210 240
179 210 240
179 210 240
179 210 240
179 210 240
179 210 240
179 210 240
179 210 240
179 210 240
179 210 240
179 209 240
179 209 240
179 209 240
179 209 240
179 209 240
178 209 240
178 209 240
178 209 240
178 209 240
178 209 240
178 209 240
178 209 240
178 209 240
178 209 240
178 209 240
178 209 240
178 209 240
178 209 240
178 209 240
178 209 240
178 209 240
178 209 240
178 209 240
177 209 240
177 209 240
177 209 240
177 209 240
177 209 240
177 209 240
177 208 240
177 208 240
177 208 240
177 208 240
177 208 240
177 208 240
177 208 240
177 208 240
177 208 240
177 208 240
177 208 240
176 208 240
176 208 240
176 208 240
176 208 240
176 208 240
176 208 240
176 208 240
176 208 240
176 208 240
176 208 240
176 208 240
176 208 240
176 208 240
176 208 240
176 208 240
176 208 240
176 208 240
176 208 240
175 207 239
175 207 239
175 207 239
146 199 231
0 115 153
0 102 161
0 100 170
0 97 178
0 96 183
0 94 188
0 93 191
0 92 195
0 91 199
0 90 202
0 90 205
0 89 207
0 88 209
0 88 212
0 87 213
0 86 215
0 86 217
0 85 219
0 85 221
0 84 222
0 84 223
0 84 225
0 83 226
0 83 227
0 83 228
0 82 229
0 82 230
0 82 231
0 81 232
0 81 233
0 81 234
0 81 235
0 81 235
0 80 236
0 80 237
0 80 237
0 80 238
0 79 239
0 80 239
0 79 239
0 79 240
0 79 240
0 79 241
0 79 241
0 79 241
0 79 242
0 79 242
0 79 242
0 78 242
0 78 243
0 78 243
0 78 243
0 78 243
0 78 243
0 78 243
0 78 243
1 78 243
3 78 243
6 78 243
8 78 243
10 78 243
13 78 243
15 78 243
18 79 242
20 79 242
22 79 242
25 79 242
27 79 241
29 79 241
32 79 241
34 79 240
37 79 240
39 79 239
42 79 239
44 80 238
47 80 238
49 80 237
52 80 237
55 80 236
57 80 235
60 81 235
62 81 234
65 81 233
68 81 232
70 82 231
73 82 230
76 82 229
79 83 228
82 83 227
85 83 226
88 84 225
90 84 223
93 85 222
96 85 221
100 85 219
103 86 217
106 86 215
110 87 213
113 87 212
116 88 209
120 89 207
124 90 204
128 90 202
132 91 199
136 92 195
140 93 192
145 95 187
150 96 183
155 97 178
161 100 171
169 102 161
179 120 159
176 200 232
175 207 239
175 207 239
175 207 239
175 207 239
176 208 240
176 208 240
176 208 240
176 208 240
176 208 240
176 208 240
176 208 240
176 208 240
176 208 240
176 208 240
176 208 240
176 208 240
176 208 240
176 208 240
176 208 240
176 208 240
176 208 240
177 208 240
177 208 240
177 208 240
177 208 240
177 208 240
177 208 240
177 208 240
177 208 240
177 208 240
177 208 240
177 208 240
177 209 240
177 209 240
177 209 240
177 209 240
177 209 240
177 209 240
178 209 240
178 209 240
178 209 240
178 209 240
178 209 240
178 209 240
178 209 240
178 209 240
178 209 240
178 209 240
178 209 240
178 209 240
178 209 240
178 209 240
178 209 240
178 209 240
178 209 240
179 209 240
179 209 240
179 209 240
179 209 240
179 209 240
179 209 240
179 209 240
179 210 240
179 210 240
179 210 240
179 210 240
179 210 240
179 210 240
179 210 240
179 210 240
179 210 240
179 210 240
179 210 240
179 210 240
180 210 240
180 210 240
180 210 240
180 210 240
180 210 240
180 210 240
180 210 240
180 210 240
180 210 240
180 210 240
180 210 240
180 210 240
180 210 240
180 210 240
180 210 240
180 210 240
180 210 240
180 210 240
180 210 240
180 210 240
180 210 240
181 211 241
181 211 241
181 211 241
181 211 241
181 211 241
181 211 241
181 211 241
181 211 241
181 211 241
181 211 241
181 211 241
181 211 241
181 211 241
181 211 241
181 211 241
181 211 241
181 211 241
181 211 241
181 211 241
181 211 241
181 211 241
181 211 241
181 211 241
182 211 241
182 211 241
182 211 241
182 211 241
182 211 241
182 211 241
182 211 241
182 211 241
182 211 241
182 211 241
182 211 241
182 211 241
182 211 241
182 211 241
182 211 241
182 211 241
182 211 241
182 211 241
182 211 241
182 212 241
182 212 241
182 212 241
182 212 241
182 212 241
182 212 241
183 212 241
183 212 241
183 212 241
183 212 241
183 212 241
182 212 241
182 212 241
182 212 241
182 212 241
182 212 241
182 212 241
182 212 241
182 212 241
182 212 241
182 212 241
182 211 241
182 211 241
182 211 241
182 211 241
182 211 241
182 211 241
182 211 241
182 211 241
182 211 241
182 211 241
182 211 241
182 211 241
182 211 241
182 211 241
182 211 241
182 211 241
182 211 241
181 211 241
181 211 241
181 211 241
181 211 241
181 211 241
181 211 241
181 211 241
181 211 241
181 211 241
181 211 241
181 211 241
181 211 241
181 211 241
181 211 241
181 211 241
181 211 241
181 211 241
181 211 241
181 211 241
181 211 241
181 211 241
181 211 241
181 211 241
180 210 240
180 210 240
180 210 240
180 210 240
180 210 240
180 210 240
180 210 240
180 210 240
180 210 240
180 210 240
180 210 240
180 210 240
180 210 240
180 210 240
180 210 240
180 210 240
180 210 240
180 210 240
180 210 240
180 210 240
180 210 240
179 210 240
179 210 240
179 210 240
179 210 240
179 210 240
179 210 240
179 210 240
179 210 240
179 210 240
179 210 240
179 210 240
179 210 240
179 210 240
179 209 240
179 209 240
179 209 240
179 209 240
179 209 240
178 209 240
178 209 240
178 209 240
178 209 240
178 209 240
178 209 240
178 209 240
178 209 240
178 209 240
178 209 240
178 209 240
178 209 240
178 209 240
178 209 240
178 209 240
178 209 240
178 209 240
178 209 240
177 209 240
177 209 240
177 209 240
177 209 240
177 209 240
177 209 240
177 208 240
177 208 240
177 208 240
177 208 240
177 208 240
177 208 240
177 208 240
177 208 240
177 208 240
177 208 240
177 208 240
177 208 240
176 208 240
176 208 240
176 208 240
176 208 240
176 208 240
176 208 240
176 208 240
176 208 240
176 208 240
176 208 240
176 208 240
176 208 240
176 208 240
0 149 184
0 100 157
0 98 167
0 95 175
0 93 181
0 92 186
0 91 190
0 90 194
0 89 198
0 88 201
0 87 204
0 86 206
0 86 209
0 85 211
0 84 213
0 84 215
0 83 217
0 83 219
0 82 220
0 82 222
0 82 223
0 81 225
0 81 226
0 80 227
0 80 228
0 80 229
0 79 230
0 79 231
0 79 232
0 79 233
0 79 234
0 78 235
0 78 236
0 78 236
0 78 237
0 77 238
0 77 238
0 77 239
0 77 239
0 77 240
0 77 240
0 77 241
0 76 241
0 76 242
0 76 242
0 76 242
0 76 243
0 76 243
0 76 243
0 76 243
0 76 243
0 76 244
0 76 244
0 76 244
0 76 244
0 76 244
0 76 244
1 76 244
3 76 244
5 76 244
8 76 244
10 76 244
13 76 244
15 76 243
17 76 243
20 76 243
22 76 243
25 76 243
27 76 242
29 76 242
32 76 242
34 76 241
37 77 241
39 77 240
42 77 240
44 77 239
47 77 239
49 77 238
52 77 238
54 78 237
57 78 236
60 78 236
62 78 235
65 78 234
67 79 233
70 79 232
73 79 231
76 79 230
78 80 229
81 80 228
84 80 227
87 81 226
90 81 225
93 81 223
96 82 222
99 82 220
102 83 219
106 83 217
109 84 215
112 84 213
116 85 211
119 86 209
123 86 206
127 87 204
131 88 201
135 89 198
139 90 194
143 91 191
148 92 186
154 93 181
160 95 175
167 98 167
175 101 155
180 157 192
176 208 240
176 208 240
176 208 240
176 208 240
176 208 240
176 208 240
176 208 240
176 208 240
176 208 240
176 208 240
176 208 240
176 208 240
176 208 240
177 208 240
177 208 240
177 208 240
177 208 240
177 208 240
177 208 240
177 208 240
177 208 240
177 208 240
177 208 240
177 208 240
177 208 240
177 209 240
177 209 240
177 209 240
177 209 240
177 209 240
177 209 240
178 209 240
178 209 240
178 209 240
178 209 240
178 209 240
178 209 240
178 209 240
178 209 240
178 209 240
178 209 240
178 209 240
178 209 240
178 209 240
178 209 240
178 209 240
178 209 240
178 209 240
178 209 240
179 209 240
179 209 240
179 209 240
179 209 240
179 209 240
179 209 240
179 210 240
179 210 240
179 210 240
179 210 240
179 210 240
179 210 240
179 210 240
179 210 240
179 210 240
179 210 240
179 210 240
179 210 240
180 210 240
180 210 240
180 210 240
180 210 240
180 210 240
180 210 240
180 210 240
180 210 240
180 210 240
180 210 240
180 210 240
180 210 240
180 210 240
180 210 240
180 210 240
180 210 240
180 210 240
180 210 240
180 210 240
180 210 240
180 210 240
181 211 241
181 211 241
181 211 241
181 211 241
181 211 241
181 211 241
181 211 241
181 211 241
181 211 241
181 211 241
181 211 241
181 211 241
181 211 241
181 211 241
181 211 241
181 211 241
181 211 241
181 211 241
181 211 241
181 211 241
181 211 241
181 211 241
181 211 241
182 211 241
182 211 241
182 211 241
182 211 241
182 211 241
182 211 241
182 211 241
182 211 241
182 211 241
182 211 241
182 211 241
182 211 241
182 211 241
182 211 241
182 211 241
182 211 241
182 211 241
182 212 241
182 212 241
182 212 241
182 212 241
182 212 241
182 212 241
182 212 241
182 212 241
182 212 241
182 212 241
183 212 241
183 212 241
183 212 241
183 212 241
183 212 241
183 212 241
183 212 241
183 212 241
183 212 241
183 212 241
183 212 241
183 212 241
183 212 241
183 212 241
183 212 241
183 212 241
183 212 241
183 212 241
182 212 241
182 212 241
182 212 241
182 212 241
182 212 241
182 212 241
182 212 241
182 212 241
182 212 241
182 211 241
182 211 241
182 211 241
182 211 241
182 211 241
182 211 241
182 211 241
182 211 241
182 211 241
182 211 241
182 211 241
182 211 241
182 211 241
182 211 241
182 211 241
182 211 241
182 211 241
181 211 241
181 211 241
181 211 241
181 211 241
181 211 241
181 211 241
181 211 241
181 211 241
181 211 241
181 211 241
181 211 241
181 211 241
181 211 241
181 211 241
181 211 241
181 211 241
181 211 241
181 211 241
181 211 241
181 211 241
181 211 241
181 211 241
181 211 241
180 210 240
180 210 240
180 210 240
180 210 240
180 210 240
180 210 240
180 210 240
180 210 240
180 210 240
180 210 240
180 210 240
180 210 240
180 210 240
180 210 240
180 210 240
180 210 240
180 210 240
180 210 240
180 210 240
180 210 240
180 210 240
179 210 240
179 210 240
179 210 240
179 210 240
179 210 240
179 210 240
179 210 240
179 210 240
179 210 240
179 210 240
179 210 240
179 210 240
179 210 240
179 209 240
179 209 240
179 209 240
179 209 240
179 209 240
179 209 240
178 209 240
178 209 240
178 209 240
178 209 240
178 209 240
178 209 240
178 209 240
178 209 240
178 209 240
178 209 240
178 209 240
178 209 240
178 209 240
178 209 240
178 209 240
178 209 240
178 209 240
178 209 240
177 209 240
177 209 240
177 209 240
177 209 240
177 209 240
177 209 240
177 208 240
177 208 240
177 208 240
177 208 240
177 208 240
177 208 240
177 208 240
177 208 240
177 208 240
177 208 240
177 208 240
177 208 240
176 208 240
176 208 240
176 208 240
176 208 240
140 197 229
0 101 151
0 95 163
0 93 172
0 91 179
0 90 184
0 89 188
0 87 193
0 86 196
0 85 200
0 85 203
0 84 206
0 83 208
0 82 210
0 82 213
0 81 214
0 81 216
0 80 218
0 80 220
0 79 222
0 79 223
0 79 224
0 78 226
0 78 227
0 78 228
0 77 229
0 77 230
0 77 231
0 76 232
0 76 233
0 76 234
0 76 235
0 75 236
0 75 237
0 75 237
0 75 238
0 75 239
0 75 239
0 74 240
0 74 240
0 74 241
0 74 241
0 74 242
0 74 242
0 74 242
0 74 243
0 74 243
0 73 243
0 74 244
0 73 244
0 73 244
0 73 244
0 73 244
0 73 244
0 73 245
0 73 245
0 73 245
0 73 245
1 73 245
3 73 245
5 73 245
8 73 245
10 73 244
13 73 244
15 73 244
17 73 244
20 73 244
22 73 244
24 73 243
27 73 243
29 73 243
32 74 242
34 74 242
37 74 242
39 74 241
42 74 241
44 74 240
47 74 240
49 74 239
52 75 238
54 75 238
57 75 237
59 75 237
62 75 236
65 76 235
67 76 234
70 76 233
73 76 232
75 77 231
78 77 231
81 77 229
84 78 228
87 78 227
90 78 226
93 79 225
96 79 223
99 79 222
102 80 220
105 80 218
108 81 217
112 81 215
115 82 212
119 82 211
122 83 208
126 84 205
130 85 203
134 85 200
138 86 196
143 88 193
147 89 188
152 90 184
158 91 179
164 93 172
171 95 163
180 101 153
178 192 224
176 208 240
176 208 240
176 208 240
176 208 240
177 208 240
177 208 240
177 208 240
177 208 240
177 208 240
177 208 240
177 208 240
177 208 240
177 208 240
177 208 240
177 208 240
177 208 240
177 209 240
177 209 240
177 209 240
177 209 240
177 209 240
177 209 240
178 209 240
178 209 240
178 209 240
178 209 240
178 209 240
178 209 240
178 209 240
178 209 240
178 209 240
178 209 240
178 209 240
178 209 240
178 209 240
178 209 240
178 209 240
178 209 240
178 209 240
178 209 240
179 209 240
179 209 240
179 209 240
179 209 240
179 209 240
179 209 240
179 209 240
179 210 240
179 210 240
179 210 240
179 210 240
179 210 240
179 210 240
179 210 240
179 210 240
179 210 240
179 210 240
179 210 240
179 210 240
180 210 240
180 210 240
180 210 240
180 210 240
180 210 240
180 210 240
180 210 240
180 210 240
180 210 240
180 210 240
180 210 240
180 210 240
180 210 240
180 210 240
180 210 240
180 210 240
180 210 240
180 210 240
180 210 240
180 210 240
180 210 240
181 211 241
181 211 241
181 211 241
181 211 241
181 211 241
181 211 241
181 211 241
181 211 241
181 211 241
181 211 241
181 211 241
181 211 241
181 211 241
181 211 241
181 211 241
181 211 241
181 211 241
181 211 241
181 211 241
181 211 241
181 211 241
181 211 241
181 211 241
182 211 241
182 211 241
182 211 241
182 211 241
182 211 241
182 211 241
182 211 241
182 211 241
182 211 241
182 211 241
182 211 241
182 211 241
182 211 241
182 211 241
182 211 241
182 211 241
182 212 241
182 212 241
182 212 241
182 212 241
182 212 241
182 212 241
182 212 241
182 212 241
182 212 241
182 212 241
183 212 241
183 212 241
183 212 241
183 212 241
183 212 241
183 212 241
183 212 241
183 212 241
183 212 241
183 212 241
183 212 241
183 212 241
183 212 241
183 212 241
183 212 241
183 212 241
183 212 241
183 212 241
183 212 241
183 212 241
183 212 241
183 212 241
183 212 241
183 212 241
183 212 241
183 212 241
183 212 241
183 212 241
183 212 241
183 212 241
183 212 241
183 212 241
183 212 241
183 212 241
182 212 241
182 212 241
182 212 241
182 212 241
182 212 241
182 212 241
182 212 241
182 212 241
182 212 241
182 211 241
182 211 241
182 211 241
182 211 241
182 211 241
182 211 241
182 211 241
182 211 241
182 211 241
182 211 241
182 211 241
182 211 241
182 211 241
182 211 241
182 211 241
182 211 241
182 211 241
181 211 241
181 211 241
181 211 241
181 211 241
181 211 241
181 211 241
181 211 241
181 211 241
181 211 241
181 211 241
181 211 241
181 211 241
181 211 241
181 211 241
181 211 241
181 211 241
181 211 241
181 211 241
181 211 241
181 211 241
181 211 241
181 211 241
181 211 241
180 210 240
180 210 240
180 210 240
180 210 240
180 210 240
180 210 240
180 210 240
180 210 240
180 210 240
180 210 240
180 210 240
180 210 240
180 210 240
180 210 240
180 210 240
180 210 240
180 210 240
180 210 240
180 210 240
180 210 240
179 210 240
179 210 240
179 210 240
179 210 240
179 210 240
179 210 240
179 210 240
179 210 240
179 210 240
179 210 240
179 210 240
179 210 240
179 210 240
179 209 240
179 209 240
179 209 240
179 209 240
179 209 240
179 209 240
178 209 240
178 209 240
178 209 240
178 209 240
178 209 240
178 209 240
178 209 240
178 209 240
178 209 240
178 209 240
178 209 240
178 209 240
178 209 240
178 209 240
178 209 240
178 209 240
178 209 240
178 209 240
178 209 240
177 209 240
177 209 240
177 209 240
177 209 240
177 209 240
177 209 240
177 208 240
177 208 240
177 208 240
177 208 240
177 208 240
177 208 240
177 208 240
177 208 240
0 138 180
0 94 158
0 91 169
0 89 176
0 87 182
0 86 187
0 85 191
0 84 195
0 83 199
0 82 202
0 81 205
0 81 207
0 80 210
0 79 212
0 79 214
0 78 216
0 78 218
0 77 220
0 77 221
0 77 223
0 76 224
0 76 226
0 75 227
0 75 228
0 75 229
0 74 230
0 74 231
0 74 232
0 74 233
0 73 234
0 73 235
0 73 236
0 73 237
0 72 238
0 72 238
0 72 239
0 72 239
0 72 240
0 72 241
0 72 241
0 71 242
0 71 242
0 71 242
0 71 243
0 71 243
0 71 244
0 71 244
0 71 244
0 71 244
0 71 245
0 71 245
0 71 245
0 71 245
0 71 245
0 71 245
0 70 245
0 70 245
0 70 245
1 70 245
3 70 245
5 71 245
8 71 245
10 71 245
13 71 245
15 71 245
17 71 245
20 71 245
22 71 244
25 71 244
27 71 244
29 71 244
32 71 243
34 71 243
37 71 242
39 71 242
42 72 242
44 71 241
46 72 241
49 72 240
51 72 239
54 72 239
57 72 238
59 73 237
62 73 237
64 73 236
67 73 235
70 74 234
72 74 233
75 74 232
78 74 232
81 75 230
83 75 229
86 75 228
89 75 227
92 76 226
95 76 224
98 77 223
101 77 221
105 77 220
108 78 218
111 78 216
115 79 214
118 79 212
122 80 210
125 81 207
129 81 204
133 82 202
137 83 199
142 84 195
146 85 191
151 86 187
156 87 182
162 89 175
168 91 169
177 94 158
183 137 179
177 208 240
177 208 240
177 208 240
177 208 240
177 208 240
177 208 240
177 208 240
177 208 240
177 209 240
177 209 240
177 209 240
177 209 240
177 209 240
177 209 240
177 209 240
178 209 240
178 209 240
178 209 240
178 209 240
178 209 240
178 209 240
178 209 240
178 209 240
178 209 240
178 209 240
178 209 240
178 209 240
178 209 240
178 209 240
178 209 240
178 209 240
178 209 240
178 209 240
179 209 240
179 209 240
179 209 240
179 209 240
179 209 240
179 209 240
179 210 240
179 210 240
179 210 240
179 210 240
179 210 240
179 210 240
179 210 240
179 210 240
179 210 240
179 210 240
179 210 240
179 210 240
179 210 240
180 210 240
180 210 240
180 210 240
180 210 240
180 210 240
180 210 240
180 210 240
180 210 240
180 210 240
180 210 240
180 210 240
180 210 240
180 210 240
180 210 240
180 210 240
180 210 240
180 210 240
180 210 240
180 210 240
180 210 240
181 211 241
181 211 241
181 211 241
181 211 241
181 211 241
181 211 241
181 211 241
181 211 241
181 211 241
181 211 241
181 211 241
181 211 241
181 211 241
181 211 241
181 211 241
181 211 241
181 211 241
181 211 241
181 211 241
181 211 241
181 211 241
181 211 241
181 211 241
182 211 241
182 211 241
182 211 241
182 211 241
182 211 241
182 211 241
182 211 241
182 211 241
182 211 241
182 211 241
182 211 241
182 211 241
182 211 241
182 211 241
182 211 241
182 211 241
182 212 241
182 212 241
182 212 241
182 212 241
182 212 241
182 212 241
182 212 241
182 212 241
182 212 241
182 212 241
183 212 241
183 212 241
183 212 241
183 212 241
183 212 241
183 212 241
183 212 241
183 212 241
183 212 241
183 212 241
183 212 241
183 212 241
183 212 241
183 212 241
183 212 241
183 212 241
183 212 241
183 212 241
183 212 241
183 212 241
183 212 241
183 212 241
183 212 241
183 212 241
183 212 241
183 212 241
183 212 241
183 212 241
183 212 241
183 212 241
183 212 241
183 212 241
183 212 241
183 212 241
183 212 241
183 212 241
183 212 241
183 212 241
183 212 241
183 212 241
183 212 241
183 212 241
183 212 241
183 212 241
183 212 241
183 212 241
183 212 241
183 212 241
183 212 241
183 212 241
183 212 241
182 212 241
182 212 241
182 212 241
182 212 241
182 212 241
182 212 241
182 212 241
182 212 241
182 211 241
182 211 241
182 211 241
182 211 241
182 211 241
182 211 241
182 211 241
182 211 241
182 211 241
182 211 241
182 211 241
182 211 241
182 211 241
182 211 241
182 211 241
182 211 241
182 211 241
181 211 241
181 211 241
181 211 241
181 211 241
181 211 241
181 211 241
181 211 241
181 211 241
181 211 241
181 211 241
181 211 241
181 211 241
181 211 241
181 211 241
181 211 241
181 211 241
181 211 241
181 211 241
181 211 241
181 211 241
181 211 241
181 211 241
181 211 241
180 210 240
180 210 240
180 210 240
180 210 240
180 210 240
180 210 240
180 210 240
180 210 240
180 210 240
180 210 240
180 210 240
180 210 240
180 210 240
180 210 240
180 210 240
180 210 240
180 210 240
180 210 240
180 210 240
180 210 240
179 210 240
179 210 240
179 210 240
179 210 240
179 210 240
179 210 240
179 210 240
179 210 240
179 210 240
179 210 240
179 210 240
179 210 240
179 210 240
179 209 240
179 209 240
179 209 240
179 209 240
179 209 240
179 209 240
178 209 240
178 209 240
178 209 240
178 209 240
178 209 240
178 209 240
178 209 240
178 209 240
178 209 240
178 209 240
178 209 240
178 209 240
178 209 240
178 209 240
178 209 240
178 209 240
178 209 240
178 209 240
178 209 240
178 209 240
177 209 240
177 209 240
177 209 240
177 209 240
96 184 217
0 97 155
0 89 164
0 87 172
0 85 179
0 84 185
0 83 189
0 81 194
0 81 197
0 80 200
0 79 203
0 78 206
0 77 209
0 77 211
0 77 213
0 76 215
0 75 217
0 75 219
0 75 221
0 74 222
0 74 224
0 73 225
0 73 227
0 73 228
0 72 229
0 72 230
0 72 231
0 72 232
0 71 233
0 71 234
0 71 235
0 71 236
0 70 237
0 70 238
0 70 238
0 70 239
0 70 240
0 69 240
0 69 241
0 69 241
0 69 242
0 69 242
0 69 243
0 69 243
0 69 244
0 68 244
0 68 244
0 68 245
0 68 245
0 68 245
0 68 245
0 68 246
0 68 246
0 68 246
0 68 246
0 68 246
0 68 246
0 68 246
0 68 246
1 68 246
3 68 246
5 68 246
8 68 246
10 68 246
12 68 246
15 68 246
17 68 246
20 68 245
22 68 245
24 68 245
27 68 245
29 68 244
32 68 244
34 69 244
37 69 243
39 69 243
41 69 242
44 69 242
46 69 241
49 69 241
51 69 240
54 70 240
56 70 239
59 70 238
62 70 238
64 70 237
67 71 236
69 71 235
72 71 234
75 71 233
78 71 232
81 72 231
83 72 230
86 72 229
89 73 228
92 73 227
95 73 225
98 74 224
101 74 222
104 75 221
107 75 219
111 75 217
114 76 215
117 76 213
121 77 211
125 77 209
128 78 206
132 79 203
137 80 200
141 80 197
145 81 193
150 82 189
155 84 185
160 85 179
166 87 173
174 89 164
184 95 152
179 193 226
177 209 240
177 209 240
177 209 240
177 209 240
177 209 240
178 209 240
178 209 240
178 209 240
178 209 240
178 209 240
178 209 240
178 209 240
178 209 240
178 209 240
178 209 240
178 209 240
178 209 240
178 209 240
178 209 240
178 209 240
178 209 240
178 209 240
178 209 240
178 209 240
179 209 240
179 209 240
179 209 240
179 209 240
179 209 240
179 209 240
179 210 240
179 210 240
179 210 240
179 210 240
179 210 240
179 210 240
179 210 240
179 210 240
179 210 240
179 210 240
179 210 240
179 210 240
179 210 240
180 210 240
180 210 240
180 210 240
180 210 240
180 210 240
180 210 240
180 210 240
180 210 240
180 210 240
180 210 240
180 210 240
180 210 240
180 210 240
180 210 240
180 210 240
180 210 240
180 210 240
180 210 240
180 210 240
180 210 240
181 211 241
181 211 241
181 211 241
181 211 241
181 211 241
181 211 241
181 211 241
181 211 241
181 211 241
181 211 241
181 211 241
181 211 241
181 211 241
181 211 241
181 211 241
181 211 241
181 211 241
181 211 241
181 211 241
181 211 241
181 211 241
181 211 241
181 211 241
182 211 241
182 211 241
182 211 241
182 211 241
182 211 241
182 211 241
182 211 241
182 211 241
182 211 241
182 211 241
182 211 241
182 211 241
182 211 241
182 211 241
182 211 241
182 211 241
182 212 241
182 212 241
182 212 241
182 212 241
182 212 241
182 212 241
182 212 241
182 212 241
182 212 241
183 212 241
183 212 241
183 212 241
183 212 241
183 212 241
183 212 241
183 212 241
183 212 241
183 212 241
183 212 241
183 212 241
183 212 241
183 212 241
183 212 241
183 212 241
183 212 241
183 212 241
183 212 241
183 212 241
183 212 241
183 212 241
183 212 241
183 212 241
183 212 241
183 212 241
183 212 241
183 212 241
183 212 241
183 212 241
183 212 241
184 212 241
184 212 241
184 212 241
184 212 241
184 212 241
184 212 241
184 212 241
184 212 241
183 212 241
183 212 241
183 212 241
183 212 241
183 212 241
183 212 241
183 212 241
183 212 241
183 212 241
183 212 241
183 212 241
183 212 241
183 212 241
183 212 241
183 212 241
183 212 241
183 212 241
183 212 241
183 212 241
183 212 241
183 212 241
183 212 241
183 212 241
183 212 241
183 212 241
183 212 241
183 212 241
183 212 241
183 212 241
183 212 241
182 212 241
182 212 241
182 212 241
182 212 241
182 212 241
182 212 241
182 212 241
182 212 241
182 212 241
182 211 241
182 211 241
182 211 241
182 211 241
182 211 241
182 211 241
182 211 241
182 211 241
182 211 241
182 211 241
182 211 241
182 211 241
182 211 241
182 211 241
182 211 241
182 211 241
181 211 241
181 211 241
181 211 241
181 211 241
181 211 241
181 211 241
181 211 241
181 211 241
181 211 241
181 211 241
181 211 241
181 211 241
181 211 241
181 211 241
181 211 241
181 211 241
181 211 241
181 211 241
181 211 241
181 211 241
181 211 241
181 211 241
180 210 240
180 210 240
180 210 240
180 210 240
180 210 240
180 210 240
180 210 240
180 210 240
180 210 240
180 210 240
180 210 240
180 210 240
180 210 240
180 210 240
180 210 240
180 210 240
180 210 240
180 210 240
180 210 240
180 210 240
180 210 240
179 210 240
179 210 240
179 210 240
179 210 240
179 210 240
179 210 240
179 210 240
179 210 240
179 210 240
179 210 240
179 210 240
179 210 240
179 210 240
179 209 240
179 209 240
179 209 240
179 209 240
179 209 240
179 209 240
179 209 240
178 209 240
178 209 240
178 209 240
178 209 240
178 209 240
178 209 240
178 209 240
178 209 240
178 209 240
178 209 240
178 209 240
178 209 240
178 209 240
178 209 240
178 209 240
0 135 181
0 88 158
0 85 169
0 83 176
0 82 182
0 80 187
0 79 192
0 78 196
0 77 199
0 77 202
0 76 205
0 75 208
0 75 210
0 74 212
0 73 215
0 73 217
0 72 219
0 72 220
0 72 222
0 71 223
0 71 225
0 70 226
0 70 228
0 70 229
0 69 230
0 69 231
0 69 232
0 69 233
0 68 234
0 68 235
0 68 236
0 68 237
0 68 238
0 67 238
0 67 239
0 67 240
0 67 240
0 67 241
0 67 242
0 66 242
0 66 243
0 66 243
0 66 244
0 66 244
0 66 244
0 66 245
0 66 245
0 66 245
0 66 246
0 65 246
0 66 246
0 66 246
0 65 246
0 65 247
0 65 247
0 65 247
0 65 247
0 65 247
0 65 247
1 65 247
3 65 247
5 65 247
8 65 247
10 65 247
13 65 247
15 65 246
17 66 246
19 65 246
22 66 246
24 66 246
27 66 245
29 66 245
31 66 245
34 66 244
36 66 244
39 66 244
41 66 243
44 66 243
46 66 242
49 67 242
51 67 241
54 67 240
56 67 240
59 67 239
62 68 238
64 68 238
67 68 237
69 68 236
72 68 235
75 69 234
77 69 233
80 69 232
83 69 231
86 69 230
89 70 229
92 70 228
95 71 226
98 71 225
101 71 223
104 71 222
107 72 220
110 72 218
114 73 216
117 73 215
120 74 213
124 74 210
128 75 208
131 76 205
136 76 202
140 77 199
144 78 195
149 79 192
154 80 187
159 82 182
165 83 176
172 85 168
180 87 158
185 141 184
178 209 240
178 209 240
178 209 240
178 209 240
178 209 240
178 209 240
178 209 240
178 209 240
178 209 240
178 209 240
178 209 240
178 209 240
178 209 240
178 209 240
178 209 240
178 209 240
179 209 240
179 209 240
179 209 240
179 209 240
179 209 240
179 209 240
179 210 240
179 210 240
179 210 240
179 210 240
179 210 240
179 210 240
179 210 240
179 210 240
179 210 240
179 210 240
179 210 240
179 210 240
179 210 240
180 210 240
180 210 240
180 210 240
180 210 240
180 210 240
180 210 240
180 210 240
180 210 240
180 210 240
180 210 240
180 210 240
180 210 240
180 210 240
180 210 240
180 210 240
180 210 240
180 210 240
180 210 240
180 210 240
180 210 240
180 210 240
181 211 241
181 211 241
181 211 241
181 211 241
181 211 241
181 211 241
181 211 241
181 211 241
181 211 241
181 211 241
181 211 241
181 211 241
181 211 241
181 211 241
181 211 241
181 211 241
181 211 241
181 211 241
181 211 241
181 211 241
181 211 241
181 211 241
182 211 241
182 211 241
182 211 241
182 211 241
182 211 241
182 211 241
182 211 241
182 211 241
182 211 241
182 211 241
182 211 241
182 211 241
182 211 241
182 211 241
182 211 241
182 211 241
182 212 241
182 212 241
182 212 241
182 212 241
182 212 241
182 212 241
182 212 241
182 212 241
182 212 241
183 212 241
183 212 241
183 212 241
183 212 241
183 212 241
183 212 241
183 212 241
183 212 241
183 212 241
183 212 241
183 212 241
183 212 241
183 212 241
183 212 241
183 212 241
183 212 241
183 212 241
183 212 241
183 212 241
183 212 241
183 212 241
183 212 241
183 212 241
183 212 241
183 212 241
183 212 241
183 212 241
183 212 241
183 212 241
183 212 241
184 212 241
184 212 241
184 212 241
184 212 241
184 212 241
184 212 241
184 212 241
184 212 241
184 213 241
184 213 241
184 213 241
184 213 241
184 213 241
184 213 241
184 213 241
184 212 241
184 212 241
184 212 241
184 212 241
184 212 241
184 212 241
184 212 241
184 212 241
184 212 241
184 212 241
184 212 241
183 212 241
183 212 241
183 212 241
183 212 241
183 212 241
183 212 241
183 212 241
183 212 241
183 212 241
183 212 241
183 212 241
183 212 241
183 212 241
183 212 241
183 212 241
183 212 241
183 212 241
183 212 241
183 212 241
183 212 241
183 212 241
183 212 241
183 212 241
183 212 241
183 212 241
183 212 241
183 212 241
183 212 241
182 212 241
182 212 241
182 212 241
182 212 241
182 212 241
182 212 241
182 212 241
182 212 241
182 212 241
182 211 241
182 211 241
182 211 241
182 211 241
182 211 241
182 211 241
182 211 241
182 211 241
182 211 241
182 211 241
182 211 241
182 211 241
182 211 241
182 211 241
182 211 241
182 211 241
181 211 241
181 211 241
181 211 241
181 211 241
181 211 241
181 211 241
181 211 241
181 211 241
181 211 241
181 211 241
181 211 241
181 211 241
181 211 241
181 211 241
181 211 241
181 211 241
181 211 241
181 211 241
181 211 241
181 211 241
181 211 241
181 211 241
181 211 241
180 210 240
180 210 240
180 210 240
180 210 240
180 210 240
180 210 240
180 210 240
180 210 240
180 210 240
180 210 240
180 210 240
180 210 240
180 210 240
180 210 240
180 210 240
180 210 240
180 210 240
180 210 240
180 210 240
180 210 240
179 210 240
179 210 240
179 210 240
179 210 240
179 210 240
179 210 240
179 210 240
179 210 240
179 210 240
179 210 240
179 210 240
179 210 240
179 210 240
179 209 240
179 209 240
179 209 240
179 209 240
179 209 240
179 209 240
179 209 240
178 209 240
178 209 240
178 209 240
178 209 240
178 209 240
178 209 240
163 204 236
0 91 154
0 83 163
0 81 173
0 79 179
0 78 185
0 77 190
0 76 194
0 75 198
0 74 201
0 73 204
0 73 207
0 72 209
0 71 212
0 71 214
0 70 216
0 70 218
0 70 220
0 69 221
0 69 223
0 68 225
0 68 226
0 68 227
0 68 229
0 67 230
0 67 231
0 67 232
0 66 233
0 66 234
0 66 235
0 66 236
0 65 237
0 65 238
0 65 238
0 65 239
0 65 240
0 65 241
0 64 241
0 64 242
0 64 242
0 64 243
0 64 243
0 64 244
0 64 244
0 64 245
0 63 245
0 64 245
0 63 246
0 63 246
0 63 246
0 63 246
0 63 247
0 63 247
0 63 247
0 63 247
0 63 247
0 63 247
0 63 247
0 63 248
0 63 248
1 63 248
3 63 247
5 63 247
8 63 247
10 63 247
12 63 247
15 63 247
17 63 247
19 63 247
22 63 246
24 63 246
27 63 246
29 63 246
31 63 245
34 64 245
36 63 245
39 64 244
41 64 244
44 64 243
46 64 243
49 64 242
51 64 242
54 64 241
56 64 241
59 65 240
61 65 239
64 65 238
67 65 238
69 66 237
72 65 236
74 66 235
77 66 234
80 66 233
83 66 232
85 67 231
88 67 230
91 67 229
94 68 227
97 68 226
100 68 224
103 69 223
107 69 221
110 69 220
113 70 218
116 70 216
120 71 214
124 72 211
127 72 209
131 73 207
135 73 204
139 74 201
143 75 197
148 76 194
153 77 189
158 78 185
163 79 179
170 81 172
178 83 163
188 90 151
180 198 231
178 209 240
178 209 240
178 209 240
178 209 240
178 209 240
179 209 240
179 209 240
179 209 240
179 209 240
179 209 240
179 209 240
179 209 240
179 210 240
179 210 240
179 210 240
179 210 240
179 210 240
179 210 240
179 210 240
179 210 240
179 210 240
179 210 240
179 210 240
179 210 240
179 210 240
179 210 240
180 210 240
180 210 240
180 210 240
180 210 240
180 210 240
180 210 240
180 210 240
180 210 240
180 210 240
180 210 240
180 210 240
180 210 240
180 210 240
180 210 240
180 210 240
180 210 240
180 210 240
180 210 240
180 210 240
180 210 240
181 211 241
181 211 241
181 211 241
181 211 241
181 211 241
181 211 241
181 211 241
181 211 241
181 211 241
181 211 241
181 211 241
181 211 241
181 211 241
181 211 241
181 211 241
181 211 241
181 211 241
181 211 241
181 211 241
181 211 241
181 211 241
181 211 241
182 211 241
182 211 241
182 211 241
182 211 241
182 211 241
182 211 241
182 211 241
182 211 241
182 211 241
182 211 241
182 211 241
182 211 241
182 211 241
182 211 241
182 211 241
182 211 241
182 211 241
182 212 241
182 212 241
182 212 241
182 212 241
182 212 241
182 212 241
182 212 241
182 212 241
183 212 241
183 212 241
183 212 241
183 212 241
183 212 241
183 212 241
183 212 241
183 212 241
183 212 241
183 212 241
183 212 241
183 212 241
183 212 241
183 212 241
183 212 241
183 212 241
183 212 241
183 212 241
183 212 241
183 212 241
183 212 241
183 212 241
183 212 241
183 212 241
183 212 241
183 212 241
183 212 241
183 212 241
183 212 241
184 212 241
184 212 241
184 212 241
184 212 241
184 212 241
184 212 241
184 212 241
184 212 241
184 212 241
184 212 241
184 212 241
184 212 241
184 213 241
184 213 241
184 213 241
184 213 241
184 213 241
184 213 241
184 213 241
184 213 241
184 213 241
184 213 241
184 213 241
184 213 241
184 213 241
184 213 241
184 213 241
184 213 241
184 213 241
184 213 241
184 213 241
184 213 241
184 213 241
184 213 241
184 212 241
184 212 241
184 212 241
184 212 241
184 212 241
184 212 241
184 212 241
184 212 241
184 212 241
184 212 241
184 212 241
183 212 241
183 212 241
183 212 241
183 212 241
183 212 241
183 212 241
183 212 241
183 212 241
183 212 241
183 212 241
183 212 241
183 212 241
183 212 241
183 212 241
183 212 241
183 212 241
183 212 241
183 212 241
183 212 241
183 212 241
183 212 241
183 212 241
183 212 241
183 212 241
183 212 241
183 212 241
183 212 241
183 212 241
183 212 241
182 212 241
182 212 241
182 212 241
182 212 241
182 212 241
182 212 241
182 212 241
182 212 241
182 211 241
182 211 241
182 211 241
182 211 241
182 211 241
182 211 241
182 211 241
182 211 241
182 211 241
182 211 241
182 211 241
182 211 241
182 211 241
182 211 241
182 211 241
182 211 241
181 211 241
181 211 241
181 211 241
181 211 241
181 211 241
181 211 241
181 211 241
181 211 241
181 211 241
181 211 241
181 211 241
181 211 241
181 211 241
181 211 241
181 211 241
181 211 241
181 211 241
181 211 241
181 211 241
181 211 241
181 211 241
181 211 241
180 210 240
180 210 240
180 210 240
180 210 240
180 210 240
180 210 240
180 210 240
180 210 240
180 210 240
180 210 240
180 210 240
180 210 240
180 210 240
180 210 240
180 210 240
180 210 240
180 210 240
180 210 240
180 210 240
180 210 240
180 210 240
179 210 240
179 210 240
179 210 240
179 210 240
179 210 240
179 210 240
179 210 240
179 210 240
179 210 240
179 210 240
179 210 240
179 210 240
179 210 240
179 210 240
179 209 240
179 209 240
179 209 240
0 133 181
0 81 157
0 79 168
0 77 176
0 76 182
0 74 187
0 73 192
0 73 196
0 72 199
0 71 202
0 70 205
0 70 208
0 69 211
0 69 213
0 68 215
0 68 217
0 67 219
0 67 221
0 66 222
0 66 224
0 66 225
0 65 227
0 65 228
0 65 230
0 64 231
0 64 232
0 64 233
0 64 234
0 63 235
0 63 236
0 63 237
0 63 238
0 63 238
0 62 239
0 62 240
0 62 241
0 62 241
0 62 242
0 62 242
0 62 243
0 62 243
0 61 244
0 61 244
0 61 245
0 61 245
0 61 246
0 61 246
0 61 246
0 61 247
0 61 247
0 61 247
0 60 247
0 61 247
0 61 248
0 60 248
0 60 248
0 61 248
0 60 248
0 60 248
0 60 248
1 60 248
3 60 248
5 60 248
8 60 248
10 60 248
12 60 248
15 60 248
17 61 247
19 61 247
22 61 247
24 61 247
27 61 247
29 61 246
31 61 246
34 61 246
36 61 245
39 61 245
41 61 245
44 61 244
46 61 244
48 62 243
51 61 243
54 62 242
56 62 241
58 62 241
61 62 240
64 62 239
66 63 238
69 63 238
72 63 237
74 63 236
77 64 235
80 64 234
82 64 233
85 64 232
88 64 231
91 65 230
94 65 228
97 65 227
100 66 226
103 66 224
106 66 222
109 67 221
112 67 219
116 68 217
119 68 215
123 68 213
127 69 211
130 70 208
134 70 205
138 71 202
143 72 199
147 72 196
152 73 192
156 74 187
162 76 182
168 77 176
175 79 168
184 82 157
187 142 187
179 209 240
179 209 240
179 210 240
179 210 240
179 210 240
179 210 240
179 210 240
179 210 240
179 210 240
179 210 240
179 210 240
179 210 240
179 210 240
179 210 240
179 210 240
179 210 240
179 210 240
180 210 240
180 210 240
180 210 240
180 210 240
180 210 240
180 210 240
180 210 240
180 210 240
180 210 240
180 210 240
180 210 240
180 210 240
180 210 240
180 210 240
180 210 240
180 210 240
180 210 240
180 210 240
180 210 240
180 210 240
181 211 241
181 211 241
181 211 241
181 211 241
181 211 241
181 211 241
181 211 241
181 211 241
181 211 241
181 211 241
181 211 241
181 211 241
181 211 241
181 211 241
181 211 241
181 211 241
181 211 241
181 211 241
181 211 241
181 211 241
181 211 241
181 211 241
181 211 241
182 211 241
182 211 241
182 211 241
182 211 241
182 211 241
182 211 241
182 211 241
182 211 241
182 211 241
182 211 241
182 211 241
182 211 241
182 211 241
182 211 241
182 211 241
182 211 241
182 212 241
182 212 241
182 212 241
182 212 241
182 212 241
182 212 241
182 212 241
182 212 241
182 212 241
183 212 241
183 212 241
183 212 241
183 212 241
183 212 241
183 212 241
183 212 241
183 212 241
183 212 241
183 212 241
183 212 241
183 212 241
183 212 241
183 212 241
183 212 241
183 212 241
183 212 241
183 212 241
183 212 241
183 212 241
183 212 241
183 212 241
183 212 241
183 212 241
183 212 241
183 212 241
183 212 241
183 212 241
184 212 241
184 212 241
184 212 241
184 212 241
184 212 241
184 212 241
184 212 241
184 212 241
184 212 241
184 212 241
184 212 241
184 213 241
184 213 241
184 213 241
184 213 241
184 213 241
184 213 241
184 213 241
184 213 241
184 213 241
184 213 241
184 213 241
184 213 241
184 213 241
184 213 241
184 213 241
184 213 241
185 213 241
185 213 241
185 213 241
184 213 241
184 213 241
184 213 241
184 213 241
184 213 241
184 213 241
184 213 241
184 213 241
184 213 241
184 213 241
184 213 241
184 213 241
184 213 241
184 213 241
184 213 241
184 213 241
184 213 241
184 213 241
184 213 241
184 213 241
184 213 241
184 213 241
184 213 241
184 212 241
184 212 241
184 212 241
184 212 241
184 212 241
184 212 241
184 212 241
184 212 241
184 212 241
184 212 241
183 212 241
183 212 241
183 212 241
183 212 241
183 212 241
183 212 241
183 212 241
183 212 241
183 212 241
183 212 241
183 212 241
183 212 241
183 212 241
183 212 241
183 212 241
183 212 241
183 212 241
183 212 241
183 212 241
183 212 241
183 212 241
183 212 241
183 212 241
183 212 241
183 212 241
183 212 241
183 212 241
183 212 241
183 212 241
182 212 241
182 212 241
182 212 241
182 212 241
182 212 241
182 212 241
182 212 241
182 212 241
182 211 241
182 211 241
182 211 241
182 211 241
182 211 241
182 211 241
182 211 241
182 211 241
182 211 241
182 211 241
182 211 241
182 211 241
182 211 241
182 211 241
182 211 241
182 211 241
181 211 241
181 211 241
181 211 241
181 211 241
181 211 241
181 211 241
181 211 241
181 211 241
181 211 241
181 211 241
181 211 241
181 211 241
181 211 241
181 211 241
181 211 241
181 211 241
181 211 241
181 211 241
181 211 241
181 211 241
181 211 241
181 211 241
180 210 240
180 210 240
180 210 240
180 210 240
180 210 240
180 210 240
180 210 240
180 210 240
180 210 240
180 210 240
180 210 240
180 210 240
180 210 240
180 210 240
180 210 240
180 210 240
180 210 240
180 210 240
180 210 240
180 210 240
180 210 240
180 210 240
179 210 240
179 210 240
179 210 240
179 210 240
179 210 240
179 210 240
175 208 239
0 83 150
0 77 162
0 75 172
0 74 178
0 72 184
0 71 190
0 70 194
0 69 197
0 69 201
0 68 204
0 67 207
0 67 209
0 66 212
0 66 214
0 65 216
0 65 218
0 64 220
0 64 222
0 63 223
0 63 225
0 63 226
0 62 228
0 62 229
0 62 230
0 62 232
0 61 233
0 61 234
0 61 235
0 61 236
0 61 237
0 60 238
0 60 238
0 60 239
0 60 240
0 60 241
0 60 241
0 59 242
0 59 243
0 59 243
0 59 244
0 59 244
0 59 245
0 59 245
0 59 246
0 59 246
0 58 246
0 58 247
0 58 247
0 58 247
0 58 247
0 58 248
0 58 248
0 58 248
0 58 248
0 58 248
0 58 249
0 58 249
0 58 249
0 58 249
0 58 249
1 58 249
3 58 249
5 58 249
8 58 249
10 58 249
12 58 248
15 58 248
17 58 248
19 58 248
22 58 248
24 58 247
27 58 247
29 58 247
31 58 247
34 59 246
36 58 246
39 59 246
41 59 245
43 59 245
46 59 244
48 59 244
51 59 243
53 59 243
56 59 242
58 60 241
61 60 241
64 60 240
66 60 239
69 60 238
71 60 238
74 61 237
77 61 236
79 61 235
82 61 234
85 61 233
88 62 232
91 62 230
94 62 229
97 63 228
100 63 226
103 63 225
106 63 223
109 64 222
112 64 220
116 65 218
119 65 216
122 66 214
126 66 212
130 67 209
133 67 207
138 68 204
141 68 201
146 69 197
151 70 194
155 71 190
161 72 185
167 73 179
173 75 172
181 77 162
191 86 153
180 205 236
179 210 240
179 210 240
179 210 240
179 210 240
179 210 240
179 210 240
180 210 240
180 210 240
180 210 240
180 210 240
180 210 240
180 210 240
180 210 240
180 210 240
180 210 240
180 210 240
180 210 240
180 210 240
180 210 240
180 210 240
180 210 240
180 210 240
180 210 240
180 210 240
180 210 240
180 210 240
180 210 240
180 210 240
181 211 241
181 211 241
181 211 241
181 211 241
181 211 241
181 211 241
181 211 241
181 211 241
181 211 241
181 211 241
181 211 241
181 211 241
181 211 241
181 211 241
181 211 241
181 211 241
181 211 241
181 211 241
181 211 241
181 211 241
181 211 241
181 211 241
182 211 241
182 211 241
182 211 241
182 211 241
182 211 241
182 211 241
182 211 241
182 211 241
182 211 241
182 211 241
182 211 241
182 211 241
182 211 241
182 211 241
182 211 241
182 211 241
182 212 241
182 212 241
182 212 241
182 212 241
182 212 241
182 212 241
182 212 241
182 212 241
182 212 241
183 212 241
183 212 241
183 212 241
183 212 241
183 212 241
183 212 241
183 212 241
183 212 241
183 212 241
183 212 241
183 212 241
183 212 241
183 212 241
183 212 241
183 212 241
183 212 241
183 212 241
183 212 241
183 212 241
183 212 241
183 212 241
183 212 241
183 212 241
183 212 241
183 212 241
183 212 241
183 212 241
183 212 241
184 212 241
184 212 241
184 212 241
184 212 241
184 212 241
184 212 241
184 212 241
184 212 241
184 212 241
184 212 241
184 213 241
184 213 241
184 213 241
184 213 241
184 213 241
184 213 241
184 213 241
184 213 241
184 213 241
184 213 241
184 213 241
184 213 241
184 213 241
184 213 241
184 213 241
184 213 241
184 213 241
184 213 241
184 213 241
184 213 241
184 213 241
184 213 241
184 213 241
185 213 241
185 213 241
185 213 241
185 213 241
185 213 241
185 213 241
185 213 241
185 213 241
185 213 241
185 213 241
185 213 241
185 213 241
185 213 241
185 213 241
185 213 241
185 213 241
185 213 241
184 213 241
184 213 241
184 213 241
184 213 241
184 213 241
184 213 241
184 213 241
184 213 241
184 213 241
184 213 241
184 213 241
184 213 241
184 213 241
184 213 241
184 213 241
184 213 241
184 213 241
184 213 241
184 213 241
184 213 241
184 213 241
184 213 241
184 212 241
184 212 241
184 212 241
184 212 241
184 212 241
184 212 241
184 212 241
184 212 241
184 212 241
184 212 241
183 212 241
183 212 241
183 212 241
183 212 241
183 212 241
183 212 241
183 212 241
183 212 241
183 212 241
183 212 241
183 212 241
183 212 241
183 212 241
183 212 241
183 212 241
183 212 241
183 212 241
183 212 241
183 212 241
183 212 241
183 212 241
183 212 241
183 212 241
183 212 241
183 212 241
183 212 241
183 212 241
183 212 241
182 212 241
182 212 241
182 212 241
182 212 241
182 212 241
182 212 241
182 212 241
182 212 241
182 211 241
182 211 241
182 211 241
182 211 241
182 211 241
182 211 241
182 211 241
182 211 241
182 211 241
182 211 241
182 211 241
182 211 241
182 211 241
182 211 241
182 211 241
182 211 241
181 211 241
181 211 241
181 211 241
181 211 241
181 211 241
181 211 241
181 211 241
181 211 241
181 211 241
181 211 241
181 211 241
181 211 241
181 211 241
181 211 241
181 211 241
181 211 241
181 211 241
181 211 241
181 211 241
181 211 241
181 211 241
181 211 241
181 211 241
180 210 240
180 210 240
180 210 240
180 210 240
180 210 240
180 210 240
180 210 240
180 210 240
180 210 240
180 210 240
180 210 240
180 210 240
180 210 240
180 210 240
180 210 240
180 210 240
180 210 240
180 210 240
55 167 207
0 75 155
0 73 167
0 71 175
0 70 181
0 69 187
0 68 191
0 67 195
0 66 199
0 65 202
0 65 205
0 64 208
0 64 211
0 63 213
0 63 215
0 62 217
0 62 219
0 62 221
0 61 223
0 61 224
0 61 226
0 60 227
0 60 229
0 60 230
0 59 231
0 59 232
0 59 233
0 58 235
0 58 236
0 58 236
0 58 237
0 58 238
0 58 239
0 57 240
0 57 241
0 57 241
0 57 242
0 57 243
0 57 243
0 57 244
0 56 244
0 56 245
0 56 245
0 56 246
0 56 246
0 56 247
0 56 247
0 56 247
0 56 248
0 56 248
0 56 248
0 56 248
0 56 248
0 56 249
0 55 249
0 56 249
0 55 249
0 56 249
0 56 249
0 55 249
0 55 249
1 55 249
3 55 249
5 55 249
8 56 249
10 55 249
12 55 249
15 55 249
17 56 249
19 56 248
22 56 248
24 56 248
26 56 248
29 56 248
31 56 247
34 56 247
36 56 247
38 56 246
41 56 246
43 56 245
46 56 245
48 57 244
51 57 244
53 57 243
56 57 243
58 57 242
61 57 241
63 57 241
66 57 240
69 58 239
71 58 238
74 58 237
76 58 237
79 58 236
82 59 234
85 59 233
88 59 232
90 59 231
93 59 230
96 60 229
99 60 227
102 60 226
105 61 224
109 61 223
112 61 221
115 62 219
118 62 217
122 63 215
125 63 213
129 64 211
133 64 208
137 65 205
141 65 203
145 66 199
150 67 195
155 68 191
160 69 187
165 70 181
172 71 175
179 73 167
188 76 155
187 156 199
180 210 240
180 210 240
180 210 240
180 210 240
180 210 240
180 210 240
180 210 240
180 210 240
180 210 240
180 210 240
180 210 240
180 210 240
180 210 240
180 210 240
180 210 240
180 210 240
180 210 240
180 210 240
181 211 241
181 211 241
181 211 241
181 211 241
181 211 241
181 211 241
181 211 241
181 211 241
181 211 241
181 211 241
181 211 241
181 211 241
181 211 241
181 211 241
181 211 241
181 211 241
181 211 241
181 211 241
181 211 241
181 211 241
181 211 241
181 211 241
181 211 241
182 211 241
182 211 241
182 211 241
182 211 241
182 211 241
182 211 241
182 211 241
182 211 241
182 211 241
182 211 241
182 211 241
182 211 241
182 211 241
182 211 241
182 211 241
182 211 241
182 212 241
182 212 241
182 212 241
182 212 241
182 212 241
182 212 241
182 212 241
182 212 241
183 212 241
183 212 241
183 212 241
183 212 241
183 212 241
183 212 241
183 212 241
183 212 241
183 212 241
183 212 241
183 212 241
183 212 241
183 212 241
183 212 241
183 212 241
183 212 241
183 212 241
183 212 241
183 212 241
183 212 241
183 212 241
183 212 241
183 212 241
183 212 241
183 212 241
183 212 241
183 212 241
184 212 241
184 212 241
184 212 241
184 212 241
184 212 241
184 212 241
184 212 241
184 212 241
184 212 241
184 212 241
184 212 241
184 213 241
184 213 241
184 213 241
184 213 241
184 213 241
184 213 241
184 213 241
184 213 241
184 213 241
184 213 241
184 213 241
184 213 241
184 213 241
184 213 241
184 213 241
184 213 241
184 213 241
184 213 241
184 213 241
184 213 241
184 213 241
184 213 241
184 213 241
185 213 241
185 213 241
185 213 241
185 213 241
185 213 241
185 213 241
185 213 241
185 213 241
185 213 241
185 213 241
185 213 241
185 213 241
185 213 241
185 213 241
185 213 241
185 213 241
185 213 241
185 213 241
185 213 241
185 213 241
185 213 241
185 213 241
185 213 241
185 213 241
185 213 241
185 213 241
185 213 241
185 213 241
185 213 241
185 213 241
185 213 241
185 213 241
185 213 241
185 213 241
185 213 241
185 213 241
185 213 241
184 213 241
184 213 241
184 213 241
184 213 241
184 213 241
184 213 241
184 213 241
184 213 241
184 213 241
184 213 241
184 213 241
184 213 241
184 213 241
184 213 241
184 213 241
184 213 241
184 213 241
184 213 241
184 213 241
184 213 241
184 213 241
184 213 241
184 212 241
184 212 241
184 212 241
184 212 241
184 212 241
184 212 241
184 212 241
184 212 241
184 212 241
184 212 241
183 212 241
183 212 241
183 212 241
183 212 241
183 212 241
183 212 241
183 212 241
183 212 241
183 212 241
183 212 241
183 212 241
183 212 241
183 212 241
183 212 241
183 212 241
183 212 241
183 212 241
183 212 241
183 212 241
183 212 241
183 212 241
183 212 241
183 212 241
183 212 241
183 212 241
183 212 241
183 212 241
183 212 241
182 212 241
182 212 241
182 212 241
182 212 241
182 212 241
182 212 241
182 212 241
182 212 241
182 211 241
182 211 241
182 211 241
182 211 241
182 211 241
182 211 241
182 211 241
182 211 241
182 211 241
182 211 241
182 211 241
182 211 241
182 211 241
182 211 241
182 211 241
182 211 241
181 211 241
181 211 241
181 211 241
181 211 241
181 211 241
181 211 241
181 211 241
181 211 241
181 211 241
181 211 241
181 211 241
181 211 241
181 211 241
181 211 241
181 211 241
181 211 241
181 211 241
181 211 241
181 211 241
181 211 241
181 211 241
181 211 241
181 211 241
181 211 241
180 210 240
180 210 240
180 210 240
180 210 240
180 210 240
180 210 240
180 210 240
0 104 167
0 71 160
0 69 170
0 67 178
0 66 184
0 65 189
0 65 193
0 64 197
0 63 201
0 62 204
0 62 207
0 61 209
0 61 212
0 60 214
0 60 216
0 59 218
0 59 220
0 59 222
0 58 224
0 58 225
0 58 227
0 58 228
0 57 230
0 57 231
0 57 232
0 56 233
0 56 234
0 56 235
0 56 236
0 56 237
0 56 238
0 55 239
0 55 240
0 55 241
0 55 241
0 55 242
0 55 243
0 54 243
0 54 244
0 54 244
0 54 245
0 54 245
0 54 246
0 54 246
0 54 247
0 54 247
0 53 247
0 53 248
0 53 248
0 53 248
0 53 249
0 53 249
0 53 249
0 53 249
0 53 249
0 53 249
0 53 250
0 53 250
0 53 250
0 53 250
0 53 250
1 53 250
3 53 250
5 53 250
8 53 250
10 53 250
12 53 250
15 53 249
17 53 249
19 53 249
22 53 249
24 53 249
26 53 248
29 53 248
31 53 248
33 53 247
36 53 247
38 54 247
41 54 246
43 54 246
46 54 245
48 54 245
50 54 244
53 54 244
55 54 243
58 55 243
61 55 242
63 55 241
66 55 240
68 55 240
71 55 239
74 55 238
76 56 237
79 56 236
82 56 235
84 56 234
87 56 233
90 57 232
93 57 231
96 57 230
99 57 228
102 58 227
105 58 225
108 58 224
111 59 222
115 59 220
118 59 218
121 60 216
125 60 214
129 61 212
132 61 209
136 62 207
140 62 204
145 63 201
149 64 197
154 65 193
159 66 189
164 66 184
170 68 178
177 69 170
185 71 161
193 110 169
180 210 240
180 210 240
180 210 240
180 210 240
180 210 240
180 210 240
180 210 240
180 210 240
181 211 241
181 211 241
181 211 241
181 211 241
181 211 241
181 211 241
181 211 241
181 211 241
181 211 241
181 211 241
181 211 241
181 211 241
181 211 241
181 211 241
181 211 241
181 211 241
181 211 241
181 211 241
181 211 241
181 211 241
181 211 241
181 211 241
181 211 241
182 211 241
182 211 241
182 211 241
182 211 241
182 211 241
182 211 241
182 211 241
182 211 241
182 211 241
182 211 241
182 211 241
182 211 241
182 211 241
182 211 241
182 211 241
182 211 241
182 212 241
182 212 241
182 212 241
182 212 241
182 212 241
182 212 241
182 212 241
182 212 241
182 212 241
183 212 241
183 212 241
183 212 241
183 212 241
183 212 241
183 212 241
183 212 241
183 212 241
183 212 241
183 212 241
183 212 241
183 212 241
183 212 241
183 212 241
183 212 241
183 212 241
183 212 241
183 212 241
183 212 241
183 212 241
183 212 241
183 212 241
183 212 241
183 212 241
183 212 241
183 212 241
183 212 241
184 212 241
184 212 241
184 212 241
184 212 241
184 212 241
184 212 241
184 212 241
184 212 241
184 212 241
184 212 241
184 213 241
184 213 241
184 213 241
184 213 241
184 213 241
184 213 241
184 213 241
184 213 241
184 213 241
184 213 241
184 213 241
184 213 241
184 213 241
184 213 241
184 213 241
184 213 241
184 213 241
184 213 241
184 213 241
184 213 241
184 213 241
184 213 241
185 213 241
185 213 241
185 213 241
185 213 241
185 213 241
185 213 241
185 213 241
185 213 241
185 213 241
185 213 241
185 213 241
185 213 241
185 213 241
185 213 241
185 213 241
185 213 241
185 213 241
185 213 241
185 213 241
185 213 241
185 213 241
185 213 241
185 213 241
185 213 241
185 213 241
185 213 241
185 213 241
185 213 241
185 213 241
185 213 241
185 213 241
185 213 241
185 213 241
185 213 241
185 213 241
185 213 241
185 213 241
185 213 241
185 213 241
185 213 241
185 213 241
185 213 241
185 213 241
185 213 241
185 213 241
185 213 241
185 213 241
185 213 241
185 213 241
185 213 241
185 213 241
185 213 241
185 213 241
185 213 241
185 213 241
185 213 241
185 213 241
185 213 241
185 213 241
184 213 241
184 213 241
184 213 241
184 213 241
184 213 241
184 213 241
184 213 241
184 213 241
184 213 241
184 213 241
184 213 241
184 213 241
184 213 241
184 213 241
184 213 241
184 213 241
184 213 241
184 213 241
184 213 241
184 213 241
184 213 241
184 212 241
184 212 241
184 212 241
184 212 241
184 212 241
184 212 241
184 212 241
184 212 241
184 212 241
184 212 241
183 212 241
183 212 241
183 212 241
183 212 241
183 212 241
183 212 241
183 212 241
183 212 241
183 212 241
183 212 241
183 212 241
183 212 241
183 212 241
183 212 241
183 212 241
183 212 241
183 212 241
183 212 241
183 212 241
183 212 241
183 212 241
183 212 241
183 212 241
183 212 241
183 212 241
183 212 241
183 212 241
183 212 241
182 212 241
182 212 241
182 212 241
182 212 241
182 212 241
182 212 241
182 212 241
182 211 241
182 211 241
182 211 241
182 211 241
182 211 241
182 211 241
182 211 241
182 211 241
182 211 241
182 211 241
182 211 241
182 211 241
182 211 241
182 211 241
182 211 241
182 211 241
182 211 241
181 211 241
181 211 241
181 211 241
181 211 241
181 211 241
181 211 241
181 211 241
181 211 241
181 211 241
181 211 241
181 211 241
181 211 241
181 211 241
181 211 241
181 211 241
181 211 241
181 211 241
181 211 241
181 211 241
181 211 241
119 188 224
0 71 152
0 67 164
0 66 173
0 64 180
0 63 186
0 62 191
0 61 195
0 61 199
0 60 202
0 59 205
0 59 208
0 58 211
0 58 213
0 57 215
0 57 217
0 57 219
0 56 221
0 56 223
0 56 225
0 55 226
0 55 227
0 55 229
0 55 230
0 54 231
0 54 233
0 54 234
0 53 235
0 53 236
0 53 237
0 53 238
0 53 239
0 53 240
0 53 240
0 52 241
0 52 242
0 52 242
0 52 243
0 52 244
0 52 244
0 52 245
0 52 245
0 52 246
0 51 246
0 51 247
0 51 247
0 51 248
0 51 248
0 51 248
0 51 249
0 51 249
0 51 249
0 51 249
0 51 250
0 51 250
0 51 250
0 51 250
0 51 250
0 51 250
0 51 250
0 51 250
0 51 250
1 51 250
3 51 250
5 50 250
8 51 250
10 51 250
12 51 250
15 51 250
17 51 250
19 51 250
22 51 249
24 51 249
26 51 249
29 51 249
31 51 248
34 51 248
36 51 248
38 51 247
41 51 247
43 51 246
46 52 246
48 51 245
51 52 245
53 52 244
56 52 244
58 52 243
61 52 242
63 52 242
66 52 241
68 52 240
71 53 240
73 53 239
76 53 238
79 53 237
82 53 236
84 54 235
87 54 234
90 54 233
93 54 231
96 55 230
99 55 229
102 55 228
105 55 226
108 56 225
111 56 223
114 56 221
118 57 219
121 57 217
125 58 215
128 58 213
132 58 211
136 59 208
140 59 205
144 60 202
148 61 199
153 62 195
158 62 191
163 63 186
169 64 181
175 66 174
183 67 164
193 72 151
184 190 225
181 211 241
181 211 241
181 211 241
181 211 241
181 211 241
181 211 241
181 211 241
181 211 241
181 211 241
181 211 241
181 211 241
181 211 241
181 211 241
181 211 241
181 211 241
181 211 241
181 211 241
181 211 241
181 211 241
182 211 241
182 211 241
182 211 241
182 211 241
182 211 241
182 211 241
182 211 241
182 211 241
182 211 241
182 211 241
182 211 241
182 211 241
182 211 241
182 211 241
182 211 241
182 211 241
182 211 241
182 212 241
182 212 241
182 212 241
182 212 241
182 212 241
182 212 241
182 212 241
182 212 241
182 212 241
183 212 241
183 212 241
183 212 241
183 212 241
183 212 241
183 212 241
183 212 241
183 212 241
183 212 241
183 212 241
183 212 241
183 212 241
183 212 241
183 212 241
183 212 241
183 212 241
183 212 241
183 212 241
183 212 241
183 212 241
183 212 241
183 212 241
183 212 241
183 212 241
183 212 241
183 212 241
184 212 241
184 212 241
184 212 241
184 212 241
184 212 241
184 212 241
184 212 241
184 212 241
184 212 241
184 212 241
184 213 241
184 213 241
184 213 241
184 213 241
184 213 241
184 213 241
184 213 241
184 213 241
184 213 241
184 213 241
184 213 241
184 213 241
184 213 241
184 213 241
184 213 241
184 213 241
184 213 241
184 213 241
184 213 241
184 213 241
184 213 241
184 213 241
185 213 241
185 213 241
185 213 241
185 213 241
185 213 241
185 213 241
185 213 241
185 213 241
185 213 241
185 213 241
185 213 241
185 213 241
185 213 241
185 213 241
185 213 241
185 213 241
185 213 241
185 213 241
185 213 241
185 213 241
185 213 241
185 213 241
185 213 241
185 213 241
185 213 241
185 213 241
185 213 241
185 213 241
185 213 241
185 213 241
185 213 241
185 213 241
185 213 241
185 213 241
185 213 241
186 214 242
186 214 242
186 214 242
186 214 242
186 214 242
186 214 242
186 214 242
185 213 241
185 213 241
185 213 241
185 213 241
185 213 241
185 213 241
185 213 241
185 213 241
185 213 241
185 213 241
185 213 241
185 213 241
185 213 241
185 213 241
185 213 241
185 213 241
185 213 241
185 213 241
185 213 241
185 213 241
185 213 241
185 213 241
185 213 241
185 213 241
185 213 241
185 213 241
185 213 241
185 213 241
185 213 241
185 213 241
185 213 241
185 213 241
185 213 241
185 213 241
185 213 241
185 213 241
185 213 241
185 213 241
185 213 241
184 213 241
184 213 241
184 213 241
184 213 241
184 213 241
184 213 241
184 213 241
184 213 241
184 213 241
184 213 241
184 213 241
184 213 241
184 213 241
184 213 241
184 213 241
184 213 241
184 213 241
184 213 241
184 213 241
184 213 241
184 213 241
184 212 241
184 212 241
184 212 241
184 212 241
184 212 241
184 212 241
184 212 241
184 212 241
184 212 241
184 212 241
183 212 241
183 212 241
183 212 241
183 212 241
183 212 241
183 212 241
183 212 241
183 212 241
183 212 241
183 212 241
183 212 241
183 212 241
183 212 241
183 212 241
183 212 241
183 212 241
183 212 241
183 212 241
183 212 241
183 212 241
183 212 241
183 212 241
183 212 241
183 212 241
183 212 241
183 212 241
183 212 241
182 212 241
182 212 241
182 212 241
182 212 241
182 212 241
182 212 241
182 212 241
182 212 241
182 212 241
182 211 241
182 211 241
182 211 241
182 211 241
182 211 241
182 211 241
182 211 241
182 211 241
182 211 241
182 211 241
182 211 241
182 211 241
182 211 241
182 211 241
182 211 241
182 211 241
182 211 241
181 211 241
181 211 241
181 211 241
181 211 241
181 211 241
181 211 241
181 211 241
181 211 241
17 149 198
0 66 157
0 64 168
0 62 176
0 61 183
0 60 188
0 59 192
0 58 197
0 58 200
0 57 203
0 56 206
0 56 209
0 56 212
0 55 214
0 55 216
0 54 218
0 54 220
0 53 222
0 53 224
0 53 225
0 53 227
0 52 228
0 52 230
0 52 231
0 52 232
0 51 233
0 51 234
0 51 236
0 51 237
0 51 238
0 51 238
0 50 239
0 50 240
0 50 241
0 50 242
0 50 242
0 50 243
0 50 244
0 49 244
0 49 245
0 49 245
0 49 246
0 49 246
0 49 247
0 49 247
0 49 248
0 49 248
0 49 248
0 49 249
0 48 249
0 48 249
0 48 250
0 48 250
0 48 250
0 48 250
0 48 250
0 48 250
0 48 251
0 48 251
0 48 251
0 48 251
0 48 251
1 48 251
3 48 251
5 48 251
8 48 251
10 48 251
12 48 251
15 48 250
17 48 250
19 48 250
22 48 250
24 48 250
26 49 249
29 48 249
31 49 249
33 49 248
36 49 248
38 49 248
41 49 247
43 49 247
45 49 246
48 49 246
50 49 245
53 49 245
55 49 244
58 49 244
60 50 243
63 50 242
66 50 242
68 50 241
71 50 240
73 50 239
76 50 238
79 51 237
81 51 237
84 51 236
87 51 235
90 51 233
93 51 232
96 52 231
99 52 230
101 52 228
104 53 227
108 53 225
111 53 224
114 54 222
117 54 220
121 54 218
124 55 216
128 55 214
131 55 212
135 56 209
139 56 207
143 57 203
148 58 200
152 58 196
157 59 192
162 60 188
168 61 182
174 62 176
181 64 168
191 66 156
192 135 188
181 211 241
181 211 241
181 211 241
181 211 241
181 211 241
181 211 241
181 211 241
181 211 241
182 211 241
182 211 241
182 211 241
182 211 241
182 211 241
182 211 241
182 211 241
182 211 241
182 211 241
182 211 241
182 211 241
182 211 241
182 211 241
182 211 241
182 211 241
182 211 241
182 211 241
182 211 241
182 212 241
182 212 241
182 212 241
182 212 241
182 212 241
182 212 241
182 212 241
182 212 241
183 212 241
183 212 241
183 212 241
183 212 241
183 212 241
183 212 241
183 212 241
183 212 241
183 212 241
183 212 241
183 212 241
183 212 241
183 212 241
183 212 241
183 212 241
183 212 241
183 212 241
183 212 241
183 212 241
183 212 241
183 212 241
183 212 241
183 212 241
183 212 241
183 212 241
183 212 241
183 212 241
184 212 241
184 212 241
184 212 241
184 212 241
184 212 241
184 212 241
184 212 241
184 212 241
184 212 241
184 212 241
184 213 241
184 213 241
184 213 241
184 213 241
184 213 241
184 213 241
184 213 241
184 213 241
184 213 241
184 213 241
184 213 241
184 213 241
184 213 241
184 213 241
184 213 241
184 213 241
184 213 241
184 213 241
184 213 241
184 213 241
184 213 241
185 213 241
185 213 241
185 213 241
185 213 241
185 213 241
185 213 241
185 213 241
185 213 241
185 213 241
185 213 241
185 213 241
185 213 241
185 213 241
185 213 241
185 213 241
185 213 241
185 213 241
185 213 241
185 213 241
185 213 241
185 213 241
185 213 241
185 213 241
185 213 241
185 213 241
185 213 241
185 213 241
185 213 241
185 213 241
185 213 241
185 213 241
185 213 241
185 213 241
185 213 241
185 213 241
185 213 241
185 213 241
185 213 241
186 214 242
186 214 242
186 214 242
186 214 242
186 214 242
186 214 242
186 214 242
186 214 242
186 214 242
186 214 242
186 214 242
186 214 242
186 214 242
186 214 242
186 214 242
186 214 242
186 214 242
186 214 242
186 214 242
186 214 242
186 214 242
186 214 242
186 214 242
186 214 242
186 214 242
186 214 242
186 214 242
186 214 242
185 213 241
185 213 241
185 213 241
185 213 241
185 213 241
185 213 241
185 213 241
185 213 241
185 213 241
185 213 241
185 213 241
185 213 241
185 213 241
185 213 241
185 213 241
185 213 241
185 213 241
185 213 241
185 213 241
185 213 241
185 213 241
185 213 241
185 213 241
185 213 241
185 213 241
185 213 241
185 213 241
185 213 241
185 213 241
185 213 241
185 213 241
185 213 241
185 213 241
185 213 241
185 213 241
185 213 241
185 213 241
184 213 241
184 213 241
184 213 241
184 213 241
184 213 241
184 213 241
184 213 241
184 213 241
184 213 241
184 213 241
184 213 241
184 213 241
184 213 241
184 213 241
184 213 241
184 213 241
184 213 241
184 213 241
184 213 241
184 213 241
184 213 241
184 212 241
184 212 241
184 212 241
184 212 241
184 212 241
184 212 241
184 212 241
184 212 241
184 212 241
184 212 241
183 212 241
183 212 241
183 212 241
183 212 241
183 212 241
183 212 241
183 212 241
183 212 241
183 212 241
183 212 241
183 212 241
183 212 241
183 212 241
183 212 241
183 212 241
183 212 241
183 212 241
183 212 241
183 212 241
183 212 241
183 212 241
183 212 241
183 212 241
183 212 241
183 212 241
183 212 241
183 212 241
183 212 241
182 212 241
182 212 241
182 212 241
182 212 241
182 212 241
182 212 241
182 212 241
182 212 241
182 211 241
182 211 241
182 211 241
182 211 241
182 211 241
182 211 241
182 211 241
182 211 241
182 211 241
182 211 241
182 211 241
182 211 241
182 211 241
182 211 241
0 95 166
0 62 162
0 60 171
0 59 178
0 58 184
0 57 190
0 56 194
0 55 198
0 55 201
0 54 205
0 54 208
0 53 210
0 53 213
0 52 215
0 52 217
0 51 219
0 51 221
0 51 223
0 50 225
0 50 226
0 50 228
0 50 229
0 50 230
0 49 232
0 49 233
0 49 234
0 48 235
0 48 236
0 48 237
0 48 238
0 48 239
0 48 240
0 48 241
0 47 241
0 47 242
0 47 243
0 47 244
0 47 244
0 47 245
0 47 245
0 47 246
0 47 246
0 46 247
0 47 247
0 46 248
0 46 248
0 46 249
0 46 249
0 46 249
0 46 250
0 46 250
0 46 250
0 46 250
0 46 250
0 46 251
0 46 251
0 46 251
0 46 251
0 46 251
0 46 251
0 46 251
0 46 251
1 46 251
3 46 251
5 46 251
8 46 251
10 46 251
12 46 251
15 46 251
17 46 251
19 46 250
22 46 250
24 46 250
26 46 250
29 46 250
31 46 249
33 46 249
36 46 249
38 46 248
40 46 248
43 47 247
45 47 247
48 47 246
50 47 246
53 47 245
55 47 245
58 47 244
60 47 244
63 47 243
65 47 242
68 47 241
71 48 241
73 48 240
76 48 239
79 48 238
81 48 237
84 48 236
87 49 235
90 49 234
92 49 233
95 49 232
98 49 230
101 50 229
104 50 228
107 50 226
111 50 224
114 51 223
117 51 221
120 51 219
124 52 217
127 52 215
131 53 213
135 53 210
139 54 207
143 54 204
147 55 201
152 55 198
156 56 194
161 57 190
167 58 184
173 59 179
180 60 171
188 62 161
195 97 167
182 211 241
182 211 241
182 211 241
182 211 241
182 211 241
182 211 241
182 211 241
182 211 241
182 211 241
182 211 241
182 211 241
182 211 241
182 211 241
182 211 241
182 212 241
182 212 241
182 212 241
182 212 241
182 212 241
182 212 241
182 212 241
182 212 241
182 212 241
183 212 241
183 212 241
183 212 241
183 212 241
183 212 241
183 212 241
183 212 241
183 212 241
183 212 241
183 212 241
183 212 241
183 212 241
183 212 241
183 212 241
183 212 241
183 212 241
183 212 241
183 212 241
183 212 241
183 212 241
183 212 241
183 212 241
183 212 241
183 212 241
183 212 241
183 212 241
183 212 241
184 212 241
184 212 241
184 212 241
184 212 241
184 212 241
184 212 241
184 212 241
184 212 241
184 212 241
184 212 241
184 213 241
184 213 241
184 213 241
184 213 241
184 213 241
184 213 241
184 213 241
184 213 241
184 213 241
184 213 241
184 213 241
184 213 241
184 213 241
184 213 241
184 213 241
184 213 241
184 213 241
184 213 241
184 213 241
184 213 241
184 213 241
185 213 241
185 213 241
185 213 241
185 213 241
185 213 241
185 213 241
185 213 241
185 213 241
185 213 241
185 213 241
185 213 241
185 213 241
185 213 241
185 213 241
185 213 241
185 213 241
185 213 241
185 213 241
185 213 241
185 213 241
185 213 241
185 213 241
185 213 241
185 213 241
185 213 241
185 213 241
185 213 241
185 213 241
185 213 241
185 213 241
185 213 241
185 213 241
185 213 241
185 213 241
185 213 241
185 213 241
185 213 241
186 214 242
186 214 242
186 214 242
186 214 242
186 214 242
186 214 242
186 214 242
186 214 242
186 214 242
186 214 242
186 214 242
186 214 242
186 214 242
186 214 242
186 214 242
186 214 242
186 214 242
186 214 242
186 214 242
186 214 242
186 214 242
186 214 242
186 214 242
186 214 242
186 214 242
186 214 242
186 214 242
186 214 242
186 214 242
186 214 242
186 214 242
186 214 242
186 214 242
186 214 242
186 214 242
186 214 242
186 214 242
186 214 242
186 214 242
186 214 242
186 214 242
186 214 242
186 214 242
186 214 242
186 214 242
186 214 242
186 214 242
186 214 242
186 214 242
186 214 242
186 214 242
186 214 242
185 213 241
185 213 241
185 213 241
185 213 241
185 213 241
185 213 241
185 213 241
185 213 241
185 213 241
185 213 241
185 213 241
185 213 241
185 213 241
185 213 241
185 213 241
185 213 241
185 213 241
185 213 241
185 213 241
185 213 241
185 213 241
185 213 241
185 213 241
185 213 241
185 213 241
185 213 241
185 213 241
185 213 241
185 213 241
185 213 241
185 213 241
185 213 241
185 213 241
185 213 241
185 213 241
185 213 241
185 213 241
184 213 241
184 213 241
184 213 241
184 213 241
184 213 241
184 213 241
184 213 241
184 213 241
184 213 241
184 213 241
184 213 241
184 213 241
184 213 241
184 213 241
184 213 241
184 213 241
184 213 241
184 213 241
184 213 241
184 213 241
184 213 241
184 212 241
184 212 241
184 212 241
184 212 241
184 212 241
184 212 241
184 212 241
184 212 241
184 212 241
184 212 241
183 212 241
183 212 241
183 212 241
183 212 241
183 212 241
183 212 241
183 212 241
183 212 241
183 212 241
183 212 241
183 212 241
183 212 241
183 212 241
183 212 241
183 212 241
183 212 241
183 212 241
183 212 241
183 212 241
183 212 241
183 212 241
183 212 241
183 212 241
183 212 241
183 212 241
183 212 241
183 212 241
183 212 241
182 212 241
182 212 241
182 212 241
182 212 241
182 212 241
182 212 241
182 212 241
182 212 241
182 212 241
143 197 230
0 60 150
0 58 165
0 57 174
0 55 181
0 55 186
0 54 191
0 53 195
0 52 199
0 52 203
0 51 206
0 51 208
0 50 211
0 50 214
0 49 216
0 49 218
0 49 220
0 48 222
0 48 224
0 48 225
0 47 227
0 47 228
0 47 230
0 47 231
0 47 232
0 46 233
0 46 235
0 46 236
0 46 237
0 46 238
0 46 239
0 46 240
0 45 240
0 45 241
0 45 242
0 45 243
0 45 243
0 45 244
0 45 245
0 44 245
0 44 246
0 44 246
0 44 247
0 44 247
0 44 248
0 44 248
0 44 249
0 44 249
0 44 249
0 44 250
0 44 250
0 44 250
0 44 250
0 43 251
0 44 251
0 43 251
0 44 251
0 43 251
0 43 251
0 43 252
0 43 252
0 43 252
0 44 252
1 43 252
3 43 252
5 43 252
8 43 252
10 43 251
12 44 251
15 44 251
17 44 251
19 43 251
22 44 251
24 44 251
26 44 250
28 44 250
31 44 250
33 44 249
36 44 249
38 44 249
40 44 248
43 44 248
45 44 247
48 44 247
50 44 246
53 44 246
55 44 245
58 45 245
60 45 244
63 45 243
65 45 243
68 45 242
70 45 241
73 45 240
76 46 240
78 45 239
81 46 238
84 46 237
87 46 236
89 46 235
92 46 233
95 47 232
98 47 231
101 47 230
104 47 228
107 47 227
110 48 225
113 48 223
117 48 222
120 49 220
123 49 218
127 49 216
130 50 214
134 50 211
138 51 208
142 51 206
146 52 203
151 52 199
155 53 195
160 54 191
166 54 186
172 56 181
178 57 173
186 58 165
197 62 151
185 192 227
182 212 241
182 212 241
182 212 241
182 212 241
182 212 241
182 212 241
182 212 241
182 212 241
182 212 241
182 212 241
183 212 241
183 212 241
183 212 241
183 212 241
183 212 241
183 212 241
183 212 241
183 212 241
183 212 241
183 212 241
183 212 241
183 212 241
183 212 241
183 212 241
183 212 241
183 212 241
183 212 241
183 212 241
183 212 241
183 212 241
183 212 241
183 212 241
183 212 241
183 212 241
183 212 241
183 212 241
183 212 241
183 212 241
184 212 241
184 212 241
184 212 241
184 212 241
184 212 241
184 212 241
184 212 241
184 212 241
184 212 241
184 213 241
184 213 241
184 213 241
184 213 241
184 213 241
184 213 241
184 213 241
184 213 241
184 213 241
184 213 241
184 213 241
184 213 241
184 213 241
184 213 241
184 213 241
184 213 241
184 213 241
184 213 241
184 213 241
184 213 241
184 213 241
185 213 241
185 213 241
185 213 241
185 213 241
185 213 241
185 213 241
185 213 241
185 213 241
185 213 241
185 213 241
185 213 241
185 213 241
185 213 241
185 213 241
185 213 241
185 213 241
185 213 241
185 213 241
185 213 241
185 213 241
185 213 241
185 213 241
185 213 241
185 213 241
185 213 241
185 213 241
185 213 241
185 213 241
185 213 241
185 213 241
185 213 241
185 213 241
185 213 241
185 213 241
185 213 241
185 213 241
185 213 241
186 214 242
186 214 242
186 214 242
186 214 242
186 214 242
186 214 242
186 214 242
186 214 242
186 214 242
186 214 242
186 214 242
186 214 242
186 214 242
186 214 242
186 214 242
186 214 242
186 214 242
186 214 242
186 214 242
186 214 242
186 214 242
186 214 242
186 214 242
186 214 242
186 214 242
186 214 242
186 214 242
186 214 242
186 214 242
186 214 242
186 214 242
186 214 242
186 214 242
186 214 242
186 214 242
186 214 242
186 214 242
186 214 242
186 214 242
186 214 242
186 214 242
186 214 242
186 214 242
186 214 242
186 214 242
186 214 242
186 214 242
186 214 242
186 214 242
186 214 242
186 214 242
186 214 242
186 214 242
186 214 242
186 214 242
186 214 242
186 214 242
186 214 242
186 214 242
186 214 242
186 214 242
186 214 242
186 214 242
186 214 242
186 214 242
186 214 242
186 214 242
186 214 242
186 214 242
186 214 242
186 214 242
186 214 242
186 214 242
186 214 242
186 214 242
186 214 242
186 214 242
186 214 242
185 213 241
185 213 241
185 213 241
185 213 241
185 213 241
185 213 241
185 213 241
185 213 241
185 213 241
185 213 241
185 213 241
185 213 241
185 213 241
185 213 241
185 213 241
185 213 241
185 213 241
185 213 241
185 213 241
185 213 241
185 213 241
185 213 241
185 213 241
185 213 241
185 213 241
185 213 241
185 213 241
185 213 241
185 213 241
185 213 241
185 213 241
185 213 241
185 213 241
185 213 241
185 213 241
184 213 241
184 213 241
184 213 241
184 213 241
184 213 241
184 213 241
184 213 241
184 213 241
184 213 241
184 213 241
184 213 241
184 213 241
184 213 241
184 213 241
184 213 241
184 213 241
184 213 241
184 213 241
184 213 241
184 213 241
184 212 241
184 212 241
184 212 241
184 212 241
184 212 241
184 212 241
184 212 241
184 212 241
184 212 241
184 212 241
184 212 241
183 212 241
183 212 241
183 212 241
183 212 241
183 212 241
183 212 241
183 212 241
183 212 241
183 212 241
183 212 241
183 212 241
183 212 241
183 212 241
183 212 241
183 212 241
183 212 241
183 212 241
183 212 241
183 212 241
183 212 241
183 212 241
183 212 241
183 212 241
183 212 241
183 212 241
0 140 194
0 56 157
0 55 168
0 53 176
0 52 183
0 51 188
0 51 193
0 50 197
0 49 200
0 49 204
0 48 207
0 48 209
0 47 212
0 47 214
0 47 217
0 46 219
0 46 221
0 46 223
0 45 224
0 45 226
0 45 227
0 45 229
0 44 230
0 44 232
0 44 233
0 44 234
0 44 235
0 44 236
0 43 237
0 43 238
0 43 239
0 43 240
0 43 241
0 43 242
0 43 242
0 42 243
0 42 244
0 42 245
0 42 245
0 42 246
0 42 246
0 42 247
0 42 247
0 42 248
0 42 248
0 42 249
0 42 249
0 41 249
0 41 250
0 41 250
0 41 250
0 41 251
0 41 251
0 41 251
0 41 251
0 41 251
0 41 252
0 41 252
0 41 252
0 41 252
0 41 252
0 41 252
0 41 252
1 41 252
3 41 252
5 41 252
8 41 252
10 41 252
12 41 252
15 41 252
17 41 251
19 41 251
22 41 251
24 41 251
26 41 251
28 41 250
31 41 250
33 41 250
36 42 249
38 42 249
40 42 249
43 42 248
45 42 248
48 42 247
50 42 247
53 42 246
55 42 246
57 42 245
60 42 245
63 42 244
65 42 243
68 43 242
70 43 242
73 43 241
75 43 240
78 43 239
81 43 238
84 43 237
86 43 236
89 44 235
92 44 234
95 44 233
98 44 232
101 45 230
104 45 229
107 45 227
110 45 226
113 45 224
116 46 223
120 46 221
123 46 219
127 47 217
130 47 214
134 47 212
138 48 209
142 48 207
146 49 204
150 49 200
155 50 197
160 50 193
165 51 188
171 52 182
177 53 176
184 54 168
194 56 156
191 157 205
183 212 241
183 212 241
183 212 241
183 212 241
183 212 241
183 212 241
183 212 241
183 212 241
183 212 241
183 212 241
183 212 241
183 212 241
183 212 241
183 212 241
183 212 241
183 212 241
183 212 241
183 212 241
183 212 241
183 212 241
183 212 241
183 212 241
183 212 241
183 212 241
183 212 241
184 212 241
184 212 241
184 212 241
184 212 241
184 212 241
184 212 241
184 212 241
184 212 241
184 212 241
184 212 241
184 213 241
184 213 241
184 213 241
184 213 241
184 213 241
184 213 241
184 213 241
184 213 241
184 213 241
184 213 241
184 213 241
184 213 241
184 213 241
184 213 241
184 213 241
184 213 241
184 213 241
184 213 241
184 213 241
184 213 241
184 213 241
185 213 241
185 213 241
185 213 241
185 213 241
185 213 241
185 213 241
185 213 241
185 213 241
185 213 241
185 213 241
185 213 241
185 213 241
185 213 241
185 213 241
185 213 241
185 213 241
185 213 241
185 213 241
185 213 241
185 213 241
185 213 241
185 213 241
185 213 241
185 213 241
185 213 241
185 213 241
185 213 241
185 213 241
185 213 241
185 213 241
185 213 241
185 213 241
185 213 241
185 213 241
185 213 241
185 213 241
186 214 242
186 214 242
186 214 242
186 214 242
186 214 242
186 214 242
186 214 242
186 214 242
186 214 242
186 214 242
186 214 242
186 214 242
186 214 242
186 214 242
186 214 242
186 214 242
186 214 242
186 214 242
186 214 242
186 214 242
186 214 242
186 214 242
186 214 242
186 214 242
186 214 242
186 214 242
186 214 242
186 214 242
186 214 242
186 214 242
186 214 242
186 214 242
186 214 242
186 214 242
186 214 242
186 214 242
186 214 242
186 214 242
186 214 242
186 214 242
186 214 242
186 214 242
186 214 242
186 214 242
186 214 242
187 214 242
187 214 242
187 214 242
187 214 242
187 214 242
187 214 242
187 214 242
187 214 242
187 214 242
187 214 242
187 214 242
187 214 242
187 214 242
187 214 242
186 214 242
186 214 242
186 214 242
186 214 242
186 214 242
186 214 242
186 214 242
186 214 242
186 214 242
186 214 242
186 214 242
186 214 242
186 214 242
186 214 242
186 214 242
186 214 242
186 214 242
186 214 242
186 214 242
186 214 242
186 214 242
186 214 242
186 214 242
186 214 242
186 214 242
186 214 242
186 214 242
186 214 242
186 214 242
186 214 242
186 214 242
186 214 242
186 214 242
186 214 242
186 214 242
186 214 242
186 214 242
186 214 242
186 214 242
186 214 242
186 214 242
186 214 242
186 214 242
186 214 242
185 213 241
185 213 241
185 213 241
185 213 241
185 213 241
185 213 241
185 213 241
185 213 241
185 213 241
185 213 241
185 213 241
185 213 241
185 213 241
185 213 241
185 213 241
185 213 241
185 213 241
185 213 241
185 213 241
185 213 241
185 213 241
185 213 241
185 213 241
185 213 241
185 213 241
185 213 241
185 213 241
185 213 241
185 213 241
185 213 241
185 213 241
185 213 241
185 213 241
185 213 241
185 213 241
185 213 241
184 213 241
184 213 241
184 213 241
184 213 241
184 213 241
184 213 241
184 213 241
184 213 241
184 213 241
184 213 241
184 213 241
184 213 241
184 213 241
184 213 241
184 213 241
184 213 241
184 213 241
184 213 241
184 213 241
184 213 241
184 213 241
184 212 241
184 212 241
184 212 241
184 212 241
184 212 241
184 212 241
184 212 241
184 212 241
184 212 241
184 212 241
184 212 241
183 212 241
183 212 241
183 212 241
183 212 241
183 212 241
183 212 241
183 212 241
183 212 241
183 212 241
183 212 241
183 212 241
0 107 177
0 52 160
0 51 170
0 50 178
0 49 184
0 48 189
0 47 194
0 47 198
0 46 201
0 46 205
0 45 208
0 45 210
0 45 213
0 44 215
0 44 217
0 44 219
0 43 221
0 43 223
0 43 225
0 43 227
0 42 228
0 42 229
0 42 231
0 42 232
0 42 233
0 41 235
0 41 236
0 41 237
0 41 238
0 41 239
0 41 240
0 41 241
0 40 241
0 40 242
0 40 243
0 40 244
0 40 244
0 40 245
0 40 246
0 40 246
0 39 247
0 39 247
0 39 248
0 39 248
0 39 249
0 39 249
0 39 249
0 39 250
0 39 250
0 39 250
0 39 251
0 39 251
0 39 251
0 39 252
0 39 252
0 39 252
0 39 252
0 39 252
0 39 252
0 39 252
0 39 252
0 38 252
0 39 252
1 39 253
3 39 252
5 39 252
8 39 252
10 39 252
12 39 252
14 39 252
17 39 252
19 39 252
21 39 252
24 39 251
26 39 251
28 39 251
31 39 250
33 39 250
36 39 250
38 39 249
40 39 249
43 39 249
45 39 248
48 39 248
50 40 247
52 40 247
55 40 246
57 40 246
60 40 245
62 40 244
65 40 244
68 40 243
70 40 242
73 40 241
75 41 241
78 41 240
81 41 239
83 41 238
86 41 237
89 41 236
92 41 235
95 42 233
98 42 232
101 42 231
104 42 230
107 42 228
110 43 226
113 43 225
116 43 223
119 43 222
123 44 219
126 44 217
130 44 215
134 45 213
137 45 210
141 45 208
145 46 205
150 46 201
154 47 198
159 48 194
164 48 189
170 49 184
176 50 178
183 51 170
192 53 160
196 108 177
183 212 241
183 212 241
183 212 241
183 212 241
183 212 241
183 212 241
183 212 241
183 212 241
183 212 241
183 212 241
183 212 241
183 212 241
184 212 241
184 212 241
184 212 241
184 212 241
184 212 241
184 212 241
184 212 241
184 212 241
184 212 241
184 212 241
184 213 241
184 213 241
184 213 241
184 213 241
184 213 241
184 213 241
184 213 241
184 213 241
184 213 241
184 213 241
184 213 241
184 213 241
184 213 241
184 213 241
184 213 241
184 213 241
184 213 241
184 213 241
184 213 241
184 213 241
185 213 241
184 213 241
185 213 241
185 213 241
185 213 241
185 213 241
185 213 241
185 213 241
185 213 241
185 213 241
185 213 241
185 213 241
185 213 241
185 213 241
185 213 241
185 213 241
185 213 241
185 213 241
185 213 241
185 213 241
185 213 241
185 213 241
185 213 241
185 213 241
185 213 241
185 213 241
185 213 241
185 213 241
185 213 241
185 213 241
185 213 241
185 213 241
185 213 241
185 213 241
185 213 241
185 213 241
185 213 241
186 214 242
186 214 242
186 214 242
186 214 242
186 214 242
186 214 242
186 214 242
186 214 242
186 214 242
186 214 242
186 214 242
186 214 242
186 214 242
186 214 242
186 214 242
186 214 242
186 214 242
186 214 242
186 214 242
186 214 242
186 214 242
186 214 242
186 214 242
186 214 242
186 214 242
186 214 242
186 214 242
186 214 242
186 214 242
186 214 242
186 214 242
186 214 242
186 214 242
186 214 242
186 214 242
186 214 242
186 214 242
186 214 242
186 214 242
186 214 242
186 214 242
186 214 242
186 214 242
186 214 242
187 214 242
187 214 242
187 214 242
187 214 242
187 214 242
187 214 242
187 214 242
187 214 242
187 214 242
187 214 242
187 214 242
187 214 242
187 214 242
187 214 242
187 214 242
187 214 242
187 214 242
187 214 242
187 214 242
187 214 242
187 214 242
187 214 242
187 214 242
187 214 242
187 214 242
187 214 242
187 214 242
187 214 242
187 214 242
187 214 242
187 214 242
187 214 242
187 214 242
187 214 242
187 214 242
187 214 242
187 214 242
187 214 242
187 214 242
187 214 242
187 214 242
187 214 242
186 214 242
187 214 242
186 214 242
186 214 242
186 214 242
186 214 242
186 214 242
186 214 242
186 214 242
186 214 242
186 214 242
186 214 242
186 214 242
186 214 242
186 214 242
186 214 242
186 214 242
186 214 242
186 214 242
186 214 242
186 214 242
186 214 242
186 214 242
186 214 242
186 214 242
186 214 242
186 214 242
186 214 242
186 214 242
186 214 242
186 214 242
186 214 242
186 214 242
186 214 242
186 214 242
186 214 242
186 214 242
186 214 242
186 214 242
186 214 242
186 214 242
186 214 242
186 214 242
186 214 242
186 214 242
185 213 241
185 213 241
185 213 241
185 213 241
185 213 241
185 213 241
185 213 241
185 213 241
185 213 241
185 213 241
185 213 241
185 213 241
185 213 241
185 213 241
185 213 241
185 213 241
185 213 241
185 213 241
185 213 241
185 213 241
185 213 241
185 213 241
185 213 241
185 213 241
185 213 241
185 213 241
185 213 241
185 213 241
185 213 241
185 213 241
185 213 241
185 213 241
185 213 241
185 213 241
184 213 241
184 213 241
184 213 241
184 213 241
184 213 241
184 213 241
184 213 241
184 213 241
184 213 241
184 213 241
184 213 241
184 213 241
184 213 241
184 213 241
184 213 241
184 213 241
184 213 241
184 213 241
184 213 241
184 213 241
184 213 241
184 213 241
184 213 241
184 212 241
184 212 241
184 212 241
184 212 241
184 212 241
184 212 241
180 211 240
0 62 154
0 49 163
0 48 172
0 47 180
0 46 186
0 45 191
0 45 195
0 44 199
0 43 203
0 43 206
0 43 209
0 42 211
0 42 214
0 42 216
0 41 218
0 41 220
0 41 222
0 40 224
0 40 226
0 40 227
0 40 229
0 40 230
0 39 231
0 39 233
0 39 234
0 39 235
0 39 236
0 39 237
0 38 238
0 38 239
0 38 240
0 38 241
0 38 242
0 38 243
0 38 243
0 38 244
0 37 245
0 37 245
0 37 246
0 37 247
0 37 247
0 37 248
0 37 248
0 37 249
0 37 249
0 37 249
0 37 250
0 37 250
0 36 251
0 37 251
0 36 251
0 37 251
0 36 252
0 37 252
0 36 252
0 36 252
0 36 252
0 36 253
0 36 253
0 36 253
0 36 253
0 36 253
0 36 253
1 36 253
3 36 253
5 36 253
8 36 253
10 36 253
12 36 253
14 36 252
17 36 252
19 36 252
21 36 252
24 36 252
26 37 251
28 37 251
31 37 251
33 37 251
35 37 250
38 37 250
40 37 249
43 37 249
45 37 249
47 37 248
50 37 248
52 37 247
55 37 247
57 37 246
60 37 245
62 37 245
65 38 244
67 38 243
70 38 243
73 38 242
75 38 241
78 38 240
81 38 239
83 38 238
86 39 237
89 39 236
92 39 235
95 39 234
97 39 233
100 39 232
103 39 230
107 40 229
109 40 227
113 40 225
116 41 224
119 41 222
123 41 220
126 41 218
130 42 216
133 42 214
137 42 211
141 43 208
145 43 206
149 44 203
153 44 199
158 44 195
163 45 191
169 46 186
175 47 180
182 47 173
190 49 163
199 62 156
184 212 241
184 212 241
184 212 241
184 212 241
184 212 241
184 212 241
184 212 241
184 213 241
184 213 241
184 213 241
184 213 241
184 213 241
184 213 241
184 213 241
184 213 241
184 213 241
184 213 241
184 213 241
184 213 241
184 213 241
184 213 241
184 213 241
184 213 241
184 213 241
184 213 241
184 213 241
184 213 241
184 213 241
185 213 241
184 213 241
185 213 241
185 213 241
185 213 241
185 213 241
185 213 241
185 213 241
185 213 241
185 213 241
185 213 241
185 213 241
185 213 241
185 213 241
185 213 241
185 213 241
185 213 241
185 213 241
185 213 241
185 213 241
185 213 241
185 213 241
185 213 241
185 213 241
185 213 241
185 213 241
185 213 241
185 213 241
185 213 241
185 213 241
185 213 241
185 213 241
185 213 241
185 213 241
185 213 241
185 213 241
186 214 242
186 214 242
186 214 242
186 214 242
186 214 242
186 214 242
186 214 242
186 214 242
186 214 242
186 214 242
186 214 242
186 214 242
186 214 242
186 214 242
186 214 242
186 214 242
186 214 242
186 214 242
186 214 242
186 214 242
186 214 242
186 214 242
186 214 242
186 214 242
186 214 242
186 214 242
186 214 242
186 214 242
186 214 242
186 214 242
186 214 242
186 214 242
186 214 242
186 214 242
186 214 242
186 214 242
186 214 242
186 214 242
186 214 242
186 214 242
186 214 242
186 214 242
186 214 242
187 214 242
187 214 242
187 214 242
187 214 242
187 214 242
187 214 242
187 214 242
187 214 242
187 214 242
187 214 242
187 214 242
187 214 242
187 214 242
187 214 242
187 214 242
187 214 242
187 214 242
187 214 242
187 214 242
187 214 242
187 214 242
187 214 242
187 214 242
187 214 242
187 214 242
187 214 242
187 214 242
187 214 242
187 214 242
187 214 242
187 215 242
187 215 242
187 215 242
187 215 242
187 215 242
187 215 242
187 215 242
187 215 242
187 215 242
187 214 242
187 214 242
187 214 242
187 214 242
187 214 242
187 214 242
187 214 242
187 214 242
187 214 242
187 214 242
187 214 242
187 214 242
187 214 242
187 214 242
187 214 242
187 214 242
187 214 242
187 214 242
187 214 242
187 214 242
187 214 242
187 214 242
187 214 242
187 214 242
187 214 242
187 214 242
187 214 242
187 214 242
187 214 242
187 214 242
187 214 242
187 214 242
187 214 242
187 214 242
187 214 242
187 214 242
186 214 242
186 214 242
186 214 242
186 214 242
186 214 242
186 214 242
186 214 242
186 214 242
186 214 242
186 214 242
186 214 242
186 214 242
186 214 242
186 214 242
186 214 242
186 214 242
186 214 242
186 214 242
186 214 242
186 214 242
186 214 242
186 214 242
186 214 242
186 214 242
186 214 242
186 214 242
186 214 242
186 214 242
186 214 242
186 214 242
186 214 242
186 214 242
186 214 242
186 214 242
186 214 242
186 214 242
186 214 242
186 214 242
186 214 242
186 214 242
186 214 242
186 214 242
186 214 242
185 213 241
185 213 241
185 213 241
185 213 241
185 213 241
185 213 241
185 213 241
185 213 241
185 213 241
185 213 241
185 213 241
185 213 241
185 213 241
185 213 241
185 213 241
185 213 241
185 213 241
185 213 241
185 213 241
185 213 241
185 213 241
185 213 241
185 213 241
185 213 241
185 213 241
185 213 241
185 213 241
185 213 241
185 213 241
185 213 241
185 213 241
185 213 241
185 213 241
185 213 241
185 213 241
185 213 241
184 213 241
184 213 241
184 213 241
184 213 241
184 213 241
184 213 241
184 213 241
184 213 241
184 213 241
184 213 241
184 213 241
184 213 241
62 162 209
0 47 153
0 46 166
0 44 175
0 43 182
0 43 187
0 42 192
0 42 196
0 41 200
0 41 203
0 40 206
0 40 209
0 39 212
0 39 214
0 39 217
0 39 219
0 38 221
0 38 223
0 38 224
0 38 226
0 37 228
0 37 229
0 37 231
0 37 232
0 37 233
0 36 234
0 36 235
0 36 237
0 36 238
0 36 239
0 36 240
0 36 241
0 36 241
0 35 242
0 35 243
0 35 244
0 35 244
0 35 245
0 35 246
0 35 246
0 35 247
0 35 247
0 35 248
0 35 249
0 35 249
0 35 249
0 35 250
0 34 250
0 34 251
0 34 251
0 34 251
0 34 252
0 34 252
0 34 252
0 34 252
0 34 252
0 34 253
0 34 253
0 34 253
0 34 253
0 34 253
0 34 253
0 34 253
0 34 253
1 34 253
3 34 253
5 34 253
8 34 253
10 34 253
12 34 253
14 34 253
17 34 253
19 34 252
21 34 252
24 34 252
26 34 252
28 34 251
31 34 251
33 34 251
36 34 251
38 34 250
40 34 250
43 34 249
45 35 249
47 35 249
50 35 248
52 35 248
55 35 247
57 35 246
60 35 246
62 35 245
65 35 245
67 35 244
70 35 243
73 35 242
75 35 241
78 35 241
80 36 240
83 36 239
86 36 238
89 36 237
91 36 236
94 36 234
97 36 233
100 37 232
103 37 231
106 37 229
109 37 228
112 38 226
116 38 224
119 38 223
122 38 221
126 39 219
129 39 217
133 39 214
136 39 212
140 40 209
145 40 206
149 40 203
153 41 200
158 42 196
163 42 192
168 43 187
174 43 182
180 44 175
189 46 165
199 47 152
189 180 220
184 213 241
184 213 241
184 213 241
184 213 241
184 213 241
184 213 241
184 213 241
184 213 241
184 213 241
184 213 241
184 213 241
184 213 241
184 213 241
185 213 241
185 213 241
185 213 241
185 213 241
185 213 241
185 213 241
185 213 241
185 213 241
185 213 241
185 213 241
185 213 241
185 213 241
185 213 241
185 213 241
185 213 241
185 213 241
185 213 241
185 213 241
185 213 241
185 213 241
185 213 241
185 213 241
185 213 241
185 213 241
185 213 241
185 213 241
185 213 241
185 213 241
185 213 241
185 213 241
185 213 241
185 213 241
185 213 241
185 213 241
185 213 241
185 213 241
186 214 242
186 214 242
186 214 242
186 214 242
186 214 242
186 214 242
186 214 242
186 214 242
186 214 242
186 214 242
186 214 242
186 214 242
186 214 242
186 214 242
186 214 242
186 214 242
186 214 242
186 214 242
186 214 242
186 214 242
186 214 242
186 214 242
186 214 242
186 214 242
186 214 242
186 214 242
186 214 242
186 214 242
186 214 242
186 214 242
186 214 242
186 214 242
186 214 242
186 214 242
186 214 242
186 214 242
186 214 242
186 214 242
186 214 242
186 214 242
186 214 242
186 214 242
187 214 242
187 214 242
187 214 242
187 214 242
187 214 242
187 214 242
187 214 242
187 214 242
187 214 242
187 214 242
187 214 242
187 214 242
187 214 242
187 214 242
187 214 242
187 214 242
187 214 242
187 214 242
187 214 242
187 214 242
187 214 242
187 214 242
187 214 242
187 214 242
187 214 242
187 214 242
187 214 242
187 214 242
187 214 242
187 214 242
187 214 242
187 214 242
187 214 242
187 214 242
187 214 242
187 214 242
187 215 242
187 215 242
187 215 242
187 215 242
187 215 242
187 215 242
187 215 242
187 215 242
187 215 242
188 215 242
188 215 242
188 215 242
188 215 242
188 215 242
188 215 242
187 215 242
187 215 242
187 215 242
187 215 242
187 215 242
187 215 242
187 215 242
187 215 242
187 215 242
187 215 242
187 215 242
187 215 242
187 215 242
187 215 242
187 215 242
187 215 242
187 215 242
187 215 242
187 215 242
187 215 242
187 215 242
187 214 242
187 214 242
187 214 242
187 214 242
187 214 242
187 214 242
187 214 242
187 214 242
187 214 242
187 214 242
187 214 242
187 214 242
187 214 242
187 214 242
187 214 242
187 214 242
187 214 242
187 214 242
187 214 242
187 214 242
187 214 242
187 214 242
187 214 242
187 214 242
187 214 242
187 214 242
187 214 242
187 214 242
187 214 242
187 214 242
187 214 242
187 214 242
187 214 242
187 214 242
186 214 242
186 214 242
186 214 242
186 214 242
186 214 242
186 214 242
186 214 242
186 214 242
186 214 242
186 214 242
186 214 242
186 214 242
186 214 242
186 214 242
186 214 242
186 214 242
186 214 242
186 214 242
186 214 242
186 214 242
186 214 242
186 214 242
186 214 242
186 214 242
186 214 242
186 214 242
186 214 242
186 214 242
186 214 242
186 214 242
186 214 242
186 214 242
186 214 242
186 214 242
186 214 242
186 214 242
186 214 242
186 214 242
186 214 242
186 214 242
186 214 242
185 213 241
185 213 241
185 213 241
185 213 241
185 213 241
185 213 241
185 213 241
185 213 241
185 213 241
185 213 241
185 213 241
185 213 241
185 213 241
185 213 241
185 213 241
185 213 241
185 213 241
185 213 241
185 213 241
185 213 241
185 213 241
185 213 241
185 213 241
185 213 241
185 213 241
185 213 241
185 213 241
185 213 241
185 213 241
185 213 241
185 213 241
185 213 241
185 213 241
185 213 241
24 144 201
0 44 156
0 42 169
0 41 177
0 40 183
0 40 188
0 39 193
0 39 197
0 38 201
0 38 204
0 37 207
0 37 210
0 37 213
0 36 215
0 36 217
0 36 219
0 36 221
0 35 223
0 35 225
0 35 227
0 35 228
0 34 230
0 34 231
0 34 232
0 34 234
0 34 235
0 34 236
0 34 237
0 34 238
0 33 239
0 33 240
0 33 241
0 33 242
0 33 243
0 33 243
0 33 244
0 33 245
0 33 245
0 33 246
0 33 247
0 32 247
0 32 248
0 32 248
0 32 249
0 32 249
0 32 250
0 32 250
0 32 251
0 32 251
0 32 251
0 32 252
0 32 252
0 32 252
0 32 252
0 32 253
0 32 253
0 32 253
0 32 253
0 32 253
0 32 253
0 32 253
0 32 253
0 32 253
0 32 253
1 32 253
3 32 253
5 32 253
7 32 253
10 32 253
12 32 253
14 32 253
17 32 253
19 32 253
21 32 253
24 32 252
26 32 252
28 32 252
31 32 252
33 32 251
35 32 251
38 32 251
40 32 250
42 32 250
45 32 249
47 32 249
50 32 248
52 32 248
55 32 247
57 32 247
60 32 246
62 33 246
65 33 245
67 33 244
70 33 243
72 33 243
75 33 242
78 33 241
80 33 240
83 34 239
86 33 238
88 34 237
91 34 236
94 34 235
97 34 234
100 34 232
103 34 231
106 35 230
109 35 228
112 35 227
115 35 225
119 35 223
122 36 221
125 36 219
129 36 217
133 37 215
136 37 213
140 37 210
144 37 207
148 38 204
153 38 201
157 39 197
162 39 193
167 40 189
173 41 183
179 41 177
187 42 168
196 44 157
195 141 198
185 213 241
185 213 241
185 213 241
185 213 241
185 213 241
185 213 241
185 213 241
185 213 241
185 213 241
185 213 241
185 213 241
185 213 241
185 213 241
185 213 241
185 213 241
185 213 241
185 213 241
185 213 241
185 213 241
185 213 241
185 213 241
185 213 241
185 213 241
185 213 241
185 213 241
185 213 241
185 213 241
185 213 241
185 213 241
185 213 241
185 213 241
185 213 241
185 213 241
185 213 241
186 214 242
186 214 242
186 214 242
186 214 242
186 214 242
186 214 242
186 214 242
186 214 242
186 214 242
186 214 242
186 214 242
186 214 242
186 214 242
186 214 242
186 214 242
186 214 242
186 214 242
186 214 242
186 214 242
186 214 242
186 214 242
186 214 242
186 214 242
186 214 242
186 214 242
186 214 242
186 214 242
186 214 242
186 214 242
186 214 242
186 214 242
186 214 242
186 214 242
186 214 242
186 214 242
186 214 242
186 214 242
186 214 242
186 214 242
186 214 242
187 214 242
187 214 242
187 214 242
187 214 242
187 214 242
187 214 242
187 214 242
187 214 242
187 214 242
187 214 242
187 214 242
187 214 242
187 214 242
187 214 242
187 214 242
187 214 242
187 214 242
187 214 242
187 214 242
187 214 242
187 214 242
187 214 242
187 214 242
187 214 242
187 214 242
187 214 242
187 214 242
187 214 242
187 214 242
187 214 242
187 214 242
187 214 242
187 214 242
187 214 242
187 214 242
187 215 242
187 215 242
187 215 242
187 215 242
187 215 242
187 215 242
187 215 242
187 215 242
187 215 242
187 215 242
187 215 242
187 215 242
187 215 242
187 215 242
187 215 242
187 215 242
187 215 242
187 215 242
187 215 242
187 215 242
188 215 242
188 215 242
188 215 242
188 215 242
188 215 242
188 215 242
188 215 242
188 215 242
188 215 242
188 215 242
188 215 242
188 215 242
188 215 242
188 215 242
188 215 242
188 215 242
188 215 242
188 215 242
188 215 242
188 215 242
188 215 242
188 215 242
188 215 242
188 215 242
188 215 242
188 215 242
188 215 242
188 215 242
188 215 242
188 215 242
188 215 242
188 215 242
187 215 242
187 215 242
187 215 242
187 215 242
187 215 242
187 215 242
187 215 242
187 215 242
187 215 242
187 215 242
187 215 242
187 215 242
187 215 242
187 215 242
187 215 242
187 215 242
187 215 242
187 215 242
187 215 242
187 215 242
187 214 242
187 214 242
187 214 242
187 214 242
187 214 242
187 214 242
187 214 242
187 214 242
187 214 242
187 214 242
187 214 242
187 214 242
187 214 242
187 214 242
187 214 242
187 214 242
187 214 242
187 214 242
187 214 242
187 214 242
187 214 242
187 214 242
187 214 242
187 214 242
187 214 242
187 214 242
187 214 242
187 214 242
187 214 242
187 214 242
187 214 242
187 214 242
187 214 242
186 214 242
186 214 242
186 214 242
186 214 242
186 214 242
186 214 242
186 214 242
186 214 242
186 214 242
186 214 242
186 214 242
186 214 242
186 214 242
186 214 242
186 214 242
186 214 242
186 214 242
186 214 242
186 214 242
186 214 242
186 214 242
186 214 242
186 214 242
186 214 242
186 214 242
186 214 242
186 214 242
186 214 242
186 214 242
186 214 242
186 214 242
186 214 242
186 214 242
186 214 242
186 214 242
186 214 242
186 214 242
186 214 242
186 214 242
186 214 242
186 214 242
186 214 242
185 213 241
185 213 241
185 213 241
185 213 241
185 213 241
185 213 241
185 213 241
185 213 241
185 213 241
185 213 241
185 213 241
185 213 241
185 213 241
185 213 241
185 213 241
185 213 241
0 105 180
0 40 159
0 39 170
0 38 178
0 37 184
0 37 190
0 36 194
0 36 198
0 35 202
0 35 205
0 35 208
0 34 211
0 34 213
0 34 216
0 34 218
0 33 220
0 33 222
0 33 224
0 33 225
0 32 227
0 32 229
0 32 230
0 32 231
0 32 233
0 32 234
0 31 235
0 31 236
0 31 237
0 31 239
0 31 240
0 31 240
0 31 241
0 31 242
0 30 243
0 31 244
0 30 244
0 30 245
0 30 246
0 30 246
0 30 247
0 30 248
0 30 248
0 30 249
0 30 249
0 30 250
0 30 250
0 30 250
0 30 251
0 30 251
0 30 252
0 29 252
0 30 252
0 29 252
0 29 253
0 29 253
0 29 253
0 29 253
0 29 253
0 29 253
0 29 254
0 29 254
0 29 254
0 29 254
0 29 254
1 29 254
3 29 254
5 29 254
8 29 254
10 29 254
12 29 253
14 29 253
17 29 253
19 29 253
21 29 253
24 29 253
26 29 252
28 29 252
31 30 252
33 30 252
35 30 251
38 30 251
40 30 250
42 30 250
45 30 250
47 30 249
50 30 249
52 30 248
55 30 248
57 30 247
60 30 246
62 30 246
64 30 245
67 30 244
70 30 244
72 31 243
75 30 242
78 31 241
80 31 240
83 31 239
86 31 238
88 31 237
91 31 236
94 31 235
97 31 234
100 32 233
103 32 232
106 32 230
109 32 229
112 32 227
115 32 225
119 33 224
122 33 222
125 33 220
129 34 218
132 34 216
136 34 213
140 34 211
144 35 208
148 35 205
153 35 202
157 36 198
162 36 194
167 37 190
173 37 184
179 38 178
186 39 170
195 40 159
199 95 175
185 213 241
185 213 241
185 213 241
185 213 241
185 213 241
185 213 241
185 213 241
185 213 241
185 213 241
185 213 241
185 213 241
185 213 241
185 213 241
185 213 241
185 213 241
185 213 241
186 214 242
186 214 242
186 214 242
186 214 242
186 214 242
186 214 242
186 214 242
186 214 242
186 214 242
186 214 242
186 214 242
186 214 242
186 214 242
186 214 242
186 214 242
186 214 242
186 214 242
186 214 242
186 214 242
186 214 242
186 214 242
186 214 242
186 214 242
186 214 242
186 214 242
186 214 242
186 214 242
186 214 242
186 214 242
186 214 242
186 214 242
186 214 242
186 214 242
186 214 242
186 214 242
186 214 242
186 214 242
186 214 242
186 214 242
186 214 242
186 214 242
186 214 242
187 214 242
187 214 242
187 214 242
187 214 242
187 214 242
187 214 242
187 214 242
187 214 242
187 214 242
187 214 242
187 214 242
187 214 242
187 214 242
187 214 242
187 214 242
187 214 242
187 214 242
187 214 242
187 214 242
187 214 242
187 214 242
187 214 242
187 214 242
187 214 242
187 214 242
187 214 242
187 214 242
187 214 242
187 214 242
187 214 242
187 214 242
187 214 242
187 214 242
187 215 242
187 215 242
187 215 242
187 215 242
187 215 242
187 215 242
187 215 242
187 215 242
187 215 242
187 215 242
187 215 242
187 215 242
187 215 242
187 215 242
187 215 242
187 215 242
187 215 242
187 215 242
187 215 242
187 215 242
188 215 242
188 215 242
188 215 242
188 215 242
188 215 242
188 215 242
188 215 242
188 215 242
188 215 242
188 215 242
188 215 242
188 215 242
188 215 242
188 215 242
188 215 242
188 215 242
188 215 242
188 215 242
188 215 242
188 215 242
188 215 242
188 215 242
188 215 242
188 215 242
188 215 242
188 215 242
188 215 242
188 215 242
188 215 242
188 215 242
188 215 242
188 215 242
188 215 242
188 215 242
188 215 242
188 215 242
188 215 242
188 215 242
188 215 242
188 215 242
188 215 242
188 215 242
188 215 242
188 215 242
188 215 242
188 215 242
188 215 242
188 215 242
188 215 242
188 215 242
188 215 242
188 215 242
188 215 242
188 215 242
188 215 242
188 215 242
188 215 242
188 215 242
188 215 242
188 215 242
188 215 242
188 215 242
188 215 242
188 215 242
188 215 242
188 215 242
188 215 242
188 215 242
188 215 242
188 215 242
187 215 242
187 215 242
187 215 242
187 215 242
187 215 242
187 215 242
187 215 242
187 215 242
187 215 242
187 215 242
187 215 242
187 215 242
187 215 242
187 215 242
187 215 242
187 215 242
187 215 242
187 215 242
187 215 242
187 214 242
187 214 242
187 214 242
187 214 242
187 214 242
187 214 242
187 214 242
187 214 242
187 214 242
187 214 242
187 214 242
187 214 242
187 214 242
187 214 242
187 214 242
187 214 242
187 214 242
187 214 242
187 214 242
187 214 242
187 214 242
187 214 242
187 214 242
187 214 242
187 214 242
187 214 242
187 214 242
187 214 242
187 214 242
187 214 242
187 214 242
187 214 242
187 214 242
186 214 242
186 214 242
186 214 242
186 214 242
186 214 242
186 214 242
186 214 242
186 214 242
186 214 242
186 214 242
186 214 242
186 214 242
186 214 242
186 214 242
186 214 242
186 214 242
186 214 242
186 214 242
186 214 242
186 214 242
186 214 242
186 214 242
186 214 242
186 214 242
186 214 242
186 214 242
186 214 242
186 214 242
186 214 242
186 214 242
186 214 242
186 214 242
186 214 242
186 214 242
186 214 242
186 214 242
186 214 242
186 214 242
186 214 242
0 79 168
0 37 162
0 36 172
0 35 179
0 34 185
0 34 190
0 33 195
0 33 199
0 33 202
0 32 206
0 32 209
0 32 211
0 31 214
0 31 216
0 31 218
0 31 220
0 30 222
0 30 224
0 30 226
0 30 228
0 30 229
0 29 231
0 29 232
0 29 233
0 29 234
0 29 236
0 29 237
0 29 238
0 29 239
0 29 240
0 28 241
0 28 242
0 28 242
0 28 243
0 28 244
0 28 245
0 28 245
0 28 246
0 28 247
0 28 247
0 28 248
0 28 248
0 27 249
0 27 249
0 27 250
0 27 250
0 27 251
0 27 251
0 27 251
0 27 252
0 27 252
0 27 252
0 27 253
0 27 253
0 27 253
0 27 253
0 27 253
0 27 254
0 27 254
0 27 254
0 27 254
0 27 254
0 27 254
0 27 254
1 27 254
3 27 254
5 27 254
7 27 254
10 27 254
12 27 254
14 27 254
17 27 253
19 27 253
21 27 253
24 27 253
26 27 253
28 27 252
31 27 252
33 27 252
35 27 251
38 27 251
40 27 251
42 27 250
45 28 250
47 27 249
50 28 249
52 27 248
55 28 248
57 28 247
60 28 247
62 28 246
65 28 245
67 28 245
70 28 244
72 28 243
75 28 242
77 28 242
80 28 241
83 28 240
86 29 239
88 29 238
91 29 237
94 29 236
97 29 234
100 29 233
103 29 232
106 29 231
109 30 229
112 30 228
115 30 226
118 30 224
122 30 222
125 30 220
128 31 218
132 31 216
136 31 214
140 31 211
144 32 209
148 32 206
152 33 203
156 33 199
161 33 195
166 34 191
172 34 186
178 35 180
185 36 172
193 37 162
202 63 160
186 214 242
186 214 242
186 214 242
186 214 242
186 214 242
186 214 242
186 214 242
186 214 242
186 214 242
186 214 242
186 214 242
186 214 242
186 214 242
186 214 242
186 214 242
186 214 242
186 214 242
186 214 242
186 214 242
186 214 242
186 214 242
186 214 242
186 214 242
186 214 242
186 214 242
186 214 242
186 214 242
186 214 242
186 214 242
186 214 242
186 214 242
186 214 242
186 214 242
186 214 242
186 214 242
186 214 242
186 214 242
186 214 242
186 214 242
187 214 242
186 214 242
187 214 242
187 214 242
187 214 242
187 214 242
187 214 242
187 214 242
187 214 242
187 214 242
187 214 242
187 214 242
187 214 242
187 214 242
187 214 242
187 214 242
187 214 242
187 214 242
187 214 242
187 214 242
187 214 242
187 214 242
187 214 242
187 214 242
187 214 242
187 214 242
187 214 242
187 214 242
187 214 242
187 214 242
187 214 242
187 214 242
187 214 242
187 214 242
187 215 242
187 215 242
187 215 242
187 215 242
187 215 242
187 215 242
187 215 242
187 215 242
187 215 242
187 215 242
187 215 242
187 215 242
187 215 242
187 215 242
187 215 242
187 215 242
187 215 242
187 215 242
188 215 242
188 215 242
188 215 242
188 215 242
188 215 242
188 215 242
188 215 242
188 215 242
188 215 242
188 215 242
188 215 242
188 215 242
188 215 242
188 215 242
188 215 242
188 215 242
188 215 242
188 215 242
188 215 242
188 215 242
188 215 242
188 215 242
188 215 242
188 215 242
188 215 242
188 215 242
188 215 242
188 215 242
188 215 242
188 215 242
188 215 242
188 215 242
188 215 242
188 215 242
188 215 242
188 215 242
188 215 242
188 215 242
188 215 242
188 215 242
188 215 242
188 215 242
188 215 242
188 215 242
188 215 242
188 215 242
188 215 242
188 215 242
188 215 242
188 215 242
188 215 242
188 215 242
188 215 242
188 215 242
188 215 242
188 215 242
188 215 242
188 215 242
188 215 242
188 215 242
188 215 242
188 215 242
188 215 242
188 215 242
188 215 242
188 215 242
188 215 242
188 215 242
188 215 242
188 215 242
188 215 242
188 215 242
188 215 242
188 215 242
188 215 242
188 215 242
188 215 242
188 215 242
188 215 242
188 215 242
188 215 242
188 215 242
188 215 242
188 215 242
188 215 242
188 215 242
188 215 242
188 215 242
188 215 242
188 215 242
188 215 242
188 215 242
188 215 242
188 215 242
188 215 242
188 215 242
188 215 242
188 215 242
188 215 242
188 215 242
188 215 242
188 215 242
188 215 242
188 215 242
188 215 242
188 215 242
188 215 242
188 215 242
188 215 242
188 215 242
187 215 242
187 215 242
187 215 242
187 215 242
187 215 242
187 215 242
187 215 242
187 215 242
187 215 242
187 215 242
187 215 242
187 215 242
187 215 242
187 215 242
187 215 242
187 215 242
187 215 242
187 215 242
187 214 242
187 214 242
187 214 242
187 214 242
187 214 242
187 214 242
187 214 242
187 214 242
187 214 242
187 214 242
187 214 242
187 214 242
187 214 242
187 214 242
187 214 242
187 214 242
187 214 242
187 214 242
187 214 242
187 214 242
187 214 242
187 214 242
187 214 242
187 214 242
187 214 242
187 214 242
187 214 242
187 214 242
187 214 242
187 214 242
187 214 242
187 214 242
187 214 242
187 214 242
186 214 242
186 214 242
186 214 242
186 214 242
186 214 242
186 214 242
186 214 242
186 214 242
186 214 242
186 214 242
186 214 242
186 214 242
186 214 242
186 214 242
186 214 242
186 214 242
186 214 242
186 214 242
158 201 234
0 37 149
0 33 164
0 33 174
0 32 181
0 31 187
0 31 192
0 30 196
0 30 200
0 30 203
0 29 206
0 29 209
0 29 212
0 29 214
0 28 217
0 28 219
0 28 221
0 28 223
0 28 225
0 27 226
0 27 228
0 27 230
0 27 231
0 27 232
0 27 234
0 27 235
0 27 236
0 26 237
0 26 238
0 26 239
0 26 240
0 26 241
0 26 242
0 26 243
0 26 244
0 26 244
0 26 245
0 25 246
0 25 246
0 25 247
0 25 248
0 25 248
0 25 249
0 25 249
0 25 250
0 25 250
0 25 251
0 25 251
0 25 251
0 25 252
0 25 252
0 25 252
0 25 253
0 25 253
0 25 253
0 25 253
0 25 254
0 25 254
0 25 254
0 25 254
0 25 254
0 25 254
0 25 254
0 25 254
0 25 254
1 25 254
3 25 254
5 25 254
7 25 254
10 25 254
12 25 254
14 25 254
17 25 254
19 25 254
21 25 253
24 25 253
26 25 253
28 25 253
31 25 252
33 25 252
35 25 252
38 25 251
40 25 251
42 25 251
45 25 250
47 25 250
50 25 249
52 25 249
54 25 248
57 25 248
60 25 247
62 25 246
65 25 246
67 26 245
70 26 244
72 26 244
75 26 243
78 26 242
80 26 241
83 26 240
85 26 239
88 26 238
91 26 237
94 26 236
97 27 235
99 27 234
103 27 232
105 27 231
109 27 229
112 27 228
115 27 226
118 27 225
121 28 223
125 28 221
128 28 219
132 28 217
136 29 214
139 29 212
143 29 209
147 29 206
152 30 203
156 30 200
161 30 196
166 31 191
171 31 186
177 32 181
185 33 173
192 33 164
203 40 152
187 210 239
186 214 242
186 214 242
186 214 242
186 214 242
186 214 242
186 214 242
186 214 242
186 214 242
186 214 242
186 214 242
186 214 242
186 214 242
186 214 242
186 214 242
186 214 242
186 214 242
186 214 242
186 214 242
186 214 242
187 214 242
187 214 242
187 214 242
187 214 242
187 214 242
187 214 242
187 214 242
187 214 242
187 214 242
187 214 242
187 214 242
187 214 242
187 214 242
187 214 242
187 214 242
187 214 242
187 214 242
187 214 242
187 214 242
187 214 242
187 214 242
187 214 242
187 214 242
187 214 242
187 214 242
187 214 242
187 214 242
187 214 242
187 214 242
187 214 242
187 214 242
187 214 242
187 214 242
187 215 242
187 215 242
187 215 242
187 215 242
187 215 242
187 215 242
187 215 242
187 215 242
187 215 242
187 215 242
187 215 242
187 215 242
187 215 242
187 215 242
187 215 242
187 215 242
187 215 242
188 215 242
188 215 242
188 215 242
188 215 242
188 215 242
188 215 242
188 215 242
188 215 242
188 215 242
188 215 242
188 215 242
188 215 242
188 215 242
188 215 242
188 215 242
188 215 242
188 215 242
188 215 242
188 215 242
188 215 242
188 215 242
188 215 242
188 215 242
188 215 242
188 215 242
188 215 242
188 215 242
188 215 242
188 215 242
188 215 242
188 215 242
188 215 242
188 215 242
188 215 242
188 215 242
188 215 242
188 215 242
188 215 242
188 215 242
188 215 242
188 215 242
188 215 242
188 215 242
188 215 242
188 215 242
188 215 242
188 215 242
188 215 242
188 215 242
188 215 242
188 215 242
188 215 242
188 215 242
188 215 242
188 215 242
188 215 242
188 215 242
188 215 242
188 215 242
188 215 242
188 215 242
188 215 242
188 215 242
188 215 242
188 215 242
188 215 242
189 215 242
189 215 242
189 215 242
189 215 242
189 215 242
189 215 242
189 215 242
189 215 242
189 215 242
189 215 242
189 215 242
189 215 242
189 215 242
189 215 242
189 215 242
189 215 242
189 215 242
189 215 242
189 215 242
188 215 242
189 215 242
188 215 242
188 215 242
188 215 242
188 215 242
188 215 242
188 215 242
188 215 242
188 215 242
188 215 242
188 215 242
188 215 242
188 215 242
188 215 242
188 215 242
188 215 242
188 215 242
188 215 242
188 215 242
188 215 242
188 215 242
188 215 242
188 215 242
188 215 242
188 215 242
188 215 242
188 215 242
188 215 242
188 215 242
188 215 242
188 215 242
188 215 242
188 215 242
188 215 242
188 215 242
188 215 242
188 215 242
188 215 242
188 215 242
188 215 242
188 215 242
188 215 242
188 215 242
188 215 242
188 215 242
188 215 242
188 215 242
188 215 242
188 215 242
188 215 242
188 215 242
188 215 242
188 215 242
188 215 242
188 215 242
188 215 242
188 215 242
188 215 242
188 215 242
188 215 242
188 215 242
188 215 242
188 215 242
188 215 242
188 215 242
188 215 242
188 215 242
187 215 242
187 215 242
187 215 242
187 215 242
187 215 242
187 215 242
187 215 242
187 215 242
187 215 242
187 215 242
187 215 242
187 215 242
187 215 242
187 215 242
187 215 242
187 215 242
187 215 242
187 215 242
187 214 242
187 214 242
187 214 242
187 214 242
187 214 242
187 214 242
187 214 242
187 214 242
187 214 242
187 214 242
187 214 242
187 214 242
187 214 242
187 214 242
187 214 242
187 214 242
187 214 242
187 214 242
187 214 242
187 214 242
187 214 242
187 214 242
187 214 242
187 214 242
187 214 242
187 214 242
187 214 242
187 214 242
187 214 242
187 214 242
118 183 224
0 31 153
0 30 166
0 30 175
0 29 182
0 28 187
0 28 192
0 28 196
0 27 200
0 27 204
0 27 207
0 26 210
0 26 212
0 26 215
0 26 217
0 25 219
0 25 221
0 25 223
0 25 225
0 25 227
0 25 228
0 24 230
0 24 231
0 24 233
0 24 234
0 24 235
0 24 236
0 24 237
0 24 238
0 24 239
0 24 240
0 23 241
0 23 242
0 23 243
0 23 244
0 23 245
0 23 245
0 23 246
0 23 247
0 23 247
0 23 248
0 23 248
0 23 249
0 23 249
0 23 250
0 23 250
0 23 251
0 23 251
0 23 252
0 23 252
0 23 252
0 23 253
0 22 253
0 22 253
0 23 253
0 23 254
0 22 254
0 22 254
0 22 254
0 22 254
0 22 254
0 22 254
0 22 254
0 22 254
0 22 254
1 22 254
3 22 254
5 22 254
8 22 254
10 22 254
12 22 254
14 22 254
17 22 254
19 22 254
21 22 254
24 22 253
26 23 253
28 23 253
31 23 253
33 22 252
35 22 252
38 23 252
40 23 251
42 23 251
45 23 250
47 23 250
50 23 249
52 23 249
54 23 248
57 23 248
59 23 247
62 23 247
64 23 246
67 23 245
69 23 245
72 23 244
75 23 243
77 23 242
80 23 241
83 24 240
85 24 240
88 24 238
91 24 237
94 24 236
96 24 235
100 24 234
102 24 233
105 24 231
108 24 230
112 25 228
115 25 227
118 25 225
121 25 223
124 25 221
128 26 219
132 26 217
135 26 215
139 26 213
143 26 210
147 26 207
151 27 204
156 27 200
160 27 197
165 28 192
171 28 187
177 29 182
184 29 175
192 30 166
202 31 152
191 181 223
187 214 242
187 214 242
187 214 242
187 214 242
187 214 242
187 214 242
187 214 242
187 214 242
187 214 242
187 214 242
187 214 242
187 214 242
187 214 242
187 214 242
187 214 242
187 214 242
187 214 242
187 214 242
187 214 242
187 214 242
187 214 242
187 214 242
187 214 242
187 214 242
187 214 242
187 214 242
187 214 242
187 214 242
187 214 242
187 215 242
187 215 242
187 215 242
187 215 242
187 215 242
187 215 242
187 215 242
187 215 242
187 215 242
187 215 242
187 215 242
187 215 242
187 215 242
187 215 242
187 215 242
187 215 242
187 215 242
187 215 242
187 215 242
187 215 242
188 215 242
188 215 242
188 215 242
188 215 242
188 215 242
188 215 242
188 215 242
188 215 242
188 215 242
188 215 242
188 215 242
188 215 242
188 215 242
188 215 242
188 215 242
188 215 242
188 215 242
188 215 242
188 215 242
188 215 242
188 215 242
188 215 242
188 215 242
188 215 242
188 215 242
188 215 242
188 215 242
188 215 242
188 215 242
188 215 242
188 215 242
188 215 242
188 215 242
188 215 242
188 215 242
188 215 242
188 215 242
188 215 242
188 215 242
188 215 242
188 215 242
188 215 242
188 215 242
188 215 242
188 215 242
188 215 242
188 215 242
188 215 242
188 215 242
188 215 242
188 215 242
188 215 242
188 215 242
188 215 242
188 215 242
188 215 242
188 215 242
188 215 242
188 215 242
188 215 242
188 215 242
188 215 242
188 215 242
188 215 242
188 215 242
188 215 242
188 215 242
189 215 242
189 215 242
189 215 242
189 215 242
189 215 242
189 215 242
189 215 242
189 215 242
189 215 242
189 215 242
189 215 242
189 215 242
189 215 242
189 215 242
189 215 242
189 215 242
189 215 242
189 215 242
189 215 242
189 216 242
189 216 242
189 216 242
189 216 242
189 216 242
189 216 242
189 216 242
189 216 242
189 216 242
189 216 242
189 216 242
189 216 242
189 216 242
189 216 242
189 216 242
189 216 242
189 215 242
189 215 242
189 215 242
189 215 242
189 215 242
189 215 242
189 215 242
189 215 242
189 215 242
189 215 242
189 215 242
189 215 242
189 215 242
189 215 242
189 215 242
189 215 242
189 215 242
189 215 242
189 215 242
189 215 242
189 215 242
189 215 242
189 215 242
189 215 242
189 215 242
189 215 242
189 215 242
189 215 242
189 215 242
188 215 242
188 215 242
188 215 242
188 215 242
188 215 242
188 215 242
188 215 242
188 215 242
188 215 242
188 215 242
188 215 242
188 215 242
188 215 242
188 215 242
188 215 242
188 215 242
188 215 242
188 215 242
188 215 242
188 215 242
188 215 242
188 215 242
188 215 242
188 215 242
188 215 242
188 215 242
188 215 242
188 215 242
188 215 242
188 215 242
188 215 242
188 215 242
188 215 242
188 215 242
188 215 242
188 215 242
188 215 242
188 215 242
188 215 242
188 215 242
188 215 242
188 215 242
188 215 242
188 215 242
188 215 242
188 215 242
188 215 242
188 215 242
188 215 242
188 215 242
188 215 242
188 215 242
188 215 242
188 215 242
188 215 242
188 215 242
188 215 242
188 215 242
188 215 242
188 215 242
188 215 242
188 215 242
188 215 242
188 215 242
188 215 242
187 215 242
187 215 242
187 215 242
187 215 242
187 215 242
187 215 242
187 215 242
187 215 242
187 215 242
187 215 242
187 215 242
187 215 242
187 215 242
187 215 242
187 215 242
187 215 242
187 215 242
187 215 242
187 215 242
187 215 242
187 214 242
187 214 242
187 214 242
187 214 242
187 214 242
63 157 210
0 28 155
0 27 168
0 26 176
0 26 183
0 25 188
0 25 193
0 25 197
0 24 201
0 24 204
0 24 208
0 24 210
0 23 213
0 23 215
0 23 218
0 23 220
0 23 222
0 23 224
0 22 225
0 22 227
0 22 229
0 22 230
0 22 231
0 22 233
0 22 234
0 22 235
0 22 237
0 21 238
0 21 239
0 21 240
0 21 241
0 21 242
0 21 242
0 21 243
0 21 244
0 21 245
0 21 246
0 21 246
0 21 247
0 21 248
0 21 248
0 20 249
0 21 249
0 20 250
0 20 250
0 20 251
0 20 251
0 20 251
0 20 252
0 20 252
0 20 252
0 20 253
0 20 253
0 20 253
0 20 254
0 20 254
0 20 254
0 20 254
0 20 254
0 20 254
0 20 254
0 20 255
0 20 255
0 20 255
0 20 255
1 20 255
3 20 255
5 20 255
7 20 255
10 20 254
12 20 254
14 20 254
17 20 254
19 20 254
21 20 254
23 20 254
26 20 253
28 20 253
31 20 253
33 20 252
35 20 252
38 20 252
40 20 251
42 20 251
45 20 251
47 20 250
49 20 250
52 21 249
54 21 249
57 21 248
59 21 248
62 21 247
64 21 246
67 21 246
69 21 245
72 21 244
75 21 243
77 21 242
80 21 242
83 21 241
85 21 240
88 21 239
91 21 238
94 21 237
96 22 235
99 22 234
102 22 233
105 22 232
108 22 230
112 22 229
115 22 227
118 22 225
121 23 224
124 23 222
128 23 220
131 23 218
135 23 215
139 23 213
143 24 210
147 24 208
151 24 204
155 24 201
160 25 197
165 25 193
171 25 188
176 26 183
183 27 176
190 27 168
201 28 155
194 159 211
187 214 242
187 214 242
187 214 242
187 214 242
187 215 242
187 215 242
187 215 242
187 215 242
187 215 242
187 215 242
187 215 242
187 215 242
187 215 242
187 215 242
187 215 242
187 215 242
187 215 242
187 215 242
187 215 242
187 215 242
187 215 242
187 215 242
187 215 242
187 215 242
187 215 242
188 215 242
188 215 242
188 215 242
188 215 242
188 215 242
188 215 242
188 215 242
188 215 242
188 215 242
188 215 242
188 215 242
188 215 242
188 215 242
188 215 242
188 215 242
188 215 242
188 215 242
188 215 242
188 215 242
188 215 242
188 215 242
188 215 242
188 215 242
188 215 242
188 215 242
188 215 242
188 215 242
188 215 242
188 215 242
188 215 242
188 215 242
188 215 242
188 215 242
188 215 242
188 215 242
188 215 242
188 215 242
188 215 242
188 215 242
188 215 242
188 215 242
188 215 242
188 215 242
188 215 242
188 215 242
188 215 242
188 215 242
188 215 242
188 215 242
188 215 242
188 215 242
188 215 242
188 215 242
188 215 242
188 215 242
188 215 242
188 215 242
188 215 242
188 215 242
188 215 242
188 215 242
188 215 242
188 215 242
188 215 242
189 215 242
189 215 242
189 215 242
189 215 242
189 215 242
189 215 242
189 215 242
189 215 242
189 215 242
189 215 242
189 215 242
189 215 242
189 215 242
189 215 242
189 215 242
189 215 242
189 215 242
189 215 242
189 215 242
189 215 242
189 215 242
189 215 242
189 215 242
189 215 242
189 215 242
189 215 242
189 215 242
189 215 242
189 215 242
189 215 242
189 215 242
189 216 242
189 216 242
189 216 242
189 216 242
189 216 242
189 216 242
189 216 242
189 216 242
189 216 242
189 216 242
189 216 242
189 216 242
189 216 242
189 216 242
189 216 242
189 216 242
189 216 242
189 216 242
189 216 242
189 216 242
189 216 242
189 216 242
189 216 242
189 216 242
189 216 242
189 216 242
189 216 242
189 216 242
189 216 242
189 216 242
189 216 242
189 216 242
189 216 242
189 216 242
189 216 242
189 216 242
189 216 242
189 216 242
189 216 242
189 216 242
189 216 242
189 216 242
189 216 242
189 216 242
189 216 242
189 216 242
189 216 242
189 216 242
189 216 242
189 216 242
189 216 242
189 216 242
189 216 242
189 216 242
189 216 242
189 216 242
189 216 242
189 216 242
189 216 242
189 216 242
189 216 242
189 215 242
189 215 242
189 215 242
189 215 242
189 215 242
189 215 242
189 215 242
189 215 242
189 215 242
189 215 242
189 215 242
189 215 242
189 215 242
189 215 242
189 215 242
189 215 242
189 215 242
189 215 242
189 215 242
189 215 242
189 215 242
189 215 242
189 215 242
189 215 242
189 215 242
188 215 242
188 215 242
188 215 242
188 215 242
188 215 242
188 215 242
188 215 242
188 215 242
188 215 242
188 215 242
188 215 242
188 215 242
188 215 242
188 215 242
188 215 242
188 215 242
188 215 242
188 215 242
188 215 242
188 215 242
188 215 242
188 215 242
188 215 242
188 215 242
188 215 242
188 215 242
188 215 242
188 215 242
188 215 242
188 215 242
188 215 242
188 215 242
188 215 242
188 215 242
188 215 242
188 215 242
188 215 242
188 215 242
188 215 242
188 215 242
188 215 242
188 215 242
188 215 242
188 215 242
188 215 242
188 215 242
188 215 242
188 215 242
188 215 242
188 215 242
188 215 242
188 215 242
188 215 242
188 215 242
188 215 242
188 215 242
188 215 242
188 215 242
188 215 242
188 215 242
188 215 242
188 215 242
188 215 242
188 215 242
4 128 196
0 25 157
0 24 168
0 23 177
0 23 183
0 22 189
0 22 194
0 22 198
0 22 202
0 21 205
0 21 208
0 21 211
0 21 213
0 21 216
0 20 218
0 20 220
0 20 222
0 20 224
0 20 226
0 20 227
0 20 229
0 20 230
0 19 232
0 19 233
0 19 234
0 19 236
0 19 237
0 19 238
0 19 239
0 19 240
0 19 241
0 19 242
0 19 243
0 19 244
0 19 244
0 18 245
0 18 246
0 19 246
0 18 247
0 18 248
0 18 248
0 18 249
0 18 249
0 18 250
0 18 250
0 18 251
0 18 251
0 18 252
0 18 252
0 18 252
0 18 253
0 18 253
0 18 253
0 18 253
0 18 254
0 18 254
0 18 254
0 18 254
0 18 254
0 18 255
0 18 255
0 18 255
0 18 255
0 18 255
0 18 255
1 18 255
3 18 255
5 18 255
7 18 255
10 18 255
12 18 255
14 18 254
17 18 254
19 18 254
21 18 254
23 18 254
26 18 253
28 18 253
31 18 253
33 18 253
35 18 252
38 18 252
40 18 252
42 18 251
45 18 251
47 18 250
49 18 250
52 18 249
54 18 249
57 18 248
59 18 248
62 18 247
64 18 246
67 18 246
69 19 245
72 18 244
75 18 244
77 19 243
80 19 242
82 19 241
85 19 240
88 19 239
91 19 238
93 19 237
96 19 236
99 19 234
102 19 233
105 19 232
108 20 230
111 20 229
114 20 227
118 20 226
121 20 224
124 20 222
128 20 220
131 20 218
135 21 216
139 21 213
142 21 211
147 21 208
151 21 205
155 21 201
160 22 198
165 22 194
170 22 189
176 23 184
182 23 177
190 24 169
199 25 157
201 109 186
188 215 242
188 215 242
188 215 242
188 215 242
188 215 242
188 215 242
188 215 242
188 215 242
188 215 242
188 215 242
188 215 242
188 215 242
188 215 242
188 215 242
188 215 242
188 215 242
188 215 242
188 215 242
188 215 242
188 215 242
188 215 242
188 215 242
188 215 242
188 215 242
188 215 242
188 215 242
188 215 242
188 215 242
188 215 242
188 215 242
188 215 242
188 215 242
188 215 242
188 215 242
188 215 242
188 215 242
188 215 242
188 215 242
188 215 242
188 215 242
188 215 242
188 215 242
188 215 242
188 215 242
188 215 242
188 215 242
188 215 242
188 215 242
188 215 242
188 215 242
188 215 242
188 215 242
188 215 242
188 215 242
188 215 242
188 215 242
188 215 242
188 215 242
188 215 242
188 215 242
188 215 242
188 215 242
189 215 242
189 215 242
189 215 242
189 215 242
189 215 242
189 215 242
189 215 242
189 215 242
189 215 242
189 215 242
189 215 242
189 215 242
189 215 242
189 215 242
189 215 242
189 215 242
189 215 242
189 215 242
189 215 242
189 215 242
189 215 242
189 215 242
189 215 242
189 215 242
189 215 242
189 215 242
189 215 242
189 215 242
189 216 242
189 216 242
189 216 242
189 216 242
189 216 242
189 216 242
189 216 242
189 216 242
189 216 242
189 216 242
189 216 242
189 216 242
189 216 242
189 216 242
189 216 242
189 216 242
189 216 242
189 216 242
189 216 242
189 216 242
189 216 242
189 216 242
189 216 242
189 216 242
189 216 242
189 216 242
189 216 242
189 216 242
189 216 242
189 216 242
189 216 242
189 216 242
189 216 242
189 216 242
189 216 242
189 216 242
189 216 242
189 216 242
189 216 242
189 216 242
189 216 242
189 216 242
189 216 242
189 216 242
189 216 242
190 216 242
190 216 242
190 216 242
190 216 242
190 216 242
190 216 242
189 216 242
190 216 242
189 216 242
189 216 242
189 216 242
189 216 242
189 216 242
189 216 242
189 216 242
189 216 242
189 216 242
189 216 242
189 216 242
189 216 242
189 216 242
189 216 242
189 216 242
189 216 242
189 216 242
189 216 242
189 216 242
189 216 242
189 216 242
189 216 242
189 216 242
189 216 242
189 216 242
189 216 242
189 216 242
189 216 242
189 216 242
189 216 242
189 216 242
189 216 242
189 216 242
189 216 242
189 216 242
189 216 242
189 216 242
189 216 242
189 216 242
189 216 242
189 216 242
189 216 242
189 216 242
189 216 242
189 216 242
189 216 242
189 216 242
189 216 242
189 216 242
189 216 242
189 216 242
189 216 242
189 216 242
189 216 242
189 216 242
189 216 242
189 216 242
189 216 242
189 216 242
189 216 242
189 216 242
189 216 242
189 216 242
189 216 242
189 216 242
189 216 242
189 216 242
189 216 242
189 216 242
189 215 242
189 215 242
189 215 242
189 215 242
189 215 242
189 215 242
189 215 242
189 215 242
189 215 242
189 215 242
189 215 242
189 215 242
189 215 242
189 215 242
189 215 242
189 215 242
189 215 242
189 215 242
189 215 242
189 215 242
189 215 242
189 215 242
189 215 242
189 215 242
189 215 242
188 215 242
188 215 242
188 215 242
188 215 242
188 215 242
188 215 242
188 215 242
188 215 242
188 215 242
188 215 242
188 215 242
188 215 242
188 215 242
188 215 242
188 215 242
188 215 242
188 215 242
188 215 242
188 215 242
188 215 242
188 215 242
188 215 242
188 215 242
188 215 242
188 215 242
188 215 242
188 215 242
188 215 242
188 215 242
188 215 242
188 215 242
188 215 242
188 215 242
0 107 187
0 21 159
0 21 170
0 20 178
0 20 184
0 20 190
0 19 194
0 19 198
0 19 202
0 19 205
0 18 208
0 18 211
0 18 214
0 18 216
0 18 218
0 18 220
0 17 222
0 17 224
0 17 226
0 17 228
0 17 229
0 17 231
0 17 232
0 17 233
0 17 235
0 17 236
0 17 237
0 16 238
0 16 239
0 16 240
0 16 241
0 16 242
0 16 243
0 16 244
0 16 244
0 16 245
0 16 246
0 16 247
0 16 247
0 16 248
0 16 248
0 16 249
0 16 250
0 16 250
0 16 251
0 16 251
0 16 251
0 16 252
0 16 252
0 16 252
0 16 253
0 16 253
0 15 253
0 16 254
0 16 254
0 16 254
0 16 254
0 16 254
0 15 255
0 15 255
0 15 255
0 16 255
0 15 255
0 16 255
0 15 255
1 15 255
3 15 255
5 15 255
8 16 255
10 15 255
12 16 255
14 15 255
17 15 254
19 16 254
21 15 254
24 16 254
26 16 254
28 16 253
31 16 253
33 16 253
35 16 252
38 16 252
40 16 252
42 16 251
45 16 251
47 16 250
50 16 250
52 16 250
54 16 249
57 16 248
59 16 248
62 16 247
64 16 247
67 16 246
69 16 245
72 16 245
74 16 244
77 16 243
80 16 242
83 16 241
85 16 240
88 16 239
91 17 238
93 17 237
96 17 236
99 17 235
102 17 233
105 17 232
108 17 231
111 17 229
114 17 228
118 17 226
121 17 224
124 17 222
128 17 220
131 18 218
135 18 216
139 18 214
142 18 211
146 18 208
151 19 205
155 19 202
159 19 198
164 19 194
170 20 189
176 20 184
182 20 178
189 21 170
198 22 159
200 113 189
188 215 242
188 215 242
188 215 242
188 215 242
188 215 242
188 215 242
188 215 242
188 215 242
188 215 242
188 215 242
188 215 242
188 215 242
188 215 242
188 215 242
188 215 242
188 215 242
188 215 242
188 215 242
188 215 242
188 215 242
188 215 242
188 215 242
188 215 242
188 215 242
188 215 242
188 215 242
188 215 242
188 215 242
188 215 242
188 215 242
188 215 242
188 215 242
188 215 242
189 215 242
189 215 242
189 215 242
189 215 242
189 215 242
189 215 242
189 215 242
189 215 242
189 215 242
189 215 242
189 215 242
189 215 242
189 215 242
189 215 242
189 215 242
189 215 242
189 215 242
189 215 242
189 215 242
189 215 242
189 215 242
189 215 242
189 215 242
189 215 242
189 215 242
189 215 242
189 215 242
189 215 242
189 216 242
189 216 242
189 216 242
189 216 242
189 216 242
189 216 242
189 216 242
189 216 242
189 216 242
189 216 242
189 216 242
189 216 242
189 216 242
189 216 242
189 216 242
189 216 242
189 216 242
189 216 242
189 216 242
189 216 242
189 216 242
189 216 242
189 216 242
189 216 242
189 216 242
189 216 242
189 216 242
189 216 242
189 216 242
189 216 242
189 216 242
189 216 242
189 216 242
189 216 242
189 216 242
189 216 242
189 216 242
189 216 242
189 216 242
189 216 242
189 216 242
189 216 242
189 216 242
189 216 242
189 216 242
189 216 242
189 216 242
189 216 242
189 216 242
189 216 242
189 216 242
189 216 242
189 216 242
189 216 242
189 216 242
189 216 242
189 216 242
189 216 242
189 216 242
189 216 242
189 216 242
189 216 242
189 216 242
189 216 242
189 216 242
189 216 242
189 216 242
190 216 242
189 216 242
190 216 242
190 216 242
190 216 242
190 216 242
190 216 242
190 216 242
190 216 242
190 216 242
190 216 242
190 216 242
190 216 242
190 216 242
190 216 242
190 216 242
190 216 242
190 216 242
190 216 242
190 216 242
190 216 242
190 216 242
190 216 242
190 216 242
190 216 242
190 216 242
190 216 242
190 216 242
190 216 242
190 216 242
190 216 242
190 216 242
190 216 242
190 216 242
190 216 242
190 216 242
190 216 242
190 216 242
190 216 242
190 216 242
190 216 242
190 216 242
190 216 242
190 216 242
190 216 242
190 216 242
190 216 242
190 216 242
190 216 242
190 216 242
189 216 242
190 216 242
189 216 242
189 216 242
189 216 242
189 216 242
189 216 242
189 216 242
189 216 242
189 216 242
189 216 242
189 216 242
189 216 242
189 216 242
189 216 242
189 216 242
189 216 242
189 216 242
189 216 242
189 216 242
189 216 242
189 216 242
189 216 242
189 216 242
189 216 242
189 216 242
189 216 242
189 216 242
189 216 242
189 216 242
189 216 242
189 216 242
189 216 242
189 216 242
189 216 242
189 216 242
189 216 242
189 216 242
189 216 242
189 216 242
189 216 242
189 216 242
189 216 242
189 216 242
189 216 242
189 216 242
189 216 242
189 216 242
189 216 242
189 216 242
189 216 242
189 216 242
189 216 242
189 216 242
189 216 242
189 216 242
189 216 242
189 216 242
189 216 242
189 216 242
189 216 242
189 216 242
189 216 242
189 216 242
189 216 242
189 216 242
189 216 242
189 215 242
189 215 242
189 215 242
189 215 242
189 215 242
189 215 242
189 215 242
189 215 242
189 215 242
189 215 242
189 215 242
189 215 242
189 215 242
189 215 242
189 215 242
189 215 242
189 215 242
189 215 242
189 215 242
189 215 242
189 215 242
189 215 242
189 215 242
189 215 242
189 215 242
0 101 185
0 18 161
0 18 171
0 17 179
0 17 185
0 17 190
0 16 195
0 16 199
0 16 202
0 16 206
0 16 209
0 15 212
0 15 214
0 15 216
0 15 219
0 15 221
0 15 223
0 15 224
0 15 226
0 15 228
0 14 229
0 14 231
0 14 232
0 14 234
0 14 235
0 14 236
0 14 237
0 14 238
0 14 239
0 14 240
0 14 241
0 14 242
0 14 243
0 14 244
0 14 245
0 14 245
0 14 246
0 14 247
0 14 247
0 13 248
0 14 249
0 14 249
0 14 250
0 13 250
0 13 251
0 13 251
0 13 252
0 13 252
0 13 252
0 13 253
0 13 253
0 13 253
0 13 254
0 13 254
0 13 254
0 13 254
0 13 254
0 13 255
0 13 255
0 13 255
0 13 255
0 13 255
0 13 255
0 13 255
0 13 255
1 13 255
3 13 255
5 13 255
7 13 255
10 13 255
12 13 255
14 13 255
17 13 255
19 13 254
21 13 254
24 13 254
26 13 254
28 13 254
30 13 253
33 13 253
35 13 253
37 13 252
40 13 252
42 13 252
45 14 251
47 13 251
49 13 250
52 13 250
54 14 249
57 14 249
59 14 248
61 14 247
64 14 247
67 14 246
69 14 245
72 14 245
74 14 244
77 14 243
80 14 242
82 14 241
85 14 240
88 14 239
91 14 238
93 14 237
96 14 236
99 14 235
102 14 234
105 14 232
108 14 231
111 15 229
114 15 228
118 15 226
121 15 224
124 15 223
128 15 221
131 15 219
135 15 216
138 15 214
142 16 211
146 16 209
150 16 206
155 16 202
159 16 199
164 16 195
169 17 190
175 17 185
181 17 179
189 18 171
198 18 160
201 97 184
189 215 242
189 215 242
189 215 242
189 215 242
189 215 242
189 215 242
189 215 242
189 215 242
189 215 242
189 215 242
189 215 242
189 215 242
189 215 242
189 215 242
189 215 242
189 215 242
189 215 242
189 215 242
189 215 242
189 215 242
189 215 242
189 215 242
189 215 242
189 216 242
189 215 242
189 216 242
189 216 242
189 216 242
189 216 242
189 216 242
189 216 242
189 216 242
189 216 242
189 216 242
189 216 242
189 216 242
189 216 242
189 216 242
189 216 242
189 216 242
189 216 242
189 216 242
189 216 242
189 216 242
189 216 242
189 216 242
189 216 242
189 216 242
189 216 242
189 216 242
189 216 242
189 216 242
189 216 242
189 216 242
189 216 242
189 216 242
189 216 242
189 216 242
189 216 242
189 216 242
189 216 242
189 216 242
189 216 242
189 216 242
189 216 242
189 216 242
189 216 242
189 216 242
189 216 242
189 216 242
189 216 242
189 216 242
189 216 242
189 216 242
189 216 242
189 216 242
189 216 242
189 216 242
189 216 242
189 216 242
189 216 242
189 216 242
189 216 242
189 216 242
189 216 242
189 216 242
189 216 242
189 216 242
189 216 242
190 216 242
189 216 242
189 216 242
190 216 242
190 216 242
190 216 242
190 216 242
190 216 242
190 216 242
190 216 242
190 216 242
190 216 242
190 216 242
190 216 242
190 216 242
190 216 242
190 216 242
190 216 242
190 216 242
190 216 242
190 216 242
190 216 242
190 216 242
190 216 242
190 216 242
190 216 242
190 216 242
190 216 242
190 216 242
190 216 242
190 216 242
190 216 242
190 216 242
190 216 242
190 216 242
190 216 242
190 216 242
190 216 242
190 216 242
190 216 242
190 216 242
190 216 242
190 216 242
190 216 242
190 216 242
190 216 242
190 216 242
190 216 242
190 216 242
190 216 242
190 216 242
190 216 242
190 216 242
190 216 242
190 216 242
190 216 242
190 216 242
190 216 242
190 216 242
190 216 242
190 216 242
190 216 242
190 216 242
190 216 242
190 216 242
190 216 242
190 216 242
190 216 242
190 216 242
190 216 242
190 216 242
190 216 242
190 216 242
190 216 242
190 216 242
190 216 242
190 216 242
190 216 242
190 216 242
190 216 242
190 216 242
190 216 242
190 216 242
190 216 242
190 216 242
190 216 242
190 216 242
190 216 242
190 216 242
190 216 242
190 216 242
190 216 242
190 216 242
190 216 242
190 216 242
190 216 242
190 216 242
190 216 242
190 216 242
190 216 242
190 216 242
190 216 242
190 216 242
190 216 242
190 216 242
190 216 242
190 216 242
190 216 242
190 216 242
190 216 242
190 216 242
190 216 242
190 216 242
190 216 242
190 216 242
190 216 242
190 216 242
190 216 242
190 216 242
190 216 242
190 216 242
190 216 242
190 216 242
190 216 242
190 216 242
190 216 242
190 216 242
190 216 242
190 216 242
190 216 242
190 216 242
190 216 242
190 216 242
189 216 242
189 216 242
189 216 242
189 216 242
189 216 242
189 216 242
189 216 242
189 216 242
189 216 242
189 216 242
189 216 242
189 216 242
189 216 242
189 216 242
189 216 242
189 216 242
189 216 242
189 216 242
189 216 242
189 216 242
189 216 242
189 216 242
189 216 242
189 216 242
189 216 242
189 216 242
189 216 242
189 216 242
189 216 242
189 216 242
189 216 242
189 216 242
189 216 242
189 216 242
189 216 242
189 216 242
189 216 242
189 216 242
189 216 242
189 216 242
189 216 242
189 216 242
189 216 242
189 216 242
189 216 242
189 216 242
189 216 242
189 216 242
0 46 160
0 15 161
0 15 171
0 14 179
0 14 185
0 14 190
0 13 195
0 13 199
0 13 203
0 13 206
0 13 209
0 13 212
0 13 214
0 13 217
0 12 219
0 12 221
0 12 223
0 12 225
0 12 226
0 12 228
0 12 230
0 12 231
0 12 232
0 12 234
0 12 235
0 12 236
0 12 237
0 12 239
0 12 239
0 12 240
0 12 241
0 11 242
0 11 243
0 11 244
0 11 245
0 11 246
0 11 246
0 11 247
0 11 248
0 11 248
0 11 249
0 11 249
0 11 250
0 11 250
0 11 251
0 11 251
0 11 252
0 11 252
0 11 252
0 11 253
0 11 253
0 11 253
0 11 254
0 11 254
0 11 254
0 11 254
0 11 255
0 11 255
0 11 255
0 11 255
0 11 255
0 11 255
0 11 255
0 11 255
0 11 255
1 11 255
3 11 255
5 11 255
7 11 255
10 11 255
12 11 255
14 11 255
17 11 255
19 11 255
21 11 254
24 11 254
26 11 254
28 11 254
30 11 253
33 11 253
35 11 253
37 11 252
40 11 252
42 11 252
45 11 251
47 11 251
50 11 250
52 11 250
54 11 249
57 11 249
59 11 248
62 11 248
64 11 247
67 11 246
69 11 246
72 11 245
74 11 244
77 11 243
80 11 242
82 12 241
85 12 240
88 12 240
90 12 238
93 12 237
96 12 236
99 12 235
102 12 234
105 12 233
108 12 231
111 12 230
114 12 228
117 12 226
121 12 225
124 12 223
127 12 221
131 13 219
134 13 217
138 13 214
142 13 212
146 13 209
150 13 206
154 13 203
159 13 199
164 14 195
169 14 191
175 14 186
181 14 179
188 15 172
197 15 162
204 56 166
189 216 242
189 216 242
189 216 242
189 216 242
189 216 242
189 216 242
189 216 242
189 216 242
189 216 242
189 216 242
189 216 242
189 216 242
189 216 242
189 216 242
189 216 242
189 216 242
189 216 242
189 216 242
189 216 242
189 216 242
189 216 242
189 216 242
189 216 242
189 216 242
189 216 242
189 216 242
189 216 242
189 216 242
189 216 242
189 216 242
189 216 242
189 216 242
189 216 242
189 216 242
189 216 242
189 216 242
189 216 242
189 216 242
189 216 242
189 216 242
189 216 242
189 216 242
189 216 242
189 216 242
189 216 242
189 216 242
189 216 242
189 216 242
190 216 242
189 216 242
190 216 242
190 216 242
190 216 242
190 216 242
190 216 242
190 216 242
190 216 242
190 216 242
190 216 242
190 216 242
190 216 242
190 216 242
190 216 242
190 216 242
190 216 242
190 216 242
190 216 242
190 216 242
190 216 242
190 216 242
190 216 242
190 216 242
190 216 242
190 216 242
190 216 242
190 216 242
190 216 242
190 216 242
190 216 242
190 216 242
190 216 242
190 216 242
190 216 242
190 216 242
190 216 242
190 216 242
190 216 242
190 216 242
190 216 242
190 216 242
190 216 242
190 216 242
190 216 242
190 216 242
190 216 242
190 216 242
190 216 242
190 216 242
190 216 242
190 216 242
190 216 242
190 216 242
190 216 242
190 216 242
190 216 242
190 216 242
190 216 242
190 216 242
190 216 242
190 216 242
190 216 242
190 216 242
190 216 242
190 216 242
190 216 242
190 216 242
190 216 242
190 216 242
190 216 242
190 216 242
190 216 242
190 216 242
190 216 242
190 216 242
190 216 242
190 216 242
190 216 242
190 216 242
190 216 242
190 216 242
190 216 242
190 216 242
190 216 242
190 216 242
190 216 242
190 216 242
190 216 242
190 216 242
190 216 242
190 216 242
190 216 242
190 216 242
190 216 242
190 216 242
190 216 242
190 216 242
190 216 242
190 216 242
190 216 242
190 216 242
190 216 242
190 216 242
190 216 242
190 216 242
190 216 242
190 216 242
190 216 242
190 216 242
190 216 242
190 216 242
190 216 242
190 216 242
190 216 242
190 216 242
190 216 242
190 216 242
190 216 242
190 216 242
190 216 242
190 216 242
190 216 242
190 216 242
190 216 242
190 216 242
190 216 242
190 216 242
190 216 242
190 216 242
190 216 242
190 216 242
190 216 242
190 216 242
190 216 242
190 216 242
190 216 242
190 216 242
190 216 242
190 216 242
190 216 242
190 216 242
190 216 242
190 216 242
190 216 242
190 216 242
190 216 242
190 216 242
190 216 242
190 216 242
190 216 242
190 216 242
190 216 242
190 216 242
190 216 242
190 216 242
190 216 242
190 216 242
190 216 242
190 216 242
190 216 242
190 216 242
190 216 242
190 216 242
190 216 242
190 216 242
190 216 242
190 216 242
190 216 242
190 216 242
190 216 242
190 216 242
190 216 242
190 216 242
190 216 242
190 216 242
190 216 242
190 216 242
190 216 242
190 216 242
190 216 242
190 216 242
190 216 242
190 216 242
190 216 242
190 216 242
190 216 242
190 216 242
190 216 242
190 216 242
190 216 242
190 216 242
190 216 242
190 216 242
190 216 242
190 216 242
190 216 242
190 216 242
190 216 242
190 216 242
190 216 242
190 216 242
190 216 242
190 216 242
190 216 242
190 216 242
190 216 242
190 216 242
190 216 242
190 216 242
190 216 242
190 216 242
190 216 242
190 216 242
190 216 242
190 216 242
190 216 242
190 216 242
190 216 242
190 216 242
190 216 242
190 216 242
0 49 164
0 12 162
0 11 172
0 11 180
0 11 186
0 11 191
0 11 196
0 11 199
0 11 203
0 10 206
0 10 209
0 10 212
0 10 214
0 10 217
0 10 219
0 10 221
0 10 223
0 10 225
0 10 227
0 9 228
0 9 230
0 9 231
0 9 233
0 9 234
0 9 235
0 9 236
0 9 238
0 9 239
0 9 240
0 9 241
0 9 242
0 9 242
0 9 243
0 9 244
0 9 245
0 9 246
0 9 246
0 9 247
0 9 248
0 9 248
0 9 249
0 9 249
0 9 250
0 9 250
0 9 251
0 9 251
0 9 252
0 9 252
0 9 252
0 9 253
0 9 253
0 9 253
0 9 254
0 9 254
0 9 254
0 9 254
0 9 255
0 9 255
0 9 255
0 9 255
0 9 255
0 9 255
0 9 255
0 9 255
0 9 255
1 9 255
3 9 255
5 9 255
8 9 255
10 9 255
12 9 255
14 9 255
17 9 255
19 9 255
21 9 254
24 9 254
26 9 254
28 9 254
31 9 253
33 9 253
35 9 253
37 9 253
40 9 252
42 9 252
45 9 251
47 9 251
49 9 250
52 9 250
54 9 249
57 9 249
59 9 248
62 9 248
64 9 247
67 9 246
69 9 246
72 9 245
74 9 244
77 9 243
80 9 242
82 9 242
85 9 241
88 9 240
90 9 239
93 9 237
96 9 236
99 9 235
102 9 234
105 9 233
108 10 231
111 9 230
114 10 228
117 10 227
121 10 225
124 10 223
127 10 221
131 10 219
134 10 217
138 10 215
142 10 212
146 10 209
150 10 206
154 11 203
159 10 200
164 11 195
169 11 191
175 11 186
181 11 180
188 12 172
197 12 162
205 47 163
190 216 242
190 216 242
190 216 242
190 216 242
190 216 242
190 216 242
190 216 242
190 216 242
190 216 242
190 216 242
190 216 242
190 216 242
190 216 242
190 216 242
190 216 242
190 216 242
190 216 242
190 216 242
190 216 242
190 216 242
190 216 242
190 216 242
190 216 242
190 216 242
190 216 242
190 216 242
190 216 242
190 216 242
190 216 242
190 216 242
190 216 242
190 216 242
190 216 242
190 216 242
190 216 242
190 216 242
190 216 242
190 216 242
190 216 242
190 216 242
190 216 242
190 216 242
190 216 242
190 216 242
190 216 242
190 216 242
190 216 242
190 216 242
190 216 242
190 216 242
190 216 242
190 216 242
190 216 242
190 216 242
190 216 242
190 216 242
190 216 242
190 216 242
190 216 242
190 216 242
190 216 242
190 216 242
190 216 242
190 216 242
190 216 242
190 216 242
190 216 242
190 216 242
190 216 242
190 216 242
190 216 242
190 216 242
190 216 242
190 216 242
190 216 242
190 216 242
190 216 242
190 216 242
190 216 242
190 216 242
190 216 242
190 216 242
190 216 242
190 216 242
190 216 242
190 216 242
190 216 242
190 216 242
190 216 242
190 216 242
190 216 242
190 216 242
190 216 242
190 216 242
190 216 242
190 216 242
190 216 242
190 216 242
190 216 242
190 216 242
190 216 242
190 216 242
190 216 242
190 216 242
190 216 242
190 216 242
190 216 242
190 216 242
190 216 242
190 216 242
190 216 242
190 216 242
190 216 242
190 216 242
190 216 242
190 216 242
190 216 242
190 216 242
190 216 242
190 216 242
190 216 242
190 216 242
190 216 242
190 216 242
190 216 242
190 216 242
190 216 242
190 216 242
190 216 242
190 216 242
190 216 242
190 216 242
190 216 242
190 216 242
190 216 242
191 217 243
191 217 243
191 217 243
191 217 243
191 217 243
191 217 243
191 217 243
191 217 243
191 217 243
191 217 243
191 217 243
191 217 243
191 217 243
191 217 243
191 217 243
191 217 243
191 217 243
191 217 243
191 217 243
191 217 243
191 217 243
191 217 243
191 217 243
191 217 243
191 217 243
191 217 243
191 217 243
191 217 243
191 217 243
191 217 243
191 217 243
191 217 243
191 217 243
191 217 243
191 217 243
191 217 243
191 217 243
191 217 243
191 217 243
191 217 243
191 217 243
191 217 243
191 217 243
191 217 243
191 217 243
190 216 242
190 216 242
190 216 242
190 216 242
190 216 242
190 216 242
190 216 242
190 216 242
190 216 242
190 216 242
190 216 242
190 216 242
190 216 242
190 216 242
190 216 242
190 216 242
190 216 242
190 216 242
190 216 242
190 216 242
190 216 242
190 216 242
190 216 242
190 216 242
190 216 242
190 216 242
190 216 242
190 216 242
190 216 242
190 216 242
190 216 242
190 216 242
190 216 242
190 216 242
190 216 242
190 216 242
190 216 242
190 216 242
190 216 242
190 216 242
190 216 242
190 216 242
190 216 242
190 216 242
190 216 242
190 216 242
190 216 242
190 216 242
190 216 242
190 216 242
190 216 242
190 216 242
190 216 242
190 216 242
190 216 242
190 216 242
190 216 242
190 216 242
190 216 242
190 216 242
190 216 242
190 216 242
190 216 242
190 216 242
190 216 242
190 216 242
190 216 242
190 216 242
190 216 242
190 216 242
190 216 242
190 216 242
190 216 242
190 216 242
190 216 242
190 216 242
190 216 242
190 216 242
190 216 242
190 216 242
190 216 242
190 216 242
190 216 242
190 216 242
190 216 242
190 216 242
190 216 242
190 216 242
190 216 242
190 216 242
0 26 155
0 9 163
0 8 173
0 8 180
0 8 186
0 8 191
0 8 196
0 8 200
0 8 203
0 8 206
0 7 209
0 7 212
0 7 214
0 7 217
0 7 219
0 7 221
0 7 223
0 7 225
0 7 227
0 7 228
0 7 230
0 7 231
0 7 233
0 7 234
0 7 235
0 7 236
0 7 238
0 7 239
0 7 240
0 7 241
0 7 242
0 7 243
0 7 243
0 7 244
0 7 245
0 7 246
0 7 246
0 7 247
0 7 248
0 7 248
0 7 249
0 6 249
0 6 250
0 7 251
0 7 251
0 6 251
0 6 252
0 6 252
0 6 253
0 6 253
0 6 253
0 7 254
0 6 254
0 6 254
0 6 254
0 6 254
0 6 255
0 6 255
0 6 255
0 6 255
0 6 255
0 6 255
0 6 255
0 6 255
0 6 255
1 6 255
3 6 255
5 6 255
7 6 255
10 6 255
12 6 255
14 6 255
17 6 255
19 6 255
21 6 254
24 6 254
26 6 254
28 6 254
30 6 254
33 6 253
35 6 253
37 6 253
40 7 252
42 6 252
45 6 251
47 7 251
49 6 251
52 7 250
54 6 249
57 6 249
59 7 248
62 7 248
64 6 247
67 7 246
69 7 246
72 7 245
74 7 244
77 7 243
80 7 243
82 7 242
85 7 241
88 7 240
90 7 239
93 7 238
96 7 237
99 7 235
102 7 234
105 7 233
108 7 231
111 7 230
114 7 228
117 7 227
120 7 225
124 7 223
127 7 221
131 7 219
134 7 217
138 8 215
142 8 212
146 8 209
150 8 206
154 8 203
159 8 200
164 8 196
169 8 191
174 8 186
180 8 180
188 9 173
197 9 162
207 24 154
190 216 242
190 216 242
190 216 242
190 216 242
190 216 242
190 216 242
190 216 242
190 216 242
190 216 242
190 216 242
190 216 242
190 216 242
190 216 242
190 216 242
190 216 242
190 216 242
190 216 242
190 216 242
190 216 242
190 216 242
190 216 242
190 216 242
190 216 242
190 216 242
190 216 242
190 216 242
190 216 242
190 216 242
190 216 242
190 216 242
190 216 242
190 216 242
190 216 242
190 216 242
190 216 242
190 216 242
190 216 242
190 216 242
190 216 242
190 216 242
190 216 242
190 216 242
190 216 242
190 216 242
190 216 242
190 216 242
190 216 242
190 216 242
190 216 242
190 216 242
190 216 242
190 216 242
190 216 242
190 216 242
190 216 242
190 216 242
190 216 242
190 216 242
190 216 242
190 216 242
190 216 242
190 216 242
190 216 242
190 216 242
190 216 242
190 216 242
190 216 242
190 216 242
190 216 242
190 216 242
190 216 242
190 216 242
190 216 242
190 216 242
190 216 242
190 216 242
190 216 242
190 216 242
190 216 242
190 216 242
190 216 242
190 216 242
190 216 242
190 216 242
190 216 242
190 216 242
190 216 242
190 216 242
190 216 242
191 217 243
190 216 242
190 216 242
191 217 243
190 216 242
190 216 242
191 217 243
191 217 243
191 217 243
191 217 243
191 217 243
191 217 243
191 217 243
191 217 243
191 217 243
191 217 243
191 217 243
191 217 243
191 217 243
191 217 243
191 217 243
191 217 243
191 217 243
191 217 243
191 217 243
191 217 243
191 217 243
191 217 243
191 217 243
191 217 243
191 217 243
191 217 243
191 217 243
191 217 243
191 217 243
191 217 243
191 217 243
191 217 243
191 217 243
191 217 243
191 217 243
191 217 243
191 217 243
191 217 243
191 217 243
191 217 243
191 217 243
191 217 243
191 217 243
191 217 243
191 217 243
191 217 243
191 217 243
191 217 243
191 217 243
191 217 243
191 217 243
191 217 243
191 217 243
191 217 243
191 217 243
191 217 243
191 217 243
191 217 243
191 217 243
191 217 243
191 217 243
191 217 243
191 217 243
191 217 243
191 217 243
191 217 243
191 217 243
191 217 243
191 217 243
191 217 243
191 217 243
191 217 243
191 217 243
191 217 243
191 217 243
191 217 243
191 217 243
191 217 243
191 217 243
191 217 243
191 217 243
191 217 243
191 217 243
191 217 243
191 217 243
191 217 243
191 217 243
191 217 243
191 217 243
191 217 243
191 217 243
191 217 243
191 217 243
191 217 243
191 217 243
191 217 243
191 217 243
191 217 243
191 217 243
191 217 243
191 217 243
191 217 243
191 217 243
191 217 243
191 217 243
191 217 243
191 217 243
191 217 243
191 217 243
191 217 243
191 217 243
191 217 243
191 217 243
191 217 243
191 217 243
191 217 243
191 217 243
191 217 243
191 217 243
191 217 243
191 217 243
191 217 243
191 217 243
191 217 243
191 217 243
191 217 243
191 217 243
191 217 243
191 217 243
191 217 243
191 217 243
191 217 243
191 217 243
191 217 243
191 217 243
191 217 243
191 217 243
191 217 243
191 217 243
191 217 243
191 217 243
191 217 243
191 217 243
191 217 243
191 217 243
191 217 243
191 217 243
191 217 243
191 217 243
191 217 243
191 217 243
191 217 243
191 217 243
191 217 243
191 217 243
191 217 243
191 217 243
191 217 243
191 217 243
191 217 243
191 217 243
191 217 243
191 217 243
191 217 243
191 217 243
191 217 243
191 217 243
191 217 243
191 217 243
191 217 243
191 217 243
191 217 243
191 217 243
191 217 243
191 217 243
0 23 155
0 6 163
0 6 173
0 5 180
0 5 186
0 5 191
0 5 196
0 5 200
0 5 203
0 5 207
0 5 209
0 5 212
0 5 215
0 5 217
0 5 219
0 5 221
0 5 223
0 5 225
0 5 227
0 5 228
0 4 230
0 5 231
0 4 233
0 4 234
0 4 235
0 4 237
0 4 238
0 4 239
0 4 240
0 4 241
0 4 242
0 4 243
0 4 243
0 4 244
0 4 245
0 4 246
0 4 247
0 4 247
0 4 248
0 4 248
0 4 249
0 4 250
0 4 250
0 4 251
0 4 251
0 4 251
0 4 252
0 4 252
0 4 253
0 4 253
0 4 253
0 4 254
0 4 254
0 4 254
0 4 254
0 4 255
0 4 255
0 4 255
0 4 255
0 4 255
0 4 255
0 4 255
0 4 255
0 4 255
0 4 255
1 4 255
3 4 255
5 4 255
8 4 255
10 4 255
12 4 255
14 4 255
17 4 255
19 4 255
21 4 255
24 4 254
26 4 254
28 4 254
30 4 254
33 4 253
35 4 253
37 4 253
40 4 252
42 4 252
45 4 251
47 4 251
49 4 251
52 4 250
54 4 250
57 4 249
59 4 248
62 4 248
64 4 247
67 4 246
69 4 246
72 4 245
74 4 244
77 4 243
79 4 243
82 4 242
85 4 241
88 4 240
90 5 239
93 4 238
96 4 237
99 4 235
102 4 234
105 4 233
108 4 231
111 5 230
114 4 228
117 5 227
120 5 225
124 5 223
127 5 221
131 5 219
134 5 217
138 5 215
142 5 212
146 5 209
150 5 206
154 5 203
159 5 200
164 5 196
169 5 191
175 5 186
181 5 180
187 6 173
196 6 164
206 23 155
190 216 242
191 217 243
190 216 242
191 217 243
191 217 243
191 217 243
191 217 243
191 217 243
191 217 243
191 217 243
191 217 243
191 217 243
191 217 243
191 217 243
191 217 243
191 217 243
191 217 243
191 217 243
191 217 243
191 217 243
191 217 243
191 217 243
191 217 243
191 217 243
191 217 243
191 217 243
191 217 243
191 217 243
191 217 243
191 217 243
191 217 243
191 217 243
191 217 243
191 217 243
191 217 243
191 217 243
191 217 243
191 217 243
191 217 243
191 217 243
191 217 243
191 217 243
191 217 243
191 217 243
191 217 243
191 217 243
191 217 243
191 217 243
191 217 243
191 217 243
191 217 243
191 217 243
191 217 243
191 217 243
191 217 243
191 217 243
191 217 243
191 217 243
191 217 243
191 217 243
191 217 243
191 217 243
191 217 243
191 217 243
191 217 243
191 217 243
191 217 243
191 217 243
191 217 243
191 217 243
191 217 243
191 217 243
191 217 243
191 217 243
191 217 243
191 217 243
191 217 243
191 217 243
191 217 243
191 217 243
191 217 243
191 217 243
191 217 243
191 217 243
191 217 243
191 217 243
191 217 243
191 217 243
191 217 243
191 217 243
191 217 243
191 217 243
191 217 243
191 217 243
191 217 243
191 217 243
191 217 243
191 217 243
191 217 243
191 217 243
191 217 243
191 217 243
191 217 243
191 217 243
191 217 243
191 217 243
191 217 243
191 217 243
191 217 243
191 217 243
191 217 243
191 217 243
191 217 243
191 217 243
191 217 243
191 217 243
191 217 243
191 217 243
191 217 243
191 217 243
191 217 243
191 217 243
191 217 243
191 217 243
191 217 243
191 217 243
191 217 243
191 217 243
191 217 243
191 217 243
191 217 243
191 217 243
191 217 243
191 217 243
191 217 243
191 217 243
191 217 243
191 217 243
191 217 243
191 217 243
191 217 243
191 217 243
191 217 243
191 217 243
191 217 243
191 217 243
191 217 243
191 217 243
191 217 243
191 217 243
191 217 243
191 217 243
191 217 243
191 217 243
191 217 243
191 217 243
191 217 243
191 217 243
191 217 243
191 217 243
191 217 243
191 217 243
191 217 243
191 217 243
191 217 243
191 217 243
191 217 243
191 217 243
191 217 243
191 217 243
191 217 243
191 217 243
191 217 243
191 217 243
191 217 243
191 217 243
191 217 243
191 217 243
191 217 243
191 217 243
191 217 243
191 217 243
191 217 243
191 217 243
191 217 243
191 217 243
191 217 243
191 217 243
191 217 243
191 217 243
191 217 243
191 217 243
191 217 243
191 217 243
191 217 243
191 217 243
191 217 243
191 217 243
191 217 243
191 217 243
191 217 243
191 217 243
191 217 243
191 217 243
191 217 243
191 217 243
191 217 243
191 217 243
191 217 243
191 217 243
191 217 243
191 217 243
191 217 243
191 217 243
191 217 243
191 217 243
191 217 243
191 217 243
191 217 243
191 217 243
191 217 243
191 217 243
191 217 243
191 217 243
191 217 243
191 217 243
191 217 243
191 217 243
191 217 243
191 217 243
191 217 243
191 217 243
191 217 243
191 217 243
191 217 243
191 217 243
191 217 243
191 217 243
191 217 243
191 217 243
191 217 243
191 217 243
191 217 243
191 217 243
191 217 243
191 217 243
191 217 243
191 217 243
191 217 243
191 217 243
191 217 243
191 217 243
191 217 243
191 217 243
191 217 243
191 217 243
191 217 243
191 217 243
191 217 243
191 217 243
191 217 243
191 217 243
191 217 243
191 217 243
191 217 243
191 217 243
191 217 243
191 217 243
191 217 243
191 217 243
0 9 151
0 3 163
0 3 173
0 2 181
0 2 186
0 2 192
0 2 196
0 2 200
0 2 204
0 2 207
0 2 210
0 2 212
0 2 215
0 2 217
0 2 219
0 2 221
0 2 223
0 2 225
0 2 227
0 2 228
0 2 230
0 2 231
0 2 233
0 2 234
0 2 235
0 2 237
0 2 238
0 2 239
0 2 240
0 2 241
0 2 242
0 2 243
0 2 244
0 2 244
0 2 245
0 2 246
0 2 247
0 2 247
0 2 248
0 2 248
0 2 249
0 2 250
0 2 250
0 2 251
0 2 251
0 2 251
0 2 252
0 2 252
0 2 253
0 2 253
0 2 253
0 2 254
0 2 254
0 2 254
0 2 254
0 2 255
0 2 255
0 2 255
0 2 255
0 2 255
0 2 255
0 2 255
0 2 255
0 2 255
0 2 255
1 2 255
3 2 255
5 2 255
7 2 255
10 2 255
12 2 255
14 2 255
17 2 255
19 2 255
21 2 255
24 2 254
26 2 254
28 2 254
30 2 254
33 2 253
35 2 253
37 2 253
40 2 252
42 2 252
45 2 251
47 2 251
49 2 251
52 2 250
54 2 250
57 2 249
59 2 248
62 2 248
64 2 247
67 2 247
69 2 246
72 2 245
74 2 244
77 2 243
80 2 243
82 2 242
85 2 241
88 2 240
90 2 239
93 2 238
96 2 237
99 2 235
102 2 234
105 2 233
108 2 231
111 2 230
114 2 228
117 2 227
120 2 225
124 2 223
127 2 221
131 2 219
134 2 217
138 2 215
142 2 212
146 2 210
150 2 207
154 2 203
159 2 200
164 2 196
169 2 192
175 2 186
181 2 180
187 2 173
196 2 164
207 18 155
191 217 243
191 217 243
191 217 243
191 217 243
191 217 243
191 217 243
191 217 243
191 217 243
191 217 243
191 217 243
191 217 243
191 217 243
191 217 243
191 217 243
191 217 243
191 217 243
191 217 243
191 217 243
191 217 243
191 217 243
191 217 243
191 217 243
191 217 243
191 217 243
191 217 243
191 217 243
191 217 243
191 217 243
191 217 243
191 217 243
191 217 243
191 217 243
191 217 243
191 217 243
191 217 243
191 217 243
191 217 243
191 217 243
191 217 243
191 217 243
191 217 243
191 217 243
191 217 243
191 217 243
191 217 243
191 217 243
191 217 243
191 217 243
191 217 243
191 217 243
191 217 243
191 217 243
191 217 243
191 217 243
191 217 243
191 217 243
191 217 243
191 217 243
191 217 243
191 217 243
191 217 243
191 217 243
191 217 243
191 217 243
191 217 243
191 217 243
191 217 243
191 217 243
191 217 243
191 217 243
191 217 243
191 217 243
191 217 243
191 217 243
191 217 243
191 217 243
191 217 243
191 217 243
191 217 243
191 217 243
191 217 243
191 217 243
191 217 243
191 217 243
191 217 243
191 217 243
191 217 243
191 217 243
191 217 243
191 217 243
191 217 243
191 217 243
191 217 243
191 217 243
191 217 243
191 217 243
191 217 243
191 217 243
191 217 243
191 217 243
191 217 243
191 217 243
191 217 243
191 217 243
191 217 243
191 217 243
191 217 243
191 217 243
191 217 243
191 217 243
191 217 243
191 217 243
191 217 243
191 217 243
191 217 243
191 217 243
191 217 243
191 217 243
191 217 243
191 217 243
191 217 243
191 217 243
191 217 243
191 217 243
191 217 243
191 217 243
191 217 243
191 217 243
191 217 243
191 217 243
191 217 243
191 217 243
191 217 243
191 217 243
191 217 243
191 217 243
192 217 243
192 217 243
192 217 243
192 217 243
192 217 243
191 217 243
191 217 243
191 217 243
192 217 243
191 217 243
191 217 243
191 217 243
191 217 243
191 217 243
191 217 243
191 217 243
192 217 243
192 217 243
191 217 243
191 217 243
192 217 243
192 217 243
192 217 243
191 217 243
192 217 243
192 217 243
191 217 243
191 217 243
192 217 243
192 217 243
192 217 243
192 217 243
191 217 243
191 217 243
191 217 243
191 217 243
192 217 243
192 217 243
191 217 243
192 217 243
192 217 243
192 217 243
191 217 243
192 217 243
192 217 243
191 217 243
192 217 243
191 217 243
192 217 243
192 217 243
191 217 243
191 217 243
192 217 243
192 217 243
191 217 243
191 217 243
191 217 243
191 217 243
192 217 243
192 217 243
191 217 243
192 217 243
191 217 243
192 217 243
191 217 243
192 217 243
191 217 243
192 217 243
191 217 243
192 217 243
192 217 243
191 217 243
192 217 243
192 217 243
192 217 243
192 217 243
192 217 243
191 217 243
192 217 243
191 217 243
192 217 243
192 217 243
191 217 243
192 217 243
192 217 243
192 217 243
192 217 243
191 217 243
191 217 243
192 217 243
192 217 243
191 217 243
192 217 243
192 217 243
191 217 243
192 217 243
191 217 243
191 217 243
191 217 243
191 217 243
192 217 243
191 217 243
191 217 243
191 217 243
192 217 243
192 217 243
192 217 243
192 217 243
192 217 243
192 217 243
192 217 243
192 217 243
192 217 243
191 217 243
192 217 243
191 217 243
191 217 243
191 217 243
192 217 243
192 217 243
191 217 243
192 217 243
191 217 243
191 217 243
192 217 243
192 217 243
191 217 243
191 217 243
191 217 243
191 217 243
192 217 243
191 217 243
192 217 243
192 217 243
0 4 150
0 0 164
0 0 174
0 0 181
0 0 187
0 0 192
0 0 196
0 0 200
0 0 204
0 0 207
0 0 210
0 0 212
0 0 215
0 0 217
0 0 219
0 0 221
0 0 223
0 0 225
0 0 227
0 0 228
0 0 230
0 0 232
0 0 233
0 0 234
0 0 235
0 0 237
0 0 238
0 0 239
0 0 240
0 0 241
0 0 242
0 0 243
0 0 244
0 0 244
0 0 245
0 0 246
0 0 247
0 0 247
0 0 248
0 0 248
0 0 249
0 0 250
0 0 250
0 0 251
0 0 251
0 0 251
0 0 252
0 0 252
0 0 253
0 0 253
0 0 253
0 0 254
0 0 254
0 0 254
0 0 254
0 0 255
0 0 255
0 0 255
0 0 255
0 0 255
0 0 255
0 0 255
0 0 255
0 0 255
0 0 255
1 0 255
3 0 255
5 0 255
8 0 255
10 0 255
12 0 255
14 0 255
17 0 255
19 0 255
21 0 255
23 0 254
26 0 254
28 0 254
31 0 254
33 0 253
35 0 253
38 0 253
40 0 252
42 0 252
44 0 252
47 0 251
49 0 251
52 0 250
54 0 250
57 0 249
59 0 248
62 0 248
64 0 247
67 0 247
69 0 246
72 0 245
74 0 244
77 0 244
80 0 243
82 0 242
85 0 241
88 0 240
90 0 239
93 0 238
96 0 237
99 0 235
102 0 234
105 0 233
108 0 231
111 0 230
114 0 228
117 0 227
120 0 225
124 0 223
127 0 221
131 0 219
134 0 217
138 0 215
142 0 212
146 0 210
150 0 207
154 0 203
159 0 200
164 0 196
168 0 192
174 0 187
181 0 180
188 0 173
196 0 164
207 19 155
191 217 243
191 217 243
191 217 243
192 217 243
192 217 243
191 217 243
192 217 243
192 217 243
191 217 243
192 217 243
191 217 243
191 217 243
191 217 243
191 217 243
191 217 243
191 217 243
192 217 243
191 217 243
191 217 243
191 217 243
191 217 243
191 217 243
191 217 243
192 217 243
191 217 243
191 217 243
192 217 243
191 217 243
191 217 243
192 217 243
192 217 243
192 217 243
191 217 243
192 217 243
192 217 243
191 217 243
191 217 243
192 217 243
191 217 243
192 217 243
191 217 243
191 217 243
191 217 243
192 217 243
192 217 243
192 217 243
191 217 243
192 217 243
191 217 243
191 217 243
192 217 243
191 217 243
191 217 243
191 217 243
192 217 243
191 217 243
191 217 243
191 217 243
192 217 243
191 217 243
192 217 243
192 217 243
192 217 243
192 217 243
191 217 243
191 217 243
192 217 243
192 217 243
191 217 243
192 217 243
192 217 243
192 217 243
191 217 243
192 217 243
192 217 243
192 217 243
192 217 243
191 217 243
192 217 243
191 217 243
191 217 243
191 217 243
191 217 243
192 217 243
192 217 243
192 217 243
191 217 243
192 217 243
191 217 243
192 217 243
192 217 243
192 217 243
191 217 243
192 217 243
192 217 243
192 217 243
192 217 243
192 217 243
192 217 243
192 217 243
191 217 243
191 217 243
191 217 243
192 217 243
192 217 243
191 217 243
192 217 243
192 217 243
192 217 243
191 217 243
192 217 243
192 217 243
192 217 243
192 217 243
191 217 243
192 217 243
191 217 243
191 217 243
192 217 243
191 217 243
192 217 243
191 217 243
191 217 243
192 217 243
191 217 243
192 217 243
191 217 243
192 217 243
191 217 243
192 217 243
191 217 243
192 217 243
192 217 243
192 217 243
192 217 243
192 217 243
192 217 243
192 217 243
192 217 243
192 217 243
192 217 243
192 217 243
192 217 243
192 217 243
192 217 243
192 217 243
192 217 243
192 217 243
192 217 243
192 217 243
192 217 243
192 217 243
192 217 243
192 217 243
192 217 243
192 217 243
192 217 243
192 217 243
192 217 243
192 217 243
192 217 243
192 217 243
192 217 243
192 217 243
192 217 243
192 217 243
192 217 243
192 217 243
192 217 243
192 217 243
192 217 243
192 217 243
192 217 243
192 217 243
192 217 243
192 217 243
192 217 243
192 217 243
192 217 243
192 217 243
192 217 243
192 217 243
192 217 243
192 217 243
192 217 243
192 217 243
192 217 243
192 217 243
192 217 243
192 217 243
192 217 243
192 217 243
192 217 243
192 217 243
192 217 243
192 217 243
192 217 243
192 217 243
192 217 243
192 217 243
192 217 243
192 217 243
192 217 243
192 217 243
192 217 243
192 217 243
192 217 243
192 217 243
192 217 243
192 217 243
192 217 243
192 217 243
192 217 243
192 217 243
192 217 243
192 217 243
192 217 243
192 217 243
192 217 243
192 217 243
192 217 243
192 217 243
192 217 243
192 217 243
192 217 243
192 217 243
192 217 243
192 217 243
192 217 243
192 217 243
192 217 243
192 217 243
192 217 243
192 217 243
192 217 243
192 217 243
192 217 243
192 217 243
192 217 243
192 217 243
192 217 243
192 217 243
192 217 243
192 217 243
192 217 243
192 217 243
192 217 243
192 217 243
192 217 243
192 217 243
192 217 243
192 217 243
192 217 243
192 217 243
192 217 243
192 217 243
192 217 243
192 217 243
192 217 243
192 217 243
192 217 243
192 217 243
192 217 243
192 217 243
192 217 243
192 217 243
192 217 243
192 217 243
192 217 243
192 217 243
0 12 154
0 0 163
0 0 174
0 0 180
0 0 187
0 0 192
0 0 196
0 0 200
0 0 203
0 0 207
0 0 210
0 0 212
0 0 215
0 0 217
0 0 219
0 0 221
0 0 223
0 0 225
0 0 227
0 0 229
0 0 230
0 0 231
0 0 233
0 0 234
0 0 235
0 0 237
0 0 238
0 0 239
0 0 240
0 0 241
0 0 242
0 0 243
0 0 243
0 0 244
0 0 245
0 0 246
0 0 247
0 0 247
0 0 248
0 0 248
0 0 249
0 0 250
0 0 250
0 0 251
0 0 251
0 0 251
0 0 252
0 0 252
0 0 253
0 0 253
0 0 253
0 0 254
0 0 254
0 0 254
0 0 254
0 0 255
0 0 255
0 0 255
0 0 255
0 0 255
0 0 255
0 0 255
0 0 255
0 0 255
0 0 255
1 0 255
3 0 255
5 0 255
7 0 255
10 0 255
12 0 255
14 0 255
17 0 255
19 0 255
21 0 255
23 0 254
26 0 254
28 0 254
31 0 254
33 0 253
35 0 253
37 0 253
40 0 252
42 0 252
45 0 251
47 0 251
49 0 251
52 0 250
54 0 250
57 0 249
59 0 248
62 0 248
64 0 247
67 0 247
69 0 246
72 0 245
74 0 244
77 0 244
79 0 243
82 0 242
85 0 241
88 0 240
90 0 239
93 0 238
96 0 237
99 0 235
102 0 234
105 0 233
108 0 231
111 0 230
114 0 228
117 0 227
120 0 225
124 0 223
127 0 221
130 0 219
134 0 217
138 0 215
142 0 212
146 0 209
150 0 207
154 0 203
159 0 200
164 0 196
169 0 191
174 0 186
181 0 180
187 0 174
196 0 164
207 14 155
192 217 243
192 217 243
192 217 243
192 217 243
192 217 243
192 217 243
192 217 243
192 217 243
192 217 243
192 217 243
192 217 243
192 217 243
192 217 243
192 217 243
192 217 243
192 217 243
192 217 243
192 217 243
192 217 243
192 217 243
192 217 243
192 217 243
192 217 243
192 217 243
192 217 243
192 217 243
192 217 243
192 217 243
192 217 243
192 217 243
192 217 243
192 217 243
192 217 243
192 217 243
192 217 243
192 217 243
192 217 243
192 217 243
192 217 243
192 217 243
192 217 243
192 217 243
192 217 243
192 217 243
192 217 243
192 217 243
192 217 243
192 217 243
192 217 243
192 217 243
192 217 243
192 217 243
192 217 243
192 217 243
192 217 243
192 217 243
192 217 243
192 217 243
192 217 243
192 217 243
192 217 243
192 217 243
192 217 243
192 217 243
192 217 243
192 217 243
192 217 243
192 217 243
192 217 243
192 217 243
192 217 243
192 217 243
192 217 243
192 217 243
192 217 243
192 217 243
192 217 243
192 217 243
192 217 243
192 217 243
192 217 243
192 217 243
192 217 243
192 217 243
192 217 243
192 217 243
192 217 243
192 217 243
192 217 243
192 217 243
192 217 243
192 217 243
192 217 243
192 217 243
192 217 243
192 217 243
192 217 243
192 217 243
192 217 243
192 217 243
192 217 243
192 217 243
192 217 243
192 217 243
192 217 243
192 217 243
192 217 243
192 217 243
192 217 243
192 217 243
192 217 243
192 217 243
192 217 243
192 217 243
192 217 243
192 217 243
192 217 243
192 217 243
192 217 243
192 217 243
192 217 243
192 217 243
192 217 243
192 217 243
192 217 243
192 217 243
192 217 243
192 217 243
192 217 243
192 217 243
192 217 243
192 217 243
192 217 243
192 217 243
192 217 243
192 217 243
192 217 243
192 217 243
192 217 243
192 217 243
192 217 243
192 217 243
192 217 243
192 217 243
192 217 243
192 217 243
192 217 243
192 217 243
192 217 243
192 217 243
192 217 243
192 217 243
192 217 243
192 217 243
192 217 243
192 217 243
192 217 243
192 217 243
192 217 243
192 217 243
192 217 243
192 217 243
192 217 243
192 217 243
192 217 243
192 217 243
192 217 243
192 217 243
192 217 243
192 217 243
192 217 243
192 217 243
192 217 243
192 217 243
192 217 243
192 217 243
192 217 243
192 217 243
192 217 243
192 217 243
192 217 243
192 217 243
192 217 243
192 218 243
192 218 243
192 218 243
192 218 243
192 218 243
192 218 243
192 218 243
192 218 243
192 218 243
192 218 243
192 218 243
192 218 243
192 218 243
192 218 243
192 218 243
192 218 243
192 218 243
192 218 243
192 218 243
192 218 243
192 218 243
192 218 243
192 218 243
192 218 243
192 218 243
192 218 243
192 218 243
192 218 243
192 218 243
192 218 243
192 218 243
192 218 243
192 218 243
192 218 243
192 218 243
192 218 243
192 218 243
192 218 243
192 218 243
192 218 243
192 218 243
192 218 243
192 218 243
192 218 243
192 218 243
192 218 243
192 218 243
192 218 243
192 218 243
192 218 243
192 218 243
192 218 243
192 218 243
192 218 243
192 218 243
192 218 243
192 218 243
192 218 243
192 218 243
192 218 243
192 218 243
192 218 243
192 218 243
192 218 243
192 218 243
192 218 243
192 218 243
192 218 243
192 218 243
192 218 243
192 218 243
192 218 243
192 218 243
192 218 243
192 218 243
192 218 243
192 218 243
192 218 243
192 218 243
192 218 243
192 218 243
192 218 243
192 218 243
192 218 243
192 218 243
192 218 243
192 218 243
0 13 158
0 0 163
0 0 173
0 0 180
0 0 186
0 0 191
0 0 196
0 0 200
0 0 203
0 0 207
0 0 210
0 0 212
0 0 215
0 0 217
0 0 219
0 0 221
0 0 223
0 0 225
0 0 227
0 0 228
0 0 230
0 0 231
0 0 233
0 0 234
0 0 235
0 0 237
0 0 238
0 0 239
0 0 240
0 0 241
0 0 242
0 0 243
0 0 243
0 0 244
0 0 245
0 0 246
0 0 247
0 0 247
0 0 248
0 0 248
0 0 249
0 0 250
0 0 250
0 0 251
0 0 251
0 0 251
0 0 252
0 0 252
0 0 253
0 0 253
0 0 253
0 0 254
0 0 254
0 0 254
0 0 254
0 0 255
0 0 255
0 0 255
0 0 255
0 0 255
0 0 255
0 0 255
0 0 255
0 0 255
0 0 255
1 0 255
3 0 255
5 0 255
8 0 255
10 0 255
12 0 255
14 0 255
17 0 255
19 0 255
21 0 255
23 0 254
26 0 254
28 0 254
31 0 254
33 0 253
35 0 253
37 0 253
40 0 252
42 0 252
45 0 251
47 0 251
49 0 251
52 0 250
54 0 250
57 0 249
59 0 248
62 0 248
64 0 247
67 0 246
69 0 246
72 0 245
74 0 244
77 0 243
80 0 243
82 0 242
85 0 241
88 0 240
90 0 239
93 0 238
96 0 237
99 0 235
102 0 234
105 0 233
108 0 231
111 0 230
114 0 228
117 0 227
120 0 225
124 0 223
127 0 221
131 0 219
134 0 217
138 0 215
142 0 212
146 0 210
150 0 207
154 0 203
159 0 200
164 0 196
169 0 192
174 0 187
181 0 180
188 0 173
196 0 164
207 9 154
192 218 243
192 218 243
192 218 243
192 218 243
192 218 243
192 218 243
192 218 243
192 218 243
192 218 243
192 218 243
192 218 243
192 218 243
192 218 243
192 218 243
192 218 243
192 218 243
192 218 243
192 218 243
192 218 243
192 218 243
192 218 243
192 218 243
192 218 243
192 218 243
192 218 243
192 218 243
192 218 243
192 218 243
192 218 243
192 218 243
192 218 243
192 218 243
192 218 243
192 218 243
192 218 243
192 218 243
192 218 243
192 218 243
192 218 243
192 218 243
192 218 243
192 218 243
192 218 243
192 218 243
192 218 243
192 218 243
192 218 243
192 218 243
192 218 243
192 218 243
192 218 243
192 218 243
192 218 243
192 218 243
192 218 243
192 218 243
192 218 243
192 218 243
192 218 243
192 218 243
192 218 243
192 218 243
192 218 243
192 218 243
192 218 243
192 218 243
192 218 243
192 218 243
192 218 243
192 218 243
192 218 243
192 218 243
192 218 243
192 218 243
192 218 243
192 218 243
192 218 243
192 218 243
192 218 243
192 218 243
192 218 243
192 218 243
192 218 243
192 218 243
192 218 243
192 218 243
192 217 243
192 218 243
192 217 243
192 217 243
192 217 243
192 218 243
192 217 243
192 217 243
192 217 243
192 217 243
192 217 243
192 217 243
192 217 243
192 217 243
192 217 243
192 217 243
192 217 243
192 217 243
192 217 243
192 217 243
192 217 243
192 217 243
192 217 243
192 217 243
192 217 243
192 217 243
192 217 243
192 217 243
192 217 243
192 217 243
192 217 243
192 217 243
192 217 243
192 217 243
192 217 243
192 217 243
192 217 243
192 217 243
192 217 243
192 217 243
192 217 243
192 217 243
192 217 243
192 217 243
192 217 243
192 217 243
192 217 243
192 217 243
192 217 243
192 218 243
192 218 243
192 218 243
192 218 243
192 218 243
192 218 243
192 218 243
192 218 243
192 218 243
192 218 243
192 218 243
192 218 243
192 218 243
192 218 243
192 218 243
192 218 243
192 218 243
192 218 243
192 218 243
192 218 243
192 218 243
192 218 243
192 218 243
192 218 243
192 218 243
192 218 243
192 218 243
192 218 243
192 218 243
192 218 243
192 218 243
192 218 243
192 218 243
192 218 243
192 218 243
192 218 243
192 218 243
192 218 243
192 218 243
192 218 243
192 218 243
192 218 243
192 218 243
192 218 243
193 218 243
193 218 243
193 218 243
193 218 243
193 218 243
193 218 243
193 218 243
193 218 243
193 218 243
193 218 243
193 218 243
193 218 243
193 218 243
193 218 243
193 218 243
193 218 243
193 218 243
193 218 243
193 218 243
193 218 243
193 218 243
193 218 243
193 218 243
193 218 243
193 218 243
193 218 243
193 218 243
193 218 243
193 218 243
193 218 243
193 218 243
193 218 243
193 218 243
193 218 243
193 218 243
193 218 243
193 218 243
193 218 243
193 218 243
193 218 243
193 218 243
193 218 243
193 218 243
193 218 243
193 218 243
193 218 243
193 218 243
193 218 243
193 218 243
193 218 243
193 218 243
193 218 243
193 218 243
193 218 243
193 218 243
193 218 243
193 218 243
193 218 243
193 218 243
193 218 243
193 218 243
193 218 243
193 218 243
193 218 243
193 218 243
193 218 243
193 218 243
193 218 243
193 218 243
193 218 243
193 218 243
193 218 243
193 218 243
193 218 243
193 218 243
193 218 243
193 218 243
193 218 243
193 218 243
193 218 243
193 218 243
193 218 243
193 218 243
193 218 243
193 218 243
193 218 243
193 218 243
193 218 243
193 218 243
193 218 243
193 218 243
0 8 155
0 0 162
0 0 173
0 0 180
0 0 186
0 0 191
0 0 196
0 0 200
0 0 203
0 0 206
0 0 209
0 0 212
0 0 215
0 0 217
0 0 219
0 0 221
0 0 223
0 0 225
0 0 227
0 0 228
0 0 230
0 0 231
0 0 233
0 0 234
0 0 235
0 0 236
0 0 238
0 0 239
0 0 240
0 0 241
0 0 242
0 0 243
0 0 243
0 0 244
0 0 245
0 0 246
0 0 246
0 0 247
0 0 248
0 0 248
0 0 249
0 0 249
0 0 250
0 0 251
0 0 251
0 0 251
0 0 252
0 0 252
0 0 253
0 0 253
0 0 253
0 0 254
0 0 254
0 0 254
0 0 254
0 0 254
0 0 255
0 0 255
0 0 255
0 0 255
0 0 255
0 0 255
0 0 255
0 0 255
0 0 255
1 0 255
3 0 255
5 0 255
8 0 255
10 0 255
12 0 255
14 0 255
17 0 255
19 0 255
21 0 254
24 0 254
26 0 254
28 0 254
30 0 254
33 0 253
35 0 253
37 0 253
40 0 252
42 0 252
45 0 251
47 0 251
49 0 250
52 0 250
54 0 249
57 0 249
59 0 248
62 0 248
64 0 247
67 0 246
69 0 246
72 0 245
74 0 244
77 0 243
80 0 243
82 0 242
85 0 241
88 0 240
90 0 239
93 0 238
96 0 236
99 0 235
102 0 234
105 0 233
108 0 231
111 0 230
114 0 228
117 0 227
121 0 225
124 0 223
127 0 221
131 0 219
134 0 217
138 0 215
142 0 212
146 0 209
150 0 206
154 0 203
159 0 200
164 0 196
169 0 191
174 0 186
181 0 180
188 0 173
196 0 164
206 15 158
193 218 243
193 218 243
193 218 243
193 218 243
193 218 243
193 218 243
193 218 243
193 218 243
193 218 243
193 218 243
193 218 243
193 218 243
193 218 243
193 218 243
193 218 243
193 218 243
193 218 243
193 218 243
193 218 243
193 218 243
193 218 243
193 218 243
193 218 243
193 218 243
193 218 243
193 218 243
193 218 243
193 218 243
193 218 243
193 218 243
193 218 243
193 218 243
193 218 243
193 218 243
193 218 243
193 218 243
193 218 243
193 218 243
193 218 243
193 218 243
193 218 243
193 218 243
193 218 243
193 218 243
193 218 243
193 218 243
193 218 243
193 218 243
193 218 243
193 218 243
193 218 243
193 218 243
193 218 243
193 218 243
193 218 243
193 218 243
193 218 243
193 218 243
193 218 243
193 218 243
193 218 243
193 218 243
193 218 243
193 218 243
193 218 243
193 218 243
193 218 243
193 218 243
193 218 243
193 218 243
193 218 243
193 218 243
193 218 243
193 218 243
193 218 243
193 218 243
193 218 243
193 218 243
193 218 243
193 218 243
193 218 243
193 218 243
193 218 243
193 218 243
193 218 243
193 218 243
193 218 243
193 218 243
193 218 243
193 218 243
193 218 243
192 218 243
192 218 243
193 218 243
192 218 243
192 218 243
192 218 243
192 218 243
192 218 243
192 218 243
192 218 243
192 218 243
192 218 243
192 218 243
192 218 243
192 218 243
192 218 243
192 218 243
192 218 243
192 218 243
192 218 243
192 218 243
192 218 243
192 218 243
192 218 243
192 218 243
192 218 243
192 218 243
192 218 243
192 218 243
192 218 243
192 218 243
192 218 243
192 218 243
192 218 243
192 218 243
192 218 243
192 218 243
192 218 243
192 218 243
192 218 243
192 218 243
192 218 243
192 218 243
192 218 243
193 218 243
193 218 243
193 218 243
193 218 243
193 218 243
193 218 243
193 218 243
193 218 243
193 218 243
193 218 243
193 218 243
193 218 243
193 218 243
193 218 243
193 218 243
193 218 243
193 218 243
193 218 243
193 218 243
193 218 243
193 218 243
193 218 243
193 218 243
193 218 243
193 218 243
193 218 243
193 218 243
193 218 243
193 218 243
193 218 243
193 218 243
193 218 243
193 218 243
193 218 243
193 218 243
193 218 243
193 218 243
193 218 243
193 218 243
193 218 243
193 218 243
193 218 243
193 218 243
193 218 243
193 218 243
193 218 243
193 218 243
193 218 243
193 218 243
193 218 243
193 218 243
193 218 243
193 218 243
193 218 243
193 218 243
193 218 243
193 218 243
193 218 243
193 218 243
193 218 243
193 218 243
193 218 243
193 218 243
193 218 243
193 218 243
193 218 243
193 218 243
193 218 243
193 218 243
193 218 243
193 218 243
193 218 243
193 218 243
193 218 243
193 218 243
193 218 243
193 218 243
193 218 243
193 218 243
193 218 243
193 218 243
193 218 243
193 218 243
193 218 243
193 218 243
193 218 243
193 218 243
193 218 243
193 218 243
193 218 243
193 218 243
193 218 243
193 218 243
193 218 243
193 218 243
193 218 243
193 218 243
193 218 243
193 218 243
193 218 243
193 218 243
193 218 243
193 218 243
193 218 243
193 218 243
193 218 243
193 218 243
193 218 243
193 218 243
193 218 243
193 218 243
193 218 243
193 218 243
193 218 243
193 218 243
193 218 243
193 218 243
193 218 243
193 218 243
193 218 243
193 218 243
193 218 243
193 218 243
193 218 243
193 218 243
193 218 243
193 218 243
193 218 243
193 218 243
193 218 243
193 218 243
193 218 243
193 218 243
193 218 243
193 218 243
0 17 160
0 0 162
0 0 172
0 0 180
0 0 186
0 0 191
0 0 195
0 0 199
0 0 203
0 0 206
0 0 209
0 0 212
0 0 215
0 0 217
0 0 219
0 0 221
0 0 223
0 0 225
0 0 227
0 0 228
0 0 230
0 0 231
0 0 233
0 0 234
0 0 235
0 0 236
0 0 238
0 0 239
0 0 240
0 0 241
0 0 242
0 0 242
0 0 243
0 0 244
0 0 245
0 0 246
0 0 246
0 0 247
0 0 248
0 0 248
0 0 249
0 0 249
0 0 250
0 0 250
0 0 251
0 0 251
0 0 252
0 0 252
0 0 253
0 0 253
0 0 253
0 0 253
0 0 254
0 0 254
0 0 254
0 0 254
0 0 255
0 0 255
0 0 255
0 0 255
0 0 255
0 0 255
0 0 255
0 0 255
0 0 255
1 0 255
3 0 255
5 0 255
7 0 255
10 0 255
12 0 255
14 0 255
17 0 255
19 0 255
21 0 254
24 0 254
26 0 254
28 0 254
30 0 253
33 0 253
35 0 253
38 0 252
40 0 252
42 0 252
45 0 251
47 0 251
49 0 250
52 0 250
54 0 249
57 0 249
59 0 248
62 0 248
64 0 247
67 0 246
69 0 246
72 0 245
74 0 244
77 0 243
80 0 242
82 0 242
85 0 241
88 0 240
90 0 239
93 0 238
96 0 236
99 0 235
102 0 234
105 0 233
108 0 231
111 0 230
114 0 228
117 0 227
121 0 225
124 0 223
127 0 221
131 0 219
134 0 217
138 0 214
142 0 212
146 0 209
150 0 206
155 0 203
159 0 199
164 0 195
169 0 191
175 0 186
181 0 180
188 0 172
197 0 162
206 35 166
193 218 243
193 218 243
193 218 243
193 218 243
193 218 243
193 218 243
193 218 243
193 218 243
193 218 243
193 218 243
193 218 243
193 218 243
193 218 243
193 218 243
193 218 243
193 218 243
193 218 243
193 218 243
193 218 243
193 218 243
193 218 243
193 218 243
193 218 243
193 218 243
193 218 243
193 218 243
193 218 243
193 218 243
193 218 243
193 218 243
193 218 243
193 218 243
193 218 243
193 218 243
193 218 243
193 218 243
193 218 243
193 218 243
193 218 243
193 218 243
193 218 243
193 218 243
193 218 243
193 218 243
193 218 243
193 218 243
193 218 243
193 218 243
193 218 243
193 218 243
193 218 243
193 218 243
193 218 243
193 218 243
193 218 243
193 218 243
193 218 243
193 218 243
193 218 243
193 218 243
193 218 243
193 218 243
193 218 243
193 218 243
193 218 243
193 218 243
193 218 243
193 218 243
193 218 243
193 218 243
193 218 243
193 218 243
193 218 243
193 218 243
193 218 243
193 218 243
193 218 243
193 218 243
193 218 243
193 218 243
193 218 243
193 218 243
193 218 243
193 218 243
193 218 243
193 218 243
193 218 243
193 218 243
193 218 243
193 218 243
193 218 243
193 218 243
193 218 243
193 218 243
193 218 243
193 218 243
193 218 243
193 218 243
193 218 243
193 218 243
193 218 243
193 218 243
193 218 243
193 218 243
193 218 243
193 218 243
193 218 243
193 218 243
193 218 243
193 218 243
193 218 243
193 218 243
193 218 243
193 218 243
193 218 243
193 218 243
193 218 243
193 218 243
193 218 243
193 218 243
193 218 243
193 218 243
193 218 243
193 218 243
193 218 243
193 218 243
193 218 243
193 218 243
193 218 243
193 218 243
193 218 243
193 218 243
193 218 243
193 218 243
193 218 243
193 218 243
193 218 243
193 218 243
193 218 243
193 218 243
193 218 243
193 218 243
193 218 243
193 218 243
193 218 243
193 218 243
193 218 243
193 218 243
193 218 243
193 218 243
193 218 243
193 218 243
193 218 243
193 218 243
193 218 243
193 218 243
193 218 243
193 218 243
193 218 243
193 218 243
193 218 243
193 218 243
193 218 243
193 218 243
193 218 243
193 218 243
193 218 243
193 218 243
193 218 243
193 218 243
193 218 243
193 218 243
193 218 243
193 218 243
193 218 243
193 218 243
193 218 243
193 218 243
193 218 243
193 218 243
193 218 243
193 218 243
193 218 243
193 218 243
193 218 243
193 218 243
193 218 243
193 218 243
193 218 243
193 218 243
193 218 243
193 218 243
193 218 243
193 218 243
193 218 243
193 218 243
193 218 243
193 218 243
193 218 243
193 218 243
193 218 243
193 218 243
193 218 243
193 218 243
193 218 243
193 218 243
193 218 243
193 218 243
193 218 243
193 218 243
193 218 243
193 218 243
193 218 243
193 218 243
193 218 243
193 218 243
193 218 243
193 218 243
193 218 243
193 218 243
193 218 243
194 218 243
194 218 243
194 218 243
194 218 243
194 218 243
194 218 243
194 218 243
194 218 243
194 218 243
194 218 243
194 218 243
194 218 243
194 218 243
194 218 243
194 218 243
194 218 243
194 218 243
194 218 243
194 218 243
194 218 243
194 218 243
194 218 243
194 218 243
194 218 243
194 218 243
194 218 243
194 218 243
194 218 243
194 218 243
194 218 243
194 218 243
194 218 243
194 218 243
194 218 243
194 218 243
194 218 243
194 219 243
194 219 243
194 219 243
194 219 243
194 219 243
194 219 243
194 219 243
194 219 243
194 219 243
194 219 243
194 219 243
194 219 243
194 219 243
0 26 163
0 0 161
0 0 172
0 0 179
0 0 185
0 0 191
0 0 195
0 0 199
0 0 203
0 0 206
0 0 209
0 0 212
0 0 214
0 0 217
0 0 219
0 0 221
0 0 223
0 0 225
0 0 226
0 0 228
0 0 230
0 0 231
0 0 232
0 0 234
0 0 235
0 0 236
0 0 237
0 0 238
0 0 240
0 0 240
0 0 241
0 0 242
0 0 243
0 0 244
0 0 245
0 0 246
0 0 246
0 0 247
0 0 248
0 0 248
0 0 249
0 0 249
0 0 250
0 0 250
0 0 251
0 0 251
0 0 252
0 0 252
0 0 252
0 0 253
0 0 253
0 0 253
0 0 254
0 0 254
0 0 254
0 0 254
0 0 255
0 0 255
0 0 255
0 0 255
0 0 255
0 0 255
0 0 255
0 0 255
0 0 255
1 0 255
3 0 255
5 0 255
8 0 255
10 0 255
12 0 255
14 0 255
17 0 255
19 0 254
21 0 254
24 0 254
26 0 254
28 0 254
30 0 253
33 0 253
35 0 253
38 0 252
40 0 252
42 0 252
45 0 251
47 0 251
49 0 250
52 0 250
54 0 249
57 0 249
59 0 248
62 0 248
64 0 247
67 0 246
69 0 246
72 0 245
74 0 244
77 0 243
80 0 242
82 0 241
85 0 241
88 0 239
91 0 238
93 0 237
96 0 236
99 0 235
102 0 234
105 0 233
108 0 231
111 0 230
114 0 228
117 0 226
121 0 225
124 0 223
128 0 221
131 0 219
134 0 217
138 0 214
142 0 212
146 0 209
150 0 206
155 0 203
159 0 199
164 0 195
169 0 191
175 0 185
181 0 180
188 0 172
197 0 162
206 33 165
194 219 243
194 219 243
194 219 243
194 219 243
194 219 243
194 219 243
194 219 243
194 219 243
194 219 243
194 219 243
194 219 243
194 219 243
194 219 243
194 218 243
194 218 243
194 218 243
194 218 243
194 218 243
194 218 243
194 218 243
194 218 243
194 218 243
194 218 243
194 218 243
194 218 243
194 218 243
194 218 243
194 218 243
194 218 243
194 218 243
194 218 243
194 218 243
194 218 243
194 218 243
194 218 243
194 218 243
194 218 243
194 218 243
194 218 243
194 218 243
194 218 243
194 218 243
194 218 243
194 218 243
194 218 243
194 218 243
194 218 243
194 218 243
194 218 243
193 218 243
193 218 243
193 218 243
193 218 243
193 218 243
193 218 243
193 218 243
193 218 243
193 218 243
193 218 243
193 218 243
193 218 243
193 218 243
193 218 243
193 218 243
193 218 243
193 218 243
193 218 243
193 218 243
193 218 243
193 218 243
193 218 243
193 218 243
193 218 243
193 218 243
193 218 243
193 218 243
193 218 243
193 218 243
193 218 243
193 218 243
193 218 243
193 218 243
193 218 243
193 218 243
193 218 243
193 218 243
193 218 243
193 218 243
193 218 243
193 218 243
193 218 243
193 218 243
193 218 243
193 218 243
193 218 243
193 218 243
193 218 243
193 218 243
193 218 243
193 218 243
193 218 243
193 218 243
193 218 243
193 218 243
193 218 243
193 218 243
193 218 243
193 218 243
193 218 243
193 218 243
193 218 243
193 218 243
193 218 243
193 218 243
193 218 243
193 218 243
193 218 243
193 218 243
193 218 243
193 218 243
193 218 243
193 218 243
193 218 243
193 218 243
193 218 243
193 218 243
193 218 243
193 218 243
193 218 243
193 218 243
193 218 243
193 218 243
193 218 243
193 218 243
193 218 243
193 218 243
193 218 243
193 218 243
193 218 243
193 218 243
193 218 243
193 218 243
193 218 243
193 218 243
193 218 243
193 218 243
193 218 243
193 218 243
193 218 243
193 218 243
193 218 243
193 218 243
193 218 243
193 218 243
193 218 243
193 218 243
193 218 243
193 218 243
193 218 243
193 218 243
193 218 243
193 218 243
193 218 243
193 218 243
193 218 243
193 218 243
193 218 243
193 218 243
193 218 243
193 218 243
193 218 243
193 218 243
193 218 243
193 218 243
193 218 243
193 218 243
193 218 243
193 218 243
193 218 243
194 218 243
194 218 243
194 218 243
194 218 243
194 218 243
194 218 243
194 218 243
194 218 243
194 218 243
194 218 243
194 218 243
194 218 243
194 218 243
194 218 243
194 218 243
194 218 243
194 218 243
194 218 243
194 218 243
194 218 243
194 218 243
194 218 243
194 218 243
194 218 243
194 218 243
194 218 243
194 218 243
194 218 243
194 218 243
194 218 243
194 218 243
194 218 243
194 218 243
194 218 243
194 219 243
194 218 243
194 218 243
194 219 243
194 219 243
194 219 243
194 219 243
194 219 243
194 219 243
194 219 243
194 219 243
194 219 243
194 219 243
194 219 243
194 219 243
194 219 243
194 219 243
194 219 243
194 219 243
194 219 243
194 219 243
194 219 243
194 219 243
194 219 243
194 219 243
194 219 243
194 219 243
194 219 243
194 219 243
194 219 243
194 219 243
194 219 243
194 219 243
194 219 243
194 219 243
194 219 243
194 219 243
194 219 243
194 219 243
194 219 243
194 219 243
194 219 243
194 219 243
194 219 243
194 219 243
194 219 243
194 219 243
194 219 243
194 219 243
194 219 243
194 219 243
194 219 243
194 219 243
194 219 243
194 219 243
194 219 243
194 219 243
0 47 173
0 0 160
0 0 171
0 0 179
0 0 185
0 0 190
0 0 195
0 0 199
0 0 202
0 0 206
0 0 209
0 0 211
0 0 214
0 0 216
0 0 219
0 0 221
0 0 223
0 0 225
0 0 226
0 0 228
0 0 229
0 0 231
0 0 232
0 0 234
0 0 235
0 0 236
0 0 237
0 0 238
0 0 239
0 0 240
0 0 241
0 0 242
0 0 243
0 0 244
0 0 245
0 0 245
0 0 246
0 0 247
0 0 247
0 0 248
0 0 249
0 0 249
0 0 250
0 0 250
0 0 251
0 0 251
0 0 252
0 0 252
0 0 252
0 0 253
0 0 253
0 0 253
0 0 254
0 0 254
0 0 254
0 0 254
0 0 254
0 0 255
0 0 255
0 0 255
0 0 255
0 0 255
0 0 255
0 0 255
0 0 255
1 0 255
3 0 255
5 0 255
7 0 255
10 0 255
12 0 255
14 0 255
17 0 255
19 0 254
21 0 254
24 0 254
26 0 254
28 0 254
31 0 253
33 0 253
35 0 253
37 0 252
40 0 252
42 0 252
45 0 251
47 0 251
49 0 250
52 0 250
54 0 249
57 0 249
59 0 248
62 0 247
64 0 247
67 0 246
69 0 245
72 0 245
75 0 244
77 0 243
80 0 242
83 0 241
85 0 240
88 0 239
91 0 238
93 0 237
96 0 236
99 0 235
102 0 234
105 0 232
108 0 231
111 0 229
114 0 228
117 0 226
121 0 224
124 0 223
127 0 221
131 0 219
135 0 216
138 0 214
142 0 212
146 0 209
151 0 206
155 0 202
159 0 199
164 0 195
169 0 190
175 0 185
181 0 179
189 0 171
197 0 161
204 76 184
194 219 243
194 219 243
194 219 243
194 219 243
194 219 243
194 219 243
194 219 243
194 219 243
194 219 243
194 219 243
194 219 243
194 219 243
194 219 243
194 219 243
194 219 243
194 219 243
194 219 243
194 219 243
194 219 243
194 219 243
194 219 243
194 219 243
194 219 243
194 219 243
194 219 243
194 219 243
194 219 243
194 219 243
194 219 243
194 219 243
194 219 243
194 219 243
194 219 243
194 219 243
194 219 243
194 219 243
194 219 243
194 219 243
194 219 243
194 219 243
194 219 243
194 219 243
194 219 243
194 219 243
194 219 243
194 219 243
194 219 243
194 219 243
194 219 243
194 219 243
194 219 243
194 219 243
194 219 243
194 219 243
194 218 243
194 219 243
194 218 243
194 218 243
194 218 243
194 218 243
194 218 243
194 218 243
194 218 243
194 218 243
194 218 243
194 218 243
194 218 243
194 218 243
194 218 243
194 218 243
194 218 243
194 218 243
194 218 243
194 218 243
194 218 243
194 218 243
194 218 243
194 218 243
194 218 243
194 218 243
194 218 243
194 218 243
194 218 243
194 218 243
194 218 243
194 218 243
194 218 243
194 218 243
194 218 243
194 218 243
194 218 243
193 218 243
193 218 243
193 218 243
193 218 243
193 218 243
193 218 243
193 218 243
193 218 243
193 218 243
193 218 243
193 218 243
193 218 243
193 218 243
193 218 243
193 218 243
193 218 243
193 218 243
193 218 243
193 218 243
193 218 243
193 218 243
193 218 243
193 218 243
193 218 243
193 218 243
193 218 243
193 218 243
193 218 243
193 218 243
193 218 243
193 218 243
193 218 243
193 218 243
193 218 243
193 218 243
193 218 243
193 218 243
193 218 243
193 218 243
193 218 243
193 218 243
193 218 243
193 218 243
193 218 243
193 218 243
193 218 243
193 218 243
193 218 243
193 218 243
193 218 243
193 218 243
194 218 243
194 218 243
194 218 243
194 218 243
194 218 243
194 218 243
194 218 243
194 218 243
194 218 243
194 218 243
194 218 243
194 218 243
194 218 243
194 218 243
194 218 243
194 218 243
194 218 243
194 218 243
194 218 243
194 218 243
194 218 243
194 218 243
194 218 243
194 218 243
194 218 243
194 218 243
194 218 243
194 218 243
194 218 243
194 218 243
194 218 243
194 218 243
194 218 243
194 218 243
194 218 243
194 218 243
194 218 243
194 219 243
194 218 243
194 219 243
194 219 243
194 219 243
194 219 243
194 219 243
194 219 243
194 219 243
194 219 243
194 219 243
194 219 243
194 219 243
194 219 243
194 219 243
194 219 243
194 219 243
194 219 243
194 219 243
194 219 243
194 219 243
194 219 243
194 219 243
194 219 243
194 219 243
194 219 243
194 219 243
194 219 243
194 219 243
194 219 243
194 219 243
194 219 243
194 219 243
194 219 243
194 219 243
194 219 243
194 219 243
194 219 243
194 219 243
194 219 243
194 219 243
194 219 243
194 219 243
194 219 243
194 219 243
194 219 243
194 219 243
194 219 243
194 219 243
194 219 243
194 219 243
194 219 243
194 219 243
194 219 243
194 219 243
194 219 243
194 219 243
194 219 243
194 219 243
195 219 243
195 219 243
195 219 243
195 219 243
195 219 243
195 219 243
195 219 243
195 219 243
195 219 243
195 219 243
195 219 243
195 219 243
195 219 243
195 219 243
195 219 243
195 219 243
195 219 243
195 219 243
195 219 243
195 219 243
195 219 243
195 219 243
195 219 243
195 219 243
195 219 243
195 219 243
195 219 243
195 219 243
195 219 243
195 219 243
195 219 243
195 219 243
0 76 184
0 0 159
0 0 170
0 0 178
0 0 184
0 0 190
0 0 194
0 0 198
0 0 202
0 0 205
0 0 208
0 0 211
0 0 214
0 0 216
0 0 218
0 0 220
0 0 222
0 0 224
0 0 226
0 0 228
0 0 229
0 0 231
0 0 232
0 0 233
0 0 235
0 0 236
0 0 237
0 0 238
0 0 239
0 0 240
0 0 241
0 0 242
0 0 243
0 0 244
0 0 244
0 0 245
0 0 246
0 0 247
0 0 247
0 0 248
0 0 248
0 0 249
0 0 250
0 0 250
0 0 251
0 0 251
0 0 251
0 0 252
0 0 252
0 0 252
0 0 253
0 0 253
0 0 253
0 0 254
0 0 254
0 0 254
0 0 254
0 0 254
0 0 255
0 0 255
0 0 255
0 0 255
0 0 255
0 0 255
0 0 255
1 0 255
3 0 255
5 0 255
8 0 255
10 0 255
12 0 255
14 0 255
17 0 254
19 0 254
21 0 254
24 0 254
26 0 254
28 0 253
30 0 253
33 0 253
35 0 252
37 0 252
40 0 252
42 0 251
45 0 251
47 0 251
49 0 250
52 0 250
54 0 249
57 0 248
59 0 248
62 0 247
64 0 247
67 0 246
69 0 245
72 0 244
74 0 244
77 0 243
80 0 242
83 0 241
85 0 240
88 0 239
91 0 238
93 0 237
96 0 236
99 0 235
102 0 233
105 0 232
108 0 231
111 0 229
114 0 228
118 0 226
121 0 224
124 0 222
128 0 220
131 0 218
135 0 216
138 0 214
142 0 211
146 0 208
151 0 205
155 0 202
160 0 198
164 0 194
170 0 190
175 0 184
182 0 178
189 0 170
198 0 159
202 96 193
195 219 243
195 219 243
195 219 243
195 219 243
195 219 243
195 219 243
195 219 243
195 219 243
195 219 243
195 219 243
195 219 243
195 219 243
195 219 243
195 219 243
195 219 243
195 219 243
195 219 243
195 219 243
195 219 243
195 219 243
195 219 243
195 219 243
195 219 243
195 219 243
195 219 243
195 219 243
195 219 243
195 219 243
195 219 243
195 219 243
195 219 243
195 219 243
195 219 243
194 219 243
194 219 243
194 219 243
194 219 243
194 219 243
194 219 243
194 219 243
194 219 243
194 219 243
194 219 243
194 219 243
194 219 243
194 219 243
194 219 243
194 219 243
194 219 243
194 219 243
194 219 243
194 219 243
194 219 243
194 219 243
194 219 243
194 219 243
194 219 243
194 219 243
194 219 243
194 219 243
194 219 243
194 219 243
194 219 243
194 219 243
194 219 243
194 219 243
194 219 243
194 219 243
194 219 243
194 219 243
194 219 243
194 219 243
194 219 243
194 219 243
194 219 243
194 219 243
194 219 243
194 219 243
194 219 243
194 219 243
194 219 243
194 219 243
194 219 243
194 219 243
194 219 243
194 219 243
194 219 243
194 219 243
194 219 243
194 218 243
194 218 243
194 219 243
194 218 243
194 218 243
194 218 243
194 218 243
194 218 243
194 218 243
194 218 243
194 218 243
194 218 243
194 218 243
194 218 243
194 218 243
194 218 243
194 218 243
194 218 243
194 218 243
194 218 243
194 218 243
194 218 243
194 218 243
194 218 243
194 218 243
194 218 243
194 218 243
194 218 243
194 218 243
194 218 243
194 218 243
194 218 243
194 218 243
194 218 243
194 218 243
194 218 243
194 218 243
194 218 243
193 218 243
193 218 243
193 218 243
193 218 243
193 218 243
193 218 243
193 218 243
193 218 243
194 218 243
194 218 243
194 218 243
194 218 243
194 218 243
194 218 243
194 218 243
194 218 243
194 218 243
194 218 243
194 218 243
194 218 243
194 219 243
194 219 243
194 219 243
194 219 243
194 219 243
194 219 243
194 219 243
194 219 243
194 219 243
194 219 243
194 219 243
194 219 243
194 219 243
194 219 243
194 219 243
194 219 243
194 219 243
194 219 243
194 219 243
194 219 243
194 219 243
194 219 243
194 219 243
194 219 243
194 219 243
194 219 243
194 219 243
194 219 243
194 219 243
194 219 243
194 219 243
194 219 243
194 219 243
194 219 243
194 219 243
194 219 243
194 219 243
194 219 243
194 219 243
194 219 243
194 219 243
194 219 243
194 219 243
194 219 243
194 219 243
194 219 243
194 219 243
194 219 243
194 219 243
194 219 243
194 219 243
194 219 243
194 219 243
194 219 243
194 219 243
194 219 243
194 219 243
194 219 243
194 219 243
194 219 243
195 219 243
195 219 243
195 219 243
195 219 243
195 219 243
195 219 243
195 219 243
195 219 243
195 219 243
195 219 243
195 219 243
195 219 243
195 219 243
195 219 243
195 219 243
195 219 243
195 219 243
195 219 243
195 219 243
195 219 243
195 219 243
195 219 243
195 219 243
195 219 243
195 219 243
195 219 243
195 219 243
195 219 243
195 219 243
195 219 243
195 219 243
195 219 243
195 219 243
195 219 243
195 219 243
195 219 243
195 219 243
195 219 243
195 219 243
195 219 243
195 219 243
195 219 243
195 219 243
195 219 243
195 219 243
195 219 243
195 219 243
195 219 243
195 219 243
195 219 243
195 219 243
195 219 243
195 219 243
195 219 243
195 219 243
195 219 243
195 219 243
195 219 243
195 219 243
195 219 243
195 219 243
195 219 243
195 219 243
0 94 191
0 0 157
0 0 169
0 0 177
0 0 184
0 0 189
0 0 194
0 0 198
0 0 201
0 0 205
0 0 208
0 0 211
0 0 213
0 0 216
0 0 218
0 0 220
0 0 222
0 0 224
0 0 226
0 0 227
0 0 229
0 0 230
0 0 232
0 0 233
0 0 234
0 0 236
0 0 237
0 0 238
0 0 239
0 0 240
0 0 241
0 0 242
0 0 243
0 0 244
0 0 244
0 0 245
0 0 246
0 0 246
0 0 247
0 0 248
0 0 248
0 0 249
0 0 249
0 0 250
0 0 250
0 0 251
0 0 251
0 0 252
0 0 252
0 0 252
0 0 253
0 0 253
0 0 253
0 0 253
0 0 254
0 0 254
0 0 254
0 0 254
0 0 254
0 0 255
0 0 255
0 0 255
0 0 255
0 0 255
0 0 255
1 0 255
3 0 255
5 0 255
8 0 255
10 0 255
12 0 255
14 0 254
17 0 254
19 0 254
21 0 254
24 0 254
26 0 253
28 0 253
31 0 253
33 0 253
35 0 252
38 0 252
40 0 252
42 0 251
45 0 251
47 0 250
50 0 250
52 0 249
54 0 249
57 0 248
59 0 248
62 0 247
64 0 246
67 0 246
69 0 245
72 0 244
74 0 244
77 0 243
80 0 242
83 0 241
85 0 240
88 0 239
91 0 238
94 0 237
96 0 236
99 0 234
102 0 233
105 0 232
108 0 230
111 0 229
115 0 227
118 0 226
121 0 224
124 0 222
128 0 220
131 0 218
135 0 216
138 0 213
142 0 211
147 0 208
151 0 205
155 0 201
160 0 198
165 0 194
170 0 189
176 0 183
183 0 177
190 0 169
199 0 158
202 111 199
195 219 243
195 219 243
195 219 243
195 219 243
195 219 243
195 219 243
195 219 243
195 219 243
195 219 243
195 219 243
195 219 243
195 219 243
195 219 243
195 219 243
195 219 243
195 219 243
195 219 243
195 219 243
195 219 243
195 219 243
195 219 243
195 219 243
195 219 243
195 219 243
195 219 243
195 219 243
195 219 243
195 219 243
195 219 243
195 219 243
195 219 243
195 219 243
195 219 243
195 219 243
195 219 243
195 219 243
195 219 243
195 219 243
195 219 243
195 219 243
195 219 243
195 219 243
195 219 243
195 219 243
195 219 243
195 219 243
195 219 243
195 219 243
195 219 243
195 219 243
195 219 243
195 219 243
195 219 243
195 219 243
195 219 243
195 219 243
195 219 243
195 219 243
195 219 243
195 219 243
195 219 243
195 219 243
195 219 243
195 219 243
194 219 243
194 219 243
194 219 243
194 219 243
194 219 243
194 219 243
194 219 243
194 219 243
194 219 243
194 219 243
194 219 243
194 219 243
194 219 243
194 219 243
194 219 243
194 219 243
194 219 243
194 219 243
194 219 243
194 219 243
194 219 243
194 219 243
194 219 243
194 219 243
194 219 243
194 219 243
194 219 243
194 219 243
194 219 243
194 219 243
194 219 243
194 219 243
194 219 243
194 219 243
194 219 243
194 219 243
194 219 243
194 219 243
194 219 243
194 219 243
194 219 243
194 219 243
194 219 243
194 219 243
194 219 243
194 219 243
194 219 243
194 219 243
194 219 243
194 219 243
194 219 243
194 219 243
194 219 243
194 219 243
194 219 243
194 219 243
194 219 243
194 219 243
194 219 243
194 218 243
194 218 243
194 218 243
194 218 243
194 218 243
194 218 243
194 218 243
194 218 243
194 218 243
194 218 243
194 218 243
194 218 243
194 219 243
194 219 243
194 219 243
194 219 243
194 219 243
194 219 243
194 219 243
194 219 243
194 219 243
194 219 243
194 219 243
194 219 243
194 219 243
194 219 243
194 219 243
194 219 243
194 219 243
194 219 243
194 219 243
194 219 243
194 219 243
194 219 243
194 219 243
194 219 243
194 219 243
194 219 243
194 219 243
194 219 243
194 219 243
194 219 243
194 219 243
194 219 243
194 219 243
194 219 243
194 219 243
194 219 243
194 219 243
194 219 243
194 219 243
194 219 243
194 219 243
194 219 243
194 219 243
194 219 243
194 219 243
195 219 243
195 219 243
195 219 243
195 219 243
195 219 243
195 219 243
195 219 243
195 219 243
195 219 243
195 219 243
195 219 243
195 219 243
195 219 243
195 219 243
195 219 243
195 219 243
195 219 243
195 219 243
195 219 243
195 219 243
195 219 243
195 219 243
195 219 243
195 219 243
195 219 243
195 219 243
195 219 243
195 219 243
195 219 243
195 219 243
195 219 243
195 219 243
195 219 243
195 219 243
195 219 243
195 219 243
195 219 243
195 219 243
195 219 243
195 219 243
195 219 243
195 219 243
195 219 243
195 219 243
195 219 243
195 219 243
195 219 243
195 219 243
195 219 243
195 219 243
195 219 243
195 219 243
195 219 243
195 219 243
195 219 243
195 219 243
195 219 243
195 219 243
195 219 243
195 219 243
195 219 243
195 219 243
195 219 243
195 219 243
195 219 243
195 219 243
196 220 244
196 220 244
196 220 244
196 220 244
196 220 244
196 220 244
196 220 244
196 220 244
196 220 244
196 220 244
196 220 244
196 220 244
196 220 244
196 220 244
196 220 244
196 220 244
196 220 244
196 220 244
196 220 244
196 220 244
196 220 244
196 220 244
196 220 244
196 220 244
86 152 216
0 0 155
0 0 168
0 0 176
0 0 183
0 0 188
0 0 193
0 0 197
0 0 201
0 0 204
0 0 207
0 0 210
0 0 213
0 0 215
0 0 218
0 0 220
0 0 222
0 0 224
0 0 225
0 0 227
0 0 229
0 0 230
0 0 231
0 0 233
0 0 234
0 0 235
0 0 237
0 0 238
0 0 239
0 0 240
0 0 241
0 0 242
0 0 242
0 0 243
0 0 244
0 0 245
0 0 246
0 0 246
0 0 247
0 0 247
0 0 248
0 0 249
0 0 249
0 0 250
0 0 250
0 0 251
0 0 251
0 0 251
0 0 252
0 0 252
0 0 252
0 0 253
0 0 253
0 0 253
0 0 254
0 0 254
0 0 254
0 0 254
0 0 254
0 0 254
0 0 254
0 0 255
0 0 255
0 0 255
0 0 255
1 0 255
3 0 255
5 0 255
8 0 255
10 0 254
12 0 254
14 0 254
17 0 254
19 0 254
21 0 254
24 0 254
26 0 253
28 0 253
31 0 253
33 0 252
35 0 252
37 0 252
40 0 251
42 0 251
45 0 251
47 0 250
50 0 250
52 0 249
54 0 249
57 0 248
59 0 248
62 0 247
64 0 246
67 0 246
69 0 245
72 0 244
75 0 243
77 0 242
80 0 242
83 0 241
85 0 240
88 0 239
91 0 238
94 0 237
97 0 235
99 0 234
102 0 233
105 0 232
108 0 230
111 0 229
114 0 227
118 0 225
121 0 224
124 0 222
128 0 220
131 0 218
135 0 215
139 0 213
143 0 210
147 0 207
151 0 204
155 0 201
160 0 197
165 0 193
170 0 189
176 0 183
183 0 176
191 0 167
200 0 156
200 150 214
196 220 244
196 220 244
196 220 244
196 220 244
196 220 244
196 220 244
196 220 244
196 220 244
196 220 244
196 220 244
196 220 244
196 220 244
196 220 244
196 220 244
196 220 244
196 220 244
196 220 244
196 220 244
196 220 244
196 220 244
196 220 244
196 220 244
196 220 244
196 220 244
195 219 243
196 220 244
195 219 243
195 219 243
195 219 243
195 219 243
195 219 243
195 219 243
195 219 243
195 219 243
195 219 243
195 219 243
195 219 243
195 219 243
195 219 243
195 219 243
195 219 243
195 219 243
195 219 243
195 219 243
195 219 243
195 219 243
195 219 243
195 219 243
195 219 243
195 219 243
195 219 243
195 219 243
195 219 243
195 219 243
195 219 243
195 219 243
195 219 243
195 219 243
195 219 243
195 219 243
195 219 243
195 219 243
195 219 243
195 219 243
195 219 243
195 219 243
195 219 243
195 219 243
195 219 243
195 219 243
195 219 243
195 219 243
195 219 243
195 219 243
195 219 243
195 219 243
195 219 243
195 219 243
195 219 243
195 219 243
195 219 243
195 219 243
195 219 243
195 219 243
195 219 243
195 219 243
195 219 243
195 219 243
195 219 243
194 219 243
194 219 243
194 219 243
194 219 243
194 219 243
194 219 243
194 219 243
194 219 243
194 219 243
194 219 243
194 219 243
194 219 243
194 219 243
194 219 243
194 219 243
194 219 243
194 219 243
194 219 243
194 219 243
194 219 243
194 219 243
194 219 243
194 219 243
194 219 243
194 219 243
194 219 243
194 219 243
194 219 243
194 219 243
194 219 243
194 219 243
194 219 243
194 219 243
194 219 243
194 219 243
194 219 243
194 219 243
194 219 243
194 219 243
194 219 243
194 219 243
194 219 243
194 219 243
194 219 243
194 219 243
194 219 243
194 219 243
194 219 243
194 219 243
194 219 243
194 219 243
194 219 243
194 219 243
194 219 243
194 219 243
194 219 243
194 219 243
194 219 243
194 219 243
194 219 243
194 219 243
194 219 243
194 219 243
194 219 243
194 219 243
194 219 243
195 219 243
195 219 243
195 219 243
195 219 243
195 219 243
195 219 243
195 219 243
195 219 243
195 219 243
195 219 243
195 219 243
195 219 243
195 219 243
195 219 243
195 219 243
195 219 243
195 219 243
195 219 243
195 219 243
195 219 243
195 219 243
195 219 243
195 219 243
195 219 243
195 219 243
195 219 243
195 219 243
195 219 243
195 219 243
195 219 243
195 219 243
195 219 243
195 219 243
195 219 243
195 219 243
195 219 243
195 219 243
195 219 243
195 219 243
195 219 243
195 219 243
195 219 243
195 219 243
195 219 243
195 219 243
195 219 243
195 219 243
195 219 243
195 219 243
195 219 243
195 219 243
195 219 243
195 219 243
195 219 243
195 219 243
195 219 243
195 219 243
195 219 243
195 219 243
195 219 243
195 219 243
195 219 243
195 219 243
195 219 243
195 219 243
195 219 243
195 219 243
196 220 244
196 220 244
196 220 244
196 220 244
196 220 244
196 220 244
196 220 244
196 220 244
196 220 244
196 220 244
196 220 244
196 220 244
196 220 244
196 220 244
196 220 244
196 220 244
196 220 244
196 220 244
196 220 244
196 220 244
196 220 244
196 220 244
196 220 244
196 220 244
196 220 244
196 220 244
196 220 244
196 220 244
196 220 244
196 220 244
196 220 244
196 220 244
196 220 244
196 220 244
196 220 244
196 220 244
196 220 244
196 220 244
196 220 244
196 220 244
196 220 244
196 220 244
196 220 244
196 220 244
196 220 244
196 220 244
196 220 244
196 220 244
135 182 228
0 0 152
0 0 166
0 0 175
0 0 182
0 0 187
0 0 192
0 0 197
0 0 200
0 0 204
0 0 207
0 0 210
0 0 212
0 0 215
0 0 217
0 0 219
0 0 221
0 0 223
0 0 225
0 0 227
0 0 228
0 0 230
0 0 231
0 0 233
0 0 234
0 0 235
0 0 236
0 0 237
0 0 238
0 0 239
0 0 240
0 0 241
0 0 242
0 0 243
0 0 244
0 0 245
0 0 245
0 0 246
0 0 247
0 0 247
0 0 248
0 0 248
0 0 249
0 0 249
0 0 250
0 0 250
0 0 251
0 0 251
0 0 252
0 0 252
0 0 252
0 0 253
0 0 253
0 0 253
0 0 253
0 0 254
0 0 254
0 0 254
0 0 254
0 0 254
0 0 254
0 0 254
0 0 254
0 0 254
0 0 254
1 0 254
3 0 254
5 0 254
7 0 254
10 0 254
12 0 254
14 0 254
17 0 254
19 0 254
21 0 254
24 0 253
26 0 253
28 0 253
30 0 253
33 0 252
35 0 252
38 0 252
40 0 251
42 0 251
45 0 250
47 0 250
50 0 249
52 0 249
54 0 248
57 0 248
59 0 247
62 0 247
64 0 246
67 0 245
69 0 245
72 0 244
75 0 243
77 0 242
80 0 241
83 0 240
85 0 239
88 0 238
91 0 237
94 0 236
97 0 235
99 0 234
103 0 233
105 0 231
108 0 230
112 0 228
115 0 227
118 0 225
121 0 223
124 0 221
128 0 219
132 0 217
135 0 215
139 0 213
143 0 210
147 0 207
151 0 204
156 0 200
160 0 197
165 0 192
171 0 187
177 0 182
184 0 175
191 0 166
202 0 152
199 187 230
196 220 244
196 220 244
196 220 244
196 220 244
196 220 244
196 220 244
196 220 244
196 220 244
196 220 244
196 220 244
196 220 244
196 220 244
196 220 244
196 220 244
196 220 244
196 220 244
196 220 244
196 220 244
196 220 244
196 220 244
196 220 244
196 220 244
196 220 244
196 220 244
196 220 244
196 220 244
196 220 244
196 220 244
196 220 244
196 220 244
196 220 244
196 220 244
196 220 244
196 220 244
196 220 244
196 220 244
196 220 244
196 220 244
196 220 244
196 220 244
196 220 244
196 220 244
196 220 244
196 220 244
196 220 244
196 220 244
196 220 244
196 220 244
195 219 243
195 219 243
195 219 243
195 219 243
195 219 243
195 219 243
195 219 243
195 219 243
195 219 243
195 219 243
195 219 243
195 219 243
195 219 243
195 219 243
195 219 243
195 219 243
195 219 243
195 219 243
195 219 243
195 219 243
195 219 243
195 219 243
195 219 243
195 219 243
195 219 243
195 219 243
195 219 243
195 219 243
195 219 243
195 219 243
195 219 243
195 219 243
195 219 243
195 219 243
195 219 243
195 219 243
195 219 243
195 219 243
195 219 243
195 219 243
195 219 243
195 219 243
195 219 243
195 219 243
195 219 243
195 219 243
195 219 243
195 219 243
195 219 243
195 219 243
195 219 243
195 219 243
195 219 243
195 219 243
195 219 243
195 219 243
195 219 243
195 219 243
195 219 243
195 219 243
195 219 243
195 219 243
195 219 243
195 219 243
195 219 243
195 219 243
195 219 243
195 219 243
194 219 243
194 219 243
194 219 243
194 219 243
194 219 243
194 219 243
194 219 243
194 219 243
194 219 243
194 219 243
194 219 243
194 219 243
194 219 243
194 219 243
194 219 243
194 219 243
194 219 243
194 219 243
194 219 243
195 219 243
195 219 243
195 219 243
195 219 243
195 219 243
195 219 243
195 219 243
195 219 243
195 219 243
195 219 243
195 219 243
195 219 243
195 219 243
195 219 243
195 219 243
195 219 243
195 219 243
195 219 243
195 219 243
195 219 243
195 219 243
195 219 243
195 219 243
195 219 243
195 219 243
195 219 243
195 219 243
195 219 243
195 219 243
195 219 243
195 219 243
195 219 243
195 219 243
195 219 243
195 219 243
195 219 243
195 219 243
195 219 243
195 219 243
195 219 243
195 219 243
195 219 243
195 219 243
195 219 243
195 219 243
195 219 243
195 219 243
195 219 243
195 219 243
195 219 243
195 219 243
195 219 243
195 219 243
195 219 243
195 219 243
195 219 243
195 219 243
195 219 243
195 219 243
195 219 243
195 219 243
195 219 243
195 219 243
195 219 243
195 219 243
195 219 243
196 220 244
196 220 244
196 220 244
196 220 244
196 220 244
196 220 244
196 220 244
196 220 244
196 220 244
196 220 244
196 220 244
196 220 244
196 220 244
196 220 244
196 220 244
196 220 244
196 220 244
196 220 244
196 220 244
196 220 244
196 220 244
196 220 244
196 220 244
196 220 244
196 220 244
196 220 244
196 220 244
196 220 244
196 220 244
196 220 244
196 220 244
196 220 244
196 220 244
196 220 244
196 220 244
196 220 244
196 220 244
196 220 244
196 220 244
196 220 244
196 220 244
196 220 244
196 220 244
196 220 244
196 220 244
196 220 244
196 220 244
196 220 244
196 220 244
196 220 244
197 220 244
197 220 244
197 220 244
197 220 244
197 220 244
197 220 244
197 220 244
197 220 244
197 220 244
197 220 244
197 220 244
197 220 244
197 220 244
197 220 244
197 220 244
197 220 244
197 220 244
197 220 244
197 220 244
180 210 239
0 0 153
0 0 164
0 0 174
0 0 181
0 0 186
0 0 192
0 0 196
0 0 200
0 0 203
0 0 206
0 0 209
0 0 212
0 0 214
0 0 217
0 0 219
0 0 221
0 0 223
0 0 225
0 0 226
0 0 228
0 0 229
0 0 231
0 0 232
0 0 234
0 0 235
0 0 236
0 0 237
0 0 238
0 0 239
0 0 240
0 0 241
0 0 242
0 0 243
0 0 244
0 0 244
0 0 245
0 0 246
0 0 246
0 0 247
0 0 248
0 0 248
0 0 249
0 0 249
0 0 250
0 0 250
0 0 251
0 0 251
0 0 251
0 0 252
0 0 252
0 0 252
0 0 253
0 0 253
0 0 253
0 0 253
0 0 253
0 0 254
0 0 254
0 0 254
0 0 254
0 0 254
0 0 254
0 0 254
0 0 254
1 0 254
3 0 254
5 0 254
8 0 254
10 0 254
12 0 254
14 0 254
17 0 254
19 0 254
21 0 253
24 0 253
26 0 253
28 0 253
31 0 252
33 0 252
35 0 252
38 0 251
40 0 251
42 0 251
45 0 250
47 0 250
50 0 249
52 0 249
55 0 248
57 0 248
59 0 247
62 0 246
65 0 246
67 0 245
70 0 244
72 0 244
75 0 243
77 0 242
80 0 241
83 0 240
85 0 239
88 0 238
91 0 237
94 0 236
96 0 235
100 0 234
102 0 232
105 0 231
108 0 229
112 0 228
115 0 226
118 0 225
121 0 223
125 0 221
128 0 219
132 0 217
135 0 214
139 0 212
143 0 209
147 0 206
152 0 203
156 0 200
161 0 196
166 0 191
171 0 186
177 0 181
185 0 173
192 0 165
204 0 149
197 213 240
197 220 244
197 220 244
197 220 244
197 220 244
197 220 244
197 220 244
197 220 244
197 220 244
197 220 244
197 220 244
197 220 244
197 220 244
197 220 244
197 220 244
197 220 244
197 220 244
197 220 244
197 220 244
196 220 244
197 220 244
196 220 244
196 220 244
196 220 244
196 220 244
196 220 244
196 220 244
196 220 244
196 220 244
196 220 244
196 220 244
196 220 244
196 220 244
196 220 244
196 220 244
196 220 244
196 220 244
196 220 244
196 220 244
196 220 244
196 220 244
196 220 244
196 220 244
196 220 244
196 220 244
196 220 244
196 220 244
196 220 244
196 220 244
196 220 244
196 220 244
196 220 244
196 220 244
196 220 244
196 220 244
196 220 244
196 220 244
196 220 244
196 220 244
196 220 244
196 220 244
196 220 244
196 220 244
196 220 244
196 220 244
196 220 244
196 220 244
196 220 244
196 220 244
196 220 244
196 220 244
196 220 244
195 219 243
195 219 243
195 219 243
195 219 243
195 219 243
195 219 243
195 219 243
195 219 243
195 219 243
195 219 243
195 219 243
195 219 243
195 219 243
195 219 243
195 219 243
195 219 243
195 219 243
195 219 243
195 219 243
195 219 243
195 219 243
195 219 243
195 219 243
195 219 243
195 219 243
195 219 243
195 219 243
195 219 243
195 219 243
195 219 243
195 219 243
195 219 243
195 219 243
195 219 243
195 219 243
195 219 243
195 219 243
195 219 243
195 219 243
195 219 243
195 219 243
195 219 243
195 219 243
195 219 243
195 219 243
195 219 243
195 219 243
195 219 243
195 219 243
195 219 243
195 219 243
195 219 243
195 219 243
195 219 243
195 219 243
195 219 243
195 219 243
195 219 243
195 219 243
195 219 243
195 219 243
195 219 243
195 219 243
195 219 243
195 219 243
195 219 243
195 219 243
195 219 243
195 219 243
195 219 243
195 219 243
195 219 243
195 219 243
195 219 243
195 219 243
195 219 243
195 219 243
195 219 243
195 219 243
195 219 243
195 219 243
195 219 243
195 219 243
195 219 243
195 219 243
195 219 243
195 219 243
195 219 243
195 219 243
195 219 243
195 219 243
195 219 243
195 219 243
195 219 243
195 219 243
195 219 243
195 219 243
195 219 243
195 219 243
195 219 243
195 219 243
195 219 243
195 219 243
195 219 243
195 219 243
195 219 243
195 219 243
195 219 243
195 219 243
196 220 244
196 220 244
196 220 244
196 220 244
196 220 244
196 220 244
196 220 244
196 220 244
196 220 244
196 220 244
196 220 244
196 220 244
196 220 244
196 220 244
196 220 244
196 220 244
196 220 244
196 220 244
196 220 244
196 220 244
196 220 244
196 220 244
196 220 244
196 220 244
196 220 244
196 220 244
196 220 244
196 220 244
196 220 244
196 220 244
196 220 244
196 220 244
196 220 244
196 220 244
196 220 244
196 220 244
196 220 244
196 220 244
196 220 244
196 220 244
196 220 244
196 220 244
196 220 244
196 220 244
196 220 244
196 220 244
196 220 244
196 220 244
196 220 244
196 220 244
197 220 244
197 220 244
197 220 244
197 220 244
197 220 244
197 220 244
197 220 244
197 220 244
197 220 244
197 220 244
197 220 244
197 220 244
197 220 244
197 220 244
197 220 244
197 220 244
197 220 244
197 220 244
197 220 244
197 220 244
197 220 244
197 220 244
197 220 244
197 220 244
197 220 244
197 220 244
197 220 244
197 220 244
197 220 244
195 221 241
182 223 225
161 226 199
151 228 186
166 226 205
145 229 179
134 231 166
109 235 134
122 233 150
108 235 132
93 238 114
56 244 67
0 6 131
0 0 162
0 0 172
0 0 180
0 0 185
0 0 191
0 0 195
0 0 199
0 0 203
0 0 206
0 0 209
0 0 211
0 0 214
0 0 216
0 0 218
0 0 221
0 0 222
0 0 224
0 0 226
0 0 227
0 0 229
0 0 231
0 0 232
0 0 233
0 0 234
0 0 236
0 0 237
0 0 238
0 0 239
0 0 240
0 0 241
0 0 242
0 0 242
0 0 243
0 0 244
0 0 245
0 0 245
0 0 246
0 0 247
0 0 247
0 0 248
0 0 248
0 0 249
0 0 249
0 0 250
0 0 250
0 0 251
0 0 251
0 0 251
0 0 252
0 0 252
0 0 252
0 0 253
0 0 253
0 0 253
0 0 253
0 0 253
0 0 254
0 0 254
0 0 254
0 0 254
0 0 254
0 0 254
0 0 254
1 0 254
3 0 254
5 0 254
8 0 254
10 0 254
12 0 254
14 0 254
17 0 253
19 0 253
21 0 253
24 0 253
26 0 253
28 0 252
31 0 252
33 0 252
35 0 251
38 0 251
40 0 251
42 0 250
45 0 250
47 0 249
50 0 249
52 0 248
55 0 248
57 0 247
60 0 247
62 0 246
65 0 245
67 0 245
70 0 244
72 0 243
75 0 242
77 0 242
80 0 241
83 0 240
86 0 239
88 0 238
91 0 237
94 0 236
97 0 234
100 0 233
103 0 232
106 0 231
109 0 229
112 0 227
115 0 226
118 0 224
122 0 222
125 0 220
128 0 219
132 0 216
136 0 214
140 0 211
143 0 209
148 0 206
152 0 202
156 0 199
161 0 195
166 0 191
172 0 185
178 0 179
185 0 172
193 0 163
177 10 128
74 243 72
104 238 114
109 237 121
121 235 137
132 232 153
132 232 153
136 232 158
149 229 176
155 228 184
179 224 218
186 223 228
195 221 241
197 220 244
197 220 244
197 220 244
197 220 244
197 220 244
197 220 244
197 220 244
197 220 244
197 220 244
197 220 244
197 220 244
197 220 244
197 220 244
197 220 244
197 220 244
197 220 244
197 220 244
197 220 244
197 220 244
197 220 244
197 220 244
197 220 244
197 220 244
197 220 244
197 220 244
197 220 244
197 220 244
197 220 244
197 220 244
196 220 244
196 220 244
196 220 244
196 220 244
196 220 244
196 220 244
196 220 244
196 220 244
196 220 244
196 220 244
196 220 244
196 220 244
196 220 244
196 220 244
196 220 244
196 220 244
196 220 244
196 220 244
196 220 244
196 220 244
196 220 244
196 220 244
196 220 244
196 220 244
196 220 244
196 220 244
196 220 244
196 220 244
196 220 244
196 220 244
196 220 244
196 220 244
196 220 244
196 220 244
196 220 244
196 220 244
196 220 244
196 220 244
196 220 244
196 220 244
196 220 244
196 220 244
196 220 244
196 220 244
196 220 244
196 220 244
196 220 244
196 220 244
196 220 244
196 220 244
195 219 243
195 219 243
195 219 243
195 219 243
195 219 243
195 219 243
195 219 243
195 219 243
195 219 243
195 219 243
195 219 243
195 219 243
195 219 243
195 219 243
195 219 243
195 219 243
195 219 243
195 219 243
195 219 243
195 219 243
195 219 243
195 219 243
195 219 243
195 219 243
195 219 243
195 219 243
195 219 243
195 219 243
195 219 243
195 219 243
195 219 243
195 219 243
195 219 243
195 219 243
195 219 243
195 219 243
195 219 243
195 219 243
195 219 243
195 219 243
195 219 243
195 219 243
195 219 243
195 219 243
195 219 243
195 219 243
195 219 243
195 219 243
195 219 243
195 219 243
195 219 243
195 219 243
195 219 243
195 219 243
195 219 243
195 219 243
195 219 243
195 219 243
195 219 243
195 219 243
195 219 243
195 219 243
195 219 243
195 219 243
195 219 243
195 219 243
195 219 243
195 219 243
195 219 243
195 219 243
196 220 244
196 220 244
196 220 244
196 220 244
196 220 244
196 220 244
196 220 244
196 220 244
196 220 244
196 220 244
196 220 244
196 220 244
196 220 244
196 220 244
196 220 244
196 220 244
196 220 244
196 220 244
196 220 244
196 220 244
196 220 244
196 220 244
196 220 244
196 220 244
196 220 244
196 220 244
196 220 244
196 220 244
196 220 244
196 220 244
196 220 244
196 220 244
196 220 244
196 220 244
196 220 244
196 220 244
196 220 244
196 220 244
196 220 244
196 220 244
196 220 244
196 220 244
196 220 244
196 220 244
196 220 244
196 220 244
196 220 244
196 220 244
196 220 244
196 220 244
196 220 244
196 220 244
196 220 244
197 220 244
197 220 244
197 220 244
197 220 244
197 220 244
197 220 244
197 220 244
197 220 244
197 220 244
197 220 244
197 220 244
197 220 244
197 220 244
197 220 244
197 220 244
197 220 244
197 220 244
197 220 244
197 220 244
197 220 244
197 220 244
197 220 244
197 220 244
197 220 244
197 220 244
197 220 244
197 220 244
197 220 244
197 221 244
197 221 244
178 224 220
180 223 223
170 225 210
140 230 174
142 229 176
125 232 156
109 235 135
92 238 114
86 239 107
75 240 94
52 244 65
59 243 73
29 248 37
30 248 37
19 250 24
0 254 0
0 255 0
0 255 0
0 255 0
0 255 0
0 255 0
0 255 0
0 255 0
0 255 0
0 255 0
0 255 0
0 255 0
0 255 0
0 70 85
0 0 159
0 0 171
0 0 178
0 0 184
0 0 189
0 0 194
0 0 198
0 0 202
0 0 205
0 0 208
0 0 211
0 0 213
0 0 216
0 0 218
0 0 220
0 0 222
0 0 224
0 0 225
0 0 227
0 0 229
0 0 230
0 0 232
0 0 233
0 0 234
0 0 235
0 0 236
0 0 237
0 0 239
0 0 239
0 0 240
0 0 241
0 0 242
0 0 243
0 0 244
0 0 244
0 0 245
0 0 246
0 0 246
0 0 247
0 0 248
0 0 248
0 0 249
0 0 249
0 0 250
0 0 250
0 0 250
0 0 251
0 0 251
0 0 251
0 0 252
0 0 252
0 0 252
0 0 253
0 0 253
0 0 253
0 0 253
0 0 253
0 0 253
0 0 254
0 0 254
0 0 254
0 0 254
0 0 254
1 0 254
3 0 254
5 0 254
8 0 254
10 0 254
12 0 253
14 0 253
17 0 253
19 0 253
21 0 253
24 0 253
26 0 252
28 0 252
31 0 252
33 0 252
35 0 251
38 0 251
40 0 250
42 0 250
45 0 250
47 0 249
50 0 249
52 0 248
55 0 248
57 0 247
60 0 246
62 0 246
65 0 245
67 0 244
70 0 244
72 0 243
75 0 242
77 0 241
80 0 240
83 0 239
86 0 238
88 0 237
91 0 236
94 0 235
97 0 234
100 0 233
103 0 231
106 0 230
109 0 229
112 0 227
115 0 225
119 0 224
122 0 222
125 0 220
129 0 218
132 0 216
136 0 213
140 0 211
144 0 208
148 0 205
152 0 202
157 0 198
162 0 194
167 0 190
172 0 184
178 0 178
186 0 170
196 0 159
139 58 91
8 255 0
8 255 0
8 255 0
9 255 0
9 255 0
9 255 0
9 255 0
10 255 0
10 255 0
10 255 0
10 255 0
11 255 0
28 252 9
35 250 19
54 247 45
67 245 63
58 246 50
86 241 89
86 241 88
96 239 101
112 236 125
112 236 125
125 234 143
142 231 166
138 231 161
159 228 189
181 224 220
192 222 236
197 221 244
197 220 244
197 220 244
197 220 244
197 220 244
197 220 244
197 220 244
197 220 244
197 220 244
197 220 244
197 220 244
197 220 244
197 220 244
197 220 244
197 220 244
197 220 244
197 220 244
197 220 244
197 220 244
197 220 244
197 220 244
197 220 244
197 220 244
197 220 244
197 220 244
197 220 244
197 220 244
197 220 244
197 220 244
197 220 244
196 220 244
196 220 244
196 220 244
196 220 244
196 220 244
196 220 244
196 220 244
196 220 244
196 220 244
196 220 244
196 220 244
196 220 244
196 220 244
196 220 244
196 220 244
196 220 244
196 220 244
196 220 244
196 220 244
196 220 244
196 220 244
196 220 244
196 220 244
196 220 244
196 220 244
196 220 244
196 220 244
196 220 244
196 220 244
196 220 244
196 220 244
196 220 244
196 220 244
196 220 244
196 220 244
196 220 244
196 220 244
196 220 244
196 220 244
196 220 244
196 220 244
196 220 244
196 220 244
196 220 244
196 220 244
196 220 244
196 220 244
196 220 244
196 220 244
196 220 244
196 220 244
196 220 244
195 219 243
195 219 243
195 219 243
195 219 243
195 219 243
195 219 243
195 219 243
195 219 243
195 219 243
195 219 243
195 219 243
195 219 243
195 219 243
195 219 243
195 219 243
195 219 243
195 219 243
195 219 243
195 219 243
195 219 243
195 219 243
195 219 243
195 219 243
195 219 243
195 219 243
195 219 243
195 219 243
195 219 243
195 219 243
195 219 243
195 219 243
195 219 243
195 219 243
196 220 244
196 220 244
196 220 244
196 220 244
196 220 244
196 220 244
196 220 244
196 220 244
196 220 244
196 220 244
196 220 244
196 220 244
196 220 244
196 220 244
196 220 244
196 220 244
196 220 244
196 220 244
196 220 244
196 220 244
196 220 244
196 220 244
196 220 244
196 220 244
196 220 244
196 220 244
196 220 244
196 220 244
196 220 244
196 220 244
196 220 244
196 220 244
196 220 244
196 220 244
196 220 244
196 220 244
196 220 244
196 220 244
196 220 244
196 220 244
196 220 244
196 220 244
196 220 244
196 220 244
196 220 244
196 220 244
196 220 244
196 220 244
196 220 244
196 220 244
196 220 244
196 220 244
196 220 244
196 220 244
197 220 244
197 220 244
197 220 244
197 220 244
197 220 244
197 220 244
197 220 244
197 220 244
197 220 244
197 220 244
197 220 244
197 220 244
197 220 244
197 220 244
197 220 244
197 220 244
197 220 244
197 220 244
197 220 244
197 220 244
197 220 244
197 220 244
197 220 244
197 220 244
197 220 244
197 220 244
197 220 244
197 220 244
197 220 244
197 221 244
197 221 244
197 221 244
187 222 231
172 225 213
135 230 169
146 229 182
142 229 177
114 234 143
108 235 135
89 238 112
66 242 84
60 243 76
43 246 56
28 248 38
18 250 25
20 249 28
0 255 0
0 255 0
0 255 0
0 255 0
0 255 0
0 255 0
0 255 0
0 255 0
0 255 0
0 255 0
0 255 0
0 255 0
0 255 0
0 255 0
0 255 0
0 255 0
0 255 0
0 255 0
0 255 0
0 255 0
0 255 0
0 255 0
0 255 0
0 255 0
0 255 0
0 255 0
0 255 0
0 255 0
0 255 0
0 141 47
0 0 157
0 0 168
0 0 176
0 0 183
0 0 188
0 0 193
0 0 197
0 0 201
0 0 204
0 0 207
0 0 210
0 0 213
0 0 215
0 0 217
0 0 219
0 0 221
0 0 223
0 0 225
0 0 227
0 0 228
0 0 230
0 0 231
0 0 232
0 0 234
0 0 235
0 0 236
0 0 237
0 0 238
0 0 239
0 0 240
0 0 241
0 0 242
0 0 243
0 0 243
0 0 244
0 0 245
0 0 246
0 0 246
0 0 247
0 0 247
0 0 248
0 0 248
0 0 249
0 0 249
0 0 250
0 0 250
0 0 251
0 0 251
0 0 251
0 0 252
0 0 252
0 0 252
0 0 252
0 0 253
0 0 253
0 0 253
0 0 253
0 0 253
0 0 253
0 0 253
0 0 253
0 0 253
0 0 253
1 0 253
3 0 253
5 0 253
8 0 253
10 0 253
12 0 253
14 0 253
17 0 253
19 0 253
21 0 253
24 0 252
26 0 252
28 0 252
31 0 252
33 0 251
35 0 251
38 0 251
40 0 250
43 0 250
45 0 249
47 0 249
50 0 248
52 0 248
55 0 247
57 0 247
60 0 246
62 0 245
65 0 245
67 0 244
70 0 243
72 0 243
75 0 242
78 0 241
80 0 240
83 0 239
86 0 238
89 0 237
91 0 236
94 0 235
97 0 234
100 0 232
103 0 231
106 0 230
109 0 228
112 0 227
115 0 225
119 0 223
122 0 221
126 0 219
129 0 217
132 0 215
136 0 213
140 0 210
144 0 207
148 0 204
153 0 201
157 0 197
162 0 193
168 0 188
173 0 183
180 0 176
187 0 168
197 0 156
85 137 48
7 255 0
7 255 0
7 255 0
7 255 0
7 255 0
8 255 0
8 255 0
8 255 0
8 255 0
8 255 0
8 255 0
9 255 0
9 255 0
9 255 0
9 255 0
9 255 0
9 255 0
10 255 0
10 255 0
10 255 0
10 255 0
10 255 0
11 255 0
11 255 0
11 255 0
11 255 0
12 255 0
12 255 0
18 254 0
29 252 10
46 249 33
52 248 40
59 246 50
78 243 76
85 241 86
95 240 99
126 234 143
131 233 151
152 229 179
152 229 179
159 228 190
175 225 213
185 223 226
197 221 244
197 221 244
197 221 244
197 220 244
197 220 244
197 220 244
197 220 244
197 220 244
197 220 244
197 220 244
197 220 244
197 220 244
197 220 244
197 220 244
197 220 244
197 220 244
197 220 244
197 220 244
197 220 244
197 220 244
197 220 244
197 220 244
197 220 244
197 220 244
197 220 244
197 220 244
197 220 244
197 220 244
197 220 244
197 220 244
197 220 244
196 220 244
196 220 244
196 220 244
196 220 244
196 220 244
196 220 244
196 220 244
196 220 244
196 220 244
196 220 244
196 220 244
196 220 244
196 220 244
196 220 244
196 220 244
196 220 244
196 220 244
196 220 244
196 220 244
196 220 244
196 220 244
196 220 244
196 220 244
196 220 244
196 220 244
196 220 244
196 220 244
196 220 244
196 220 244
196 220 244
196 220 244
196 220 244
196 220 244
196 220 244
196 220 244
196 220 244
196 220 244
196 220 244
196 220 244
196 220 244
196 220 244
196 220 244
196 220 244
196 220 244
196 220 244
196 220 244
196 220 244
196 220 244
196 220 244
196 220 244
196 220 244
196 220 244
196 220 244
196 220 244
196 220 244
195 219 243
195 219 243
195 219 243
195 219 243
195 219 243
195 219 243
195 219 243
196 220 244
196 220 244
196 220 244
196 220 244
196 220 244
196 220 244
196 220 244
196 220 244
196 220 244
196 220 244
196 220 244
196 220 244
196 220 244
196 220 244
196 220 244
196 220 244
196 220 244
196 220 244
196 220 244
196 220 244
196 220 244
196 220 244
196 220 244
196 220 244
196 220 244
196 220 244
196 220 244
196 220 244
196 220 244
196 220 244
196 220 244
196 220 244
196 220 244
196 220 244
196 220 244
196 220 244
196 220 244
196 220 244
196 220 244
196 220 244
196 220 244
196 220 244
196 220 244
196 220 244
196 220 244
197 220 244
197 220 244
197 220 244
197 220 244
197 220 244
197 220 244
197 220 244
197 220 244
197 220 244
197 220 244
197 220 244
197 220 244
197 220 244
197 220 244
197 220 244
197 220 244
197 220 244
197 220 244
197 220 244
197 220 244
197 220 244
197 220 244
197 220 244
197 220 244
197 220 244
197 220 244
197 220 244
197 220 244
197 220 244
197 221 244
197 221 244
197 221 244
197 221 244
197 221 244
184 223 228
169 225 210
163 226 203
148 228 185
118 233 149
118 233 149
110 235 138
89 238 113
59 243 77
57 243 74
25 248 36
12 250 20
6 251 13
0 254 0
0 255 0
0 255 0
0 255 0
0 255 0
0 255 0
0 255 0
0 255 0
0 255 0
0 255 0
0 255 0
0 255 0
0 255 0
0 255 0
0 255 0
0 255 0
0 255 0
0 255 0
0 255 0
0 255 0
0 255 0
0 255 0
0 255 0
0 255 0
0 255 0
0 255 0
0 255 0
0 255 0
0 255 0
0 255 0
0 255 0
0 255 0
0 255 0
0 255 0
0 255 0
0 255 0
0 255 0
0 255 0
0 255 0
0 255 0
0 255 0
0 255 0
0 255 0
0 255 0
0 197 19
0 0 153
0 0 166
0 0 175
0 0 182
0 0 187
0 0 192
0 0 196
0 0 200
0 0 203
0 0 206
0 0 209
0 0 212
0 0 214
0 0 217
0 0 219
0 0 221
0 0 223
0 0 224
0 0 226
0 0 228
0 0 229
0 0 231
0 0 232
0 0 233
0 0 234
0 0 235
0 0 237
0 0 238
0 0 239
0 0 240
0 0 241
0 0 241
0 0 242
0 0 243
0 0 244
0 0 244
0 0 245
0 0 246
0 0 246
0 0 247
0 0 248
0 0 248
0 0 249
0 0 249
0 0 249
0 0 250
0 0 250
0 0 251
0 0 251
0 0 251
0 0 252
0 0 252
0 0 252
0 0 252
0 0 252
0 0 253
0 0 253
0 0 253
0 0 253
0 0 253
0 0 253
0 0 253
0 0 253
1 0 253
3 0 253
5 0 253
8 0 253
10 0 253
12 0 253
14 0 253
17 0 253
19 0 252
21 0 252
24 0 252
26 0 252
28 0 252
31 0 251
33 0 251
35 0 251
38 0 250
40 0 250
43 0 249
45 0 249
47 0 249
50 0 248
52 0 248
55 0 247
57 0 246
60 0 246
62 0 245
65 0 245
67 0 244
70 0 243
72 0 242
75 0 241
78 0 241
80 0 240
83 0 239
86 0 238
89 0 237
91 0 236
94 0 234
97 0 233
100 0 232
103 0 231
106 0 229
109 0 228
112 0 226
116 0 224
119 0 223
122 0 221
126 0 219
129 0 217
133 0 215
137 0 212
140 0 209
145 0 206
149 0 203
153 0 200
158 0 196
163 0 192
168 0 187
174 0 181
181 0 175
188 0 166
199 0 152
43 200 17
6 255 0
6 255 0
6 255 0
6 255 0
7 255 0
7 255 0
7 255 0
7 255 0
7 255 0
7 255 0
7 255 0
7 255 0
8 255 0
8 255 0
8 255 0
8 255 0
8 255 0
8 255 0
8 255 0
9 255 0
9 255 0
9 255 0
9 255 0
9 255 0
9 255 0
10 255 0
10 255 0
10 255 0
10 255 0
10 255 0
10 255 0
11 255 0
11 255 0
11 255 0
11 255 0
11 255 0
11 255 0
12 255 0
12 255 0
12 255 0
13 255 0
13 255 0
13 255 0
17 254 0
39 250 23
47 249 33
60 246 51
67 245 62
75 243 72
86 241 87
106 238 115
112 237 123
125 234 141
145 230 169
152 229 179
186 223 228
195 221 241
197 221 244
197 221 244
197 221 244
197 221 244
197 220 244
197 220 244
197 220 244
197 220 244
197 220 244
197 220 244
197 220 244
197 220 244
197 220 244
197 220 244
197 220 244
197 220 244
197 220 244
197 220 244
197 220 244
197 220 244
197 220 244
197 220 244
197 220 244
197 220 244
197 220 244
197 220 244
197 220 244
197 220 244
197 220 244
197 220 244
197 220 244
197 220 244
197 220 244
197 220 244
196 220 244
196 220 244
196 220 244
196 220 244
196 220 244
196 220 244
196 220 244
196 220 244
196 220 244
196 220 244
196 220 244
196 220 244
196 220 244
196 220 244
196 220 244
196 220 244
196 220 244
196 220 244
196 220 244
196 220 244
196 220 244
196 220 244
196 220 244
196 220 244
196 220 244
196 220 244
196 220 244
196 220 244
196 220 244
196 220 244
196 220 244
196 220 244
196 220 244
196 220 244
196 220 244
196 220 244
196 220 244
196 220 244
196 220 244
196 220 244
196 220 244
196 220 244
196 220 244
196 220 244
196 220 244
196 220 244
196 220 244
196 220 244
196 220 244
196 220 244
196 220 244
196 220 244
196 220 244
196 220 244
196 220 244
196 220 244
196 220 244
196 220 244
196 220 244
196 220 244
196 220 244
196 220 244
196 220 244
196 220 244
196 220 244
196 220 244
196 220 244
196 220 244
196 220 244
196 220 244
196 220 244
196 220 244
196 220 244
196 220 244
196 220 244
197 220 244
197 220 244
197 220 244
197 220 244
197 220 244
197 220 244
197 220 244
197 220 244
197 220 244
197 220 244
197 220 244
197 220 244
197 220 244
197 220 244
197 220 244
197 220 244
197 220 244
197 220 244
197 220 244
197 220 244
197 220 244
197 220 244
197 220 244
197 220 244
197 220 244
197 220 244
197 220 244
197 220 244
197 220 244
197 221 244
197 221 244
197 221 244
197 221 244
197 221 244
197 221 244
197 221 244
189 222 234
167 225 208
137 230 172
152 228 190
111 234 141
88 238 113
71 241 93
75 240 98
61 242 80
33 247 47
18 249 29
0 253 4
0 254 0
0 255 0
0 255 0
0 255 0
0 255 0
0 255 0
0 255 0
0 255 0
0 255 0
0 255 0
0 255 0
0 255 0
0 255 0
0 255 0
0 255 0
0 255 0
0 255 0
0 255 0
0 255 0
0 255 0
0 255 0
0 255 0
0 255 0
0 255 0
0 255 0
0 255 0
0 255 0
0 255 0
0 255 0
0 255 0
0 255 0
0 255 0
0 255 0
0 255 0
0 255 0
0 255 0
0 255 0
0 255 0
0 255 0
0 255 0
0 255 0
0 255 0
0 255 0
0 255 0
0 255 0
0 255 0
0 255 0
0 255 0
0 255 0
0 255 0
0 255 0
0 255 0
0 255 0
0 255 0
0 255 0
0 255 0
0 255 0
0 255 0
0 252 0
0 0 140
0 0 163
0 0 172
0 0 180
0 0 185
0 0 191
0 0 195
0 0 199
0 0 202
0 0 206
0 0 209
0 0 211
0 0 214
0 0 216
0 0 218
0 0 220
0 0 222
0 0 224
0 0 226
0 0 227
0 0 229
0 0 230
0 0 231
0 0 233
0 0 234
0 0 235
0 0 236
0 0 237
0 0 238
0 0 239
0 0 240
0 0 241
0 0 242
0 0 243
0 0 243
0 0 244
0 0 245
0 0 245
0 0 246
0 0 247
0 0 247
0 0 248
0 0 248
0 0 249
0 0 249
0 0 249
0 0 250
0 0 250
0 0 251
0 0 251
0 0 251
0 0 251
0 0 252
0 0 252
0 0 252
0 0 252
0 0 252
0 0 253
0 0 253
0 0 253
0 0 253
0 0 253
0 0 253
1 0 253
3 0 253
5 0 253
8 0 253
10 0 253
12 0 253
14 0 252
17 0 252
19 0 252
22 0 252
24 0 252
26 0 251
28 0 251
31 0 251
33 0 251
35 0 250
38 0 250
40 0 249
43 0 249
45 0 249
47 0 248
50 0 248
52 0 247
55 0 247
57 0 246
60 0 245
62 0 245
65 0 244
67 0 243
70 0 243
73 0 242
75 0 241
78 0 240
80 0 239
83 0 238
86 0 237
89 0 236
92 0 235
95 0 234
97 0 233
100 0 231
103 0 230
106 0 229
109 0 227
113 0 226
116 0 224
119 0 222
123 0 220
126 0 218
129 0 216
133 0 214
137 0 211
141 0 208
145 0 206
149 0 203
154 0 199
159 0 195
163 0 191
169 0 186
175 0 180
181 0 173
190 0 163
183 0 135
12 246 0
5 255 0
6 255 0
6 255 0
6 255 0
6 255 0
6 255 0
6 255 0
6 255 0
6 255 0
6 255 0
7 255 0
7 255 0
7 255 0
7 255 0
7 255 0
7 255 0
7 255 0
7 255 0
7 255 0
8 255 0
8 255 0
8 255 0
8 255 0
8 255 0
8 255 0
8 255 0
8 255 0
9 255 0
9 255 0
9 255 0
9 255 0
9 255 0
9 255 0
9 255 0
10 255 0
10 255 0
10 255 0
10 255 0
10 255 0
10 255 0
11 255 0
11 255 0
11 255 0
11 255 0
11 255 0
11 255 0
12 255 0
12 255 0
12 255 0
12 255 0
13 255 0
13 255 0
13 255 0
13 255 0
14 255 0
14 255 0
14 255 0
16 254 0
31 252 11
53 248 42
62 246 55
63 246 54
105 238 113
107 238 116
101 239 108
136 232 157
136 232 157
165 227 198
172 225 208
187 223 228
197 221 244
197 221 244
197 221 244
197 221 244
197 221 244
197 221 244
197 221 244
197 220 244
197 220 244
197 220 244
197 220 244
197 220 244
197 220 244
197 220 244
197 220 244
197 220 244
197 220 244
197 220 244
197 220 244
197 220 244
197 220 244
197 220 244
197 220 244
197 220 244
197 220 244
197 220 244
197 220 244
197 220 244
197 220 244
197 220 244
197 220 244
197 220 244
197 220 244
197 220 244
197 220 244
197 220 244
196 220 244
196 220 244
196 220 244
196 220 244
196 220 244
196 220 244
196 220 244
196 220 244
196 220 244
196 220 244
196 220 244
196 220 244
196 220 244
196 220 244
196 220 244
196 220 244
196 220 244
196 220 244
196 220 244
196 220 244
196 220 244
196 220 244
196 220 244
196 220 244
196 220 244
196 220 244
196 220 244
196 220 244
196 220 244
196 220 244
196 220 244
196 220 244
196 220 244
196 220 244
196 220 244
196 220 244
196 220 244
196 220 244
196 220 244
196 220 244
196 220 244
196 220 244
196 220 244
196 220 244
196 220 244
197 220 244
197 220 244
197 220 244
197 220 244
197 220 244
197 220 244
197 220 244
197 220 244
197 220 244
197 220 244
197 220 244
197 220 244
197 220 244
197 220 244
197 220 244
197 220 244
197 220 244
197 220 244
197 220 244
197 220 244
197 220 244
197 220 244
197 220 244
197 220 244
197 220 244
197 220 244
197 220 244
197 220 244
197 220 244
197 220 244
197 221 244
197 221 244
197 221 244
197 221 244
197 221 244
197 221 244
197 221 244
197 221 244
184 223 228
169 225 211
158 227 198
156 227 195
90 238 116
122 233 154
96 237 124
71 241 93
45 245 63
37 246 52
15 250 27
11 250 22
0 254 0
0 255 0
0 255 0
0 255 0
0 255 0
0 255 0
0 255 0
0 255 0
0 255 0
0 255 0
0 255 0
0 255 0
0 255 0
0 255 0
0 255 0
0 255 0
0 255 0
0 255 0
0 255 0
0 255 0
0 255 0
0 255 0
0 255 0
0 255 0
0 255 0
0 255 0
0 255 0
0 255 0
0 255 0
0 255 0
0 255 0
0 255 0
0 255 0
0 255 0
0 255 0
0 255 0
0 255 0
0 255 0
0 255 0
0 255 0
0 255 0
0 255 0
0 255 0
0 255 0
0 255 0
0 255 0
0 255 0
0 255 0
0 255 0
0 255 0
0 255 0
0 255 0
0 255 0
0 255 0
0 255 0
0 255 0
0 255 0
0 255 0
0 255 0
0 255 0
0 255 0
0 255 0
0 255 0
0 255 0
0 255 0
0 255 0
0 255 0
0 255 0
0 255 0
0 255 0
0 255 0
0 255 0
0 31 102
0 0 159
0 0 171
0 0 178
0 0 184
0 0 189
0 0 194
0 0 198
0 0 201
0 0 205
0 0 208
0 0 210
0 0 213
0 0 215
0 0 217
0 0 219
0 0 221
0 0 223
0 0 225
0 0 226
0 0 228
0 0 229
0 0 231
0 0 232
0 0 233
0 0 235
0 0 236
0 0 237
0 0 238
0 0 239
0 0 240
0 0 241
0 0 241
0 0 242
0 0 243
0 0 244
0 0 244
0 0 245
0 0 246
0 0 246
0 0 247
0 0 247
0 0 248
0 0 248
0 0 249
0 0 249
0 0 249
0 0 250
0 0 250
0 0 250
0 0 251
0 0 251
0 0 251
0 0 251
0 0 252
0 0 252
0 0 252
0 0 252
0 0 252
0 0 252
0 0 252
0 0 252
0 0 252
1 0 252
3 0 252
5 0 252
8 0 252
10 0 252
12 0 252
15 0 252
17 0 252
19 0 252
22 0 252
24 0 251
26 0 251
28 0 251
31 0 250
33 0 250
36 0 250
38 0 249
40 0 249
43 0 249
45 0 248
47 0 248
50 0 247
53 0 247
55 0 246
57 0 246
60 0 245
62 0 244
65 0 244
68 0 243
70 0 242
73 0 241
75 0 241
78 0 240
81 0 239
83 0 238
86 0 237
89 0 236
92 0 235
95 0 233
98 0 232
100 0 231
103 0 230
106 0 228
110 0 227
113 0 225
116 0 223
119 0 221
123 0 219
126 0 217
130 0 215
133 0 213
137 0 210
141 0 208
145 0 205
150 0 201
154 0 198
159 0 194
164 0 189
170 0 184
176 0 178
183 0 171
191 0 160
147 31 102
5 255 0
5 255 0
5 255 0
5 255 0
5 255 0
5 255 0
5 255 0
6 255 0
6 255 0
6 255 0
6 255 0
6 255 0
6 255 0
6 255 0
6 255 0
6 255 0
6 255 0
6 255 0
7 255 0
7 255 0
7 255 0
7 255 0
7 255 0
7 255 0
7 255 0
7 255 0
7 255 0
8 255 0
8 255 0
8 255 0
8 255 0
8 255 0
8 255 0
8 255 0
8 255 0
9 255 0
9 255 0
9 255 0
9 255 0
9 255 0
9 255 0
9 255 0
9 255 0
10 255 0
10 255 0
10 255 0
10 255 0
10 255 0
10 255 0
10 255 0
11 255 0
11 255 0
11 255 0
11 255 0
11 255 0
11 255 0
12 255 0
12 255 0
12 255 0
12 255 0
12 255 0
13 255 0
13 255 0
13 255 0
13 255 0
14 255 0
14 255 0
14 255 0
14 255 0
15 255 0
15 255 0
19 254 0
36 251 17
39 250 22
58 247 47
65 246 58
101 239 109
109 237 119
127 234 144
127 234 144
149 230 175
161 227 193
176 225 213
194 221 239
197 221 244
197 221 244
197 221 244
197 221 244
197 221 244
197 221 244
197 221 244
197 220 244
197 220 244
197 220 244
197 220 244
197 220 244
197 220 244
197 220 244
197 220 244
197 220 244
197 220 244
197 220 244
197 220 244
197 220 244
197 220 244
197 220 244
197 220 244
197 220 244
197 220 244
197 220 244
197 220 244
197 220 244
197 220 244
197 220 244
197 220 244
197 220 244
197 220 244
197 220 244
197 220 244
197 220 244
197 220 244
197 220 244
196 220 244
196 220 244
196 220 244
196 220 244
196 220 244
196 220 244
196 220 244
196 220 244
196 220 244
196 220 244
196 220 244
196 220 244
196 220 244
196 220 244
196 220 244
197 220 244
197 220 244
197 220 244
197 220 244
197 220 244
197 220 244
197 220 244
197 220 244
197 220 244
197 220 244
197 220 244
197 220 244
197 220 244
197 220 244
197 220 244
197 220 244
197 220 244
197 220 244
197 220 244
197 220 244
197 220 244
197 220 244
197 220 244
197 220 244
197 220 244
197 220 244
197 220 244
197 220 244
197 220 244
197 220 244
197 220 244
197 220 244
197 221 244
197 221 244
197 221 244
197 221 244
197 221 244
197 221 244
197 221 244
197 221 244
195 221 241
165 226 205
176 224 218
158 227 198
128 232 162
133 231 167
88 238 114
87 238 114
64 242 86
40 246 58
21 249 35
6 251 17
0 253 2
0 255 0
0 255 0
0 255 0
0 255 0
0 255 0
0 255 0
0 255 0
0 255 0
0 255 0
0 255 0
0 255 0
0 255 0
0 255 0
0 255 0
0 255 0
0 255 0
0 255 0
0 255 0
0 255 0
0 255 0
0 255 0
0 255 0
0 255 0
0 255 0
0 255 0
0 255 0
0 255 0
0 255 0
0 255 0
0 255 0
0 255 0
0 255 0
0 255 0
0 255 0
0 255 0
0 255 0
0 255 0
0 255 0
0 255 0
0 255 0
0 255 0
0 255 0
0 255 0
0 255 0
0 255 0
0 255 0
0 255 0
0 255 0
0 255 0
0 255 0
0 255 0
0 255 0
0 255 0
0 255 0
0 255 0
0 255 0
0 255 0
0 255 0
0 255 0
0 255 0
0 255 0
0 255 0
0 255 0
0 255 0
0 255 0
0 255 0
0 255 0
0 255 0
0 255 0
0 255 0
0 255 0
0 255 0
0 255 0
0 255 0
0 255 0
0 255 0
0 255 0
0 255 0
0 255 0
0 255 0
0 255 0
0 255 0
0 255 0
0 255 0
0 120 57
0 0 156
0 0 168
0 0 176
0 0 183
0 0 188
0 0 192
0 0 197
0 0 200
0 0 204
0 0 207
0 0 209
0 0 212
0 0 214
0 0 217
0 0 219
0 0 221
0 0 223
0 0 224
0 0 226
0 0 227
0 0 229
0 0 230
0 0 232
0 0 233
0 0 234
0 0 235
0 0 236
0 0 237
0 0 238
0 0 239
0 0 240
0 0 241
0 0 242
0 0 242
0 0 243
0 0 244
0 0 245
0 0 245
0 0 246
0 0 246
0 0 247
0 0 247
0 0 248
0 0 248
0 0 249
0 0 249
0 0 249
0 0 250
0 0 250
0 0 250
0 0 251
0 0 251
0 0 251
0 0 251
0 0 252
0 0 252
0 0 252
0 0 252
0 0 252
0 0 252
0 0 252
0 0 252
1 0 252
3 0 252
5 0 252
8 0 252
10 0 252
12 0 252
15 0 252
17 0 252
19 0 251
21 0 251
24 0 251
26 0 251
29 0 250
31 0 250
33 0 250
36 0 249
38 0 249
40 0 249
43 0 248
45 0 248
48 0 247
50 0 247
53 0 246
55 0 246
57 0 245
60 0 245
63 0 244
65 0 243
68 0 243
70 0 242
73 0 241
75 0 240
78 0 239
81 0 238
84 0 237
86 0 236
89 0 235
92 0 234
95 0 233
98 0 232
101 0 230
104 0 229
107 0 227
110 0 226
113 0 224
116 0 223
120 0 221
123 0 219
127 0 217
130 0 214
134 0 212
138 0 209
142 0 207
146 0 204
150 0 200
155 0 197
160 0 193
165 0 188
170 0 183
177 0 176
184 0 168
194 0 156
80 136 49
4 255 0
5 255 0
5 255 0
5 255 0
5 255 0
5 255 0
5 255 0
5 255 0
5 255 0
5 255 0
5 255 0
5 255 0
6 255 0
6 255 0
6 255 0
6 255 0
6 255 0
6 255 0
6 255 0
6 255 0
6 255 0
6 255 0
6 255 0
7 255 0
7 255 0
7 255 0
7 255 0
7 255 0
7 255 0
7 255 0
7 255 0
7 255 0
7 255 0
8 255 0
8 255 0
8 255 0
8 255 0
8 255 0
8 255 0
8 255 0
8 255 0
8 255 0
8 255 0
9 255 0
9 255 0
9 255 0
9 255 0
9 255 0
9 255 0
9 255 0
9 255 0
10 255 0
10 255 0
10 255 0
10 255 0
10 255 0
10 255 0
10 255 0
11 255 0
11 255 0
11 255 0
11 255 0
11 255 0
11 255 0
11 255 0
12 255 0
12 255 0
12 255 0
12 255 0
12 255 0
12 255 0
13 255 0
13 255 0
13 255 0
13 255 0
14 255 0
14 255 0
14 255 0
14 255 0
14 255 0
15 255 0
15 255 0
15 255 0
16 255 0
23 253 0
27 253 5
45 249 30
66 246 58
78 243 76
95 240 99
108 238 116
140 232 162
140 232 162
163 227 195
174 225 211
187 223 229
196 221 241
197 221 244
197 221 244
197 221 244
197 221 244
197 221 244
197 221 244
197 221 244
197 221 244
197 220 244
197 220 244
197 220 244
197 220 244
197 220 244
197 220 244
197 220 244
197 220 244
197 220 244
197 220 244
197 220 244
197 220 244
197 220 244
197 220 244
197 220 244
197 220 244
197 220 244
197 220 244
197 220 244
197 220 244
197 220 244
197 220 244
197 220 244
197 220 244
197 220 244
197 220 244
197 220 244
197 220 244
197 220 244
197 220 244
197 220 244
197 220 244
197 220 244
197 220 244
197 220 244
197 220 244
197 220 244
197 220 244
197 220 244
197 220 244
197 220 244
197 220 244
197 220 244
197 220 244
197 220 244
197 220 244
197 220 244
197 220 244
197 220 244
197 220 244
197 221 244
197 221 244
197 221 244
197 221 244
197 221 244
197 221 244
197 221 244
197 221 244
197 221 244
197 221 244
195 221 241
184 223 229
171 225 213
150 228 188
139 230 175
85 238 112
94 237 122
51 244 71
62 242 84
27 248 43
32 247 48
8 251 20
0 254 0
0 255 0
0 255 0
0 255 0
0 255 0
0 255 0
0 255 0
0 255 0
0 255 0
0 255 0
0 255 0
0 255 0
0 255 0
0 255 0
0 255 0
0 255 0
0 255 0
0 255 0
0 255 0
0 255 0
0 255 0
0 255 0
0 255 0
0 255 0
0 255 0
0 255 0
0 255 0
0 255 0
0 255 0
0 255 0
0 255 0
0 255 0
0 255 0
0 255 0
0 255 0
0 255 0
0 255 0
0 255 0
0 255 0
0 255 0
0 255 0
0 255 0
0 255 0
0 255 0
0 255 0
0 255 0
0 255 0
0 255 0
0 255 0
0 255 0
0 255 0
0 255 0
0 255 0
0 255 0
0 255 0
0 255 0
0 255 0
0 255 0
0 255 0
0 255 0
0 255 0
0 255 0
0 255 0
0 255 0
0 255 0
0 255 0
0 255 0
0 255 0
0 255 0
0 255 0
0 255 0
0 255 0
0 255 0
0 255 0
0 255 0
0 255 0
0 255 0
0 255 0
0 255 0
0 255 0
0 255 0
0 255 0
0 255 0
0 255 0
0 255 0
0 255 0
0 255 0
0 255 0
0 255 0
0 255 0
0 255 0
0 255 0
0 255 0
0 255 0
0 255 0
0 255 0
0 255 0
0 217 11
0 0 149
0 0 165
0 0 173
0 0 180
0 0 186
0 0 191
0 0 195
0 0 199
0 0 202
0 0 206
0 0 208
0 0 211
0 0 214
0 0 216
0 0 218
0 0 220
0 0 222
0 0 224
0 0 225
0 0 227
0 0 228
0 0 230
0 0 231
0 0 232
0 0 233
0 0 235
0 0 236
0 0 237
0 0 238
0 0 239
0 0 240
0 0 240
0 0 241
0 0 242
0 0 243
0 0 243
0 0 244
0 0 245
0 0 245
0 0 246
0 0 246
0 0 247
0 0 247
0 0 248
0 0 248
0 0 249
0 0 249
0 0 249
0 0 250
0 0 250
0 0 250
0 0 251
0 0 251
0 0 251
0 0 251
0 0 251
0 0 251
0 0 251
0 0 252
0 0 252
0 0 252
0 0 252
1 0 252
3 0 252
5 0 252
8 0 252
10 0 251
12 0 251
15 0 251
17 0 251
19 0 251
21 0 251
24 0 250
26 0 250
29 0 250
31 0 250
33 0 249
36 0 249
38 0 249
40 0 248
43 0 248
45 0 247
48 0 247
50 0 246
53 0 246
55 0 245
57 0 245
60 0 244
63 0 243
65 0 243
68 0 242
70 0 241
73 0 240
76 0 240
78 0 239
81 0 238
84 0 237
86 0 236
89 0 235
92 0 234
95 0 232
98 0 231
101 0 230
104 0 228
107 0 227
110 0 225
113 0 224
117 0 222
120 0 220
124 0 218
127 0 216
131 0 213
135 0 211
138 0 209
142 0 206
146 0 203
151 0 199
155 0 195
160 0 191
166 0 186
172 0 181
178 0 174
185 0 166
195 0 149
34 208 15
4 255 0
4 255 0
4 255 0
4 255 0
4 255 0
5 255 0
5 255 0
5 255 0
5 255 0
5 255 0
5 255 0
5 255 0
5 255 0
5 255 0
5 255 0
5 255 0
5 255 0
5 255 0
6 255 0
6 255 0
6 255 0
6 255 0
6 255 0
6 255 0
6 255 0
6 255 0
6 255 0
6 255 0
6 255 0
7 255 0
7 255 0
7 255 0
7 255 0
7 255 0
7 255 0
7 255 0
7 255 0
7 255 0
7 255 0
7 255 0
8 255 0
8 255 0
8 255 0
8 255 0
8 255 0
8 255 0
8 255 0
8 255 0
8 255 0
8 255 0
9 255 0
9 255 0
9 255 0
9 255 0
9 255 0
9 255 0
9 255 0
9 255 0
10 255 0
10 255 0
10 255 0
10 255 0
10 255 0
10 255 0
10 255 0
10 255 0
10 255 0
11 255 0
11 255 0
11 255 0
11 255 0
11 255 0
11 255 0
11 255 0
12 255 0
12 255 0
12 255 0
12 255 0
12 255 0
12 255 0
13 255 0
13 255 0
13 255 0
13 255 0
13 255 0
13 255 0
14 255 0
14 255 0
14 255 0
14 255 0
15 255 0
15 255 0
15 255 0
16 255 0
16 255 0
16 255 0
18 254 0
35 251 15
46 249 31
62 246 53
70 245 63
86 242 86
108 238 117
111 237 122
133 233 152
149 230 175
171 226 206
183 223 223
196 221 241
197 221 244
197 221 244
197 221 244
197 221 244
197 221 244
197 221 244
197 221 244
197 221 244
197 221 244
197 221 244
197 220 244
197 220 244
197 220 244
197 220 244
197 220 244
197 220 244
197 220 244
197 220 244
197 220 244
197 220 244
197 220 244
197 220 244
197 220 244
197 220 244
197 220 244
197 220 244
197 220 244
197 220 244
197 220 244
197 220 244
197 220 244
197 220 244
197 220 244
197 221 244
197 221 244
197 221 244
197 221 244
197 221 244
197 221 244
197 221 244
197 221 244
197 221 244
197 221 244
197 221 244
197 221 244
193 221 239
182 223 226
158 227 198
132 231 168
102 236 132
100 236 130
74 240 99
74 240 99
33 247 51
5 251 18
1 252 13
0 255 0
0 255 0
0 255 0
0 255 0
0 255 0
0 255 0
0 255 0
0 255 0
0 255 0
0 255 0
0 255 0
0 255 0
0 255 0
0 255 0
0 255 0
0 255 0
0 255 0
0 255 0
0 255 0
0 255 0
0 255 0
0 255 0
0 255 0
0 255 0
0 255 0
0 255 0
0 255 0
0 255 0
0 255 0
0 255 0
0 255 0
0 255 0
0 255 0
0 255 0
0 255 0
0 255 0
0 255 0
0 255 0
0 255 0
0 255 0
0 255 0
0 255 0
0 255 0
0 255 0
0 255 0
0 255 0
0 255 0
0 255 0
0 255 0
0 255 0
0 255 0
0 255 0
0 255 0
0 255 0
0 255 0
0 255 0
0 255 0
0 255 0
0 255 0
0 255 0
0 255 0
0 255 0
0 255 0
0 255 0
0 255 0
0 255 0
0 255 0
0 255 0
0 255 0
0 255 0
0 255 0
0 255 0
0 255 0
0 255 0
0 255 0
0 255 0
0 255 0
0 255 0
0 255 0
0 255 0
0 255 0
0 255 0
0 255 0
0 255 0
0 255 0
0 255 0
0 255 0
0 255 0
0 255 0
0 255 0
0 255 0
0 255 0
0 255 0
0 255 0
0 255 0
0 255 0
0 255 0
0 255 0
0 255 0
0 255 0
0 255 0
0 255 0
0 255 0
0 255 0
0 255 0
0 255 0
0 255 0
0 255 0
0 255 0
0 255 0
0 0 125
0 0 161
0 0 171
0 0 178
0 0 185
0 0 189
0 0 194
0 0 198
0 0 201
0 0 204
0 0 207
0 0 210
0 0 213
0 0 215
0 0 217
0 0 219
0 0 221
0 0 223
0 0 224
0 0 226
0 0 228
0 0 229
0 0 230
0 0 232
0 0 233
0 0 234
0 0 235
0 0 236
0 0 237
0 0 238
0 0 239
0 0 240
0 0 241
0 0 241
0 0 242
0 0 243
0 0 244
0 0 244
0 0 245
0 0 245
0 0 246
0 0 246
0 0 247
0 0 247
0 0 248
0 0 248
0 0 249
0 0 249
0 0 249
0 0 250
0 0 250
0 0 250
0 0 250
0 0 250
0 0 251
0 0 251
0 0 251
0 0 251
0 0 251
0 0 251
0 0 251
0 0 251
1 0 251
3 0 251
5 0 251
7 0 251
10 0 251
12 0 251
15 0 251
17 0 251
19 0 250
22 0 250
24 0 250
26 0 250
29 0 250
31 0 249
33 0 249
36 0 249
38 0 248
41 0 248
43 0 247
45 0 247
48 0 246
50 0 246
53 0 245
55 0 245
58 0 244
60 0 244
63 0 243
65 0 242
68 0 241
70 0 241
73 0 240
76 0 239
78 0 238
81 0 237
84 0 236
87 0 235
90 0 234
92 0 233
95 0 232
98 0 230
101 0 229
104 0 228
107 0 226
111 0 224
114 0 223
117 0 221
120 0 219
124 0 217
127 0 215
131 0 213
135 0 210
139 0 207
143 0 204
147 0 201
152 0 198
156 0 194
161 0 190
167 0 185
173 0 178
180 0 171
188 0 160
164 0 118
4 255 0
4 255 0
4 255 0
4 255 0
4 255 0
4 255 0
4 255 0
4 255 0
4 255 0
4 255 0
5 255 0
5 255 0
5 255 0
5 255 0
5 255 0
5 255 0
5 255 0
5 255 0
5 255 0
5 255 0
5 255 0
5 255 0
5 255 0
6 255 0
6 255 0
6 255 0
6 255 0
6 255 0
6 255 0
6 255 0
6 255 0
6 255 0
6 255 0
6 255 0
6 255 0
6 255 0
7 255 0
7 255 0
7 255 0
7 255 0
7 255 0
7 255 0
7 255 0
7 255 0
7 255 0
7 255 0
7 255 0
8 255 0
8 255 0
8 255 0
8 255 0
8 255 0
8 255 0
8 255 0
8 255 0
8 255 0
8 255 0
8 255 0
9 255 0
9 255 0
9 255 0
9 255 0
9 255 0
9 255 0
9 255 0
9 255 0
9 255 0
10 255 0
10 255 0
10 255 0
10 255 0
10 255 0
10 255 0
10 255 0
10 255 0
10 255 0
11 255 0
11 255 0
11 255 0
11 255 0
11 255 0
11 255 0
11 255 0
12 255 0
12 255 0
12 255 0
12 255 0
12 255 0
12 255 0
12 255 0
13 255 0
13 255 0
13 255 0
13 255 0
13 255 0
13 255 0
14 255 0
14 255 0
14 255 0
14 255 0
14 255 0
15 255 0
15 255 0
15 255 0
15 255 0
16 255 0
16 255 0
16 255 0
17 255 0
19 254 0
33 252 13
39 251 21
68 245 61
90 241 92
86 242 87
112 237 122
135 233 155
142 231 165
153 229 180
176 225 213
189 222 231
197 221 244
197 221 244
197 221 244
197 221 244
197 221 244
197 221 244
197 221 244
197 221 244
197 221 244
197 221 244
197 221 244
197 221 244
197 220 244
197 220 244
197 220 244
197 220 244
197 220 244
197 221 244
197 221 244
197 221 244
197 221 244
197 221 244
195 221 241
184 223 229
156 227 196
143 229 181
124 232 158
111 234 143
95 237 125
72 240 97
35 246 54
53 243 74
7 251 21
0 253 6
0 255 0
0 255 0
0 255 0
0 255 0
0 255 0
0 255 0
0 255 0
0 255 0
0 255 0
0 255 0
0 255 0
0 255 0
0 255 0
0 255 0
0 255 0
0 255 0
0 255 0
0 255 0
0 255 0
0 255 0
0 255 0
0 255 0
0 255 0
0 255 0
0 255 0
0 255 0
0 255 0
0 255 0
0 255 0
0 255 0
0 255 0
0 255 0
0 255 0
0 255 0
0 255 0
0 255 0
0 255 0
0 255 0
0 255 0
0 255 0
0 255 0
0 255 0
0 255 0
0 255 0
0 255 0
0 255 0
0 255 0
0 255 0
0 255 0
0 255 0
0 255 0
0 255 0
0 255 0
0 255 0
0 255 0
0 255 0
0 255 0
0 255 0
0 255 0
0 255 0
0 255 0
0 255 0
0 255 0
0 255 0
0 255 0
0 255 0
0 255 0
0 255 0
0 255 0
0 255 0
0 255 0
0 255 0
0 255 0
0 255 0
0 255 0
0 255 0
0 255 0
0 255 0
0 255 0
0 255 0
0 255 0
0 255 0
0 255 0
0 255 0
0 255 0
0 255 0
0 255 0
0 255 0
0 255 0
0 255 0
0 255 0
0 255 0
0 255 0
0 255 0
0 255 0
0 255 0
0 255 0
0 255 0
0 255 0
0 255 0
0 255 0
0 255 0
0 255 0
0 255 0
0 255 0
0 255 0
0 255 0
0 255 0
0 255 0
0 255 0
0 255 0
0 255 0
0 255 0
0 255 0
0 255 0
0 255 0
0 255 0
0 255 0
0 255 0
0 255 0
0 255 0
0 129 52
0 0 157
0 0 168
0 0 176
0 0 182
0 0 187
0 0 192
0 0 196
0 0 200
0 0 203
0 0 206
0 0 209
0 0 212
0 0 214
0 0 216
0 0 218
0 0 220
0 0 222
0 0 224
0 0 225
0 0 227
0 0 228
0 0 230
0 0 231
0 0 232
0 0 233
0 0 234
0 0 236
0 0 237
0 0 238
0 0 238
0 0 239
0 0 240
0 0 241
0 0 242
0 0 242
0 0 243
0 0 244
0 0 244
0 0 245
0 0 245
0 0 246
0 0 246
0 0 247
0 0 247
0 0 248
0 0 248
0 0 248
0 0 249
0 0 249
0 0 249
0 0 250
0 0 250
0 0 250
0 0 250
0 0 250
0 0 251
0 0 251
0 0 251
0 0 251
0 0 251
0 0 251
1 0 251
3 0 251
5 0 251
8 0 251
10 0 251
12 0 251
15 0 250
17 0 250
19 0 250
22 0 250
24 0 250
26 0 249
29 0 249
31 0 249
33 0 248
36 0 248
38 0 248
41 0 247
43 0 247
45 0 246
48 0 246
50 0 245
53 0 245
55 0 244
58 0 244
60 0 243
63 0 242
66 0 242
68 0 241
71 0 240
73 0 239
76 0 238
79 0 238
81 0 237
84 0 236
87 0 234
90 0 233
93 0 232
96 0 231
98 0 230
101 0 228
104 0 227
108 0 225
111 0 224
114 0 222
117 0 220
121 0 218
124 0 216
128 0 214
132 0 212
135 0 209
139 0 206
143 0 203
147 0 200
152 0 196
157 0 192
162 0 188
168 0 182
174 0 176
181 0 168
191 0 156
110 80 74
4 255 0
4 255 0
4 255 0
4 255 0
4 255 0
4 255 0
4 255 0
4 255 0
4 255 0
4 255 0
4 255 0
4 255 0
4 255 0
4 255 0
4 255 0
5 255 0
5 255 0
5 255 0
5 255 0
5 255 0
5 255 0
5 255 0
5 255 0
5 255 0
5 255 0
5 255 0
5 255 0
5 255 0
6 255 0
6 255 0
6 255 0
6 255 0
6 255 0
6 255 0
6 255 0
6 255 0
6 255 0
6 255 0
6 255 0
6 255 0
6 255 0
7 255 0
7 255 0
7 255 0
7 255 0
7 255 0
7 255 0
7 255 0
7 255 0
7 255 0
7 255 0
7 255 0
7 255 0
8 255 0
8 255 0
8 255 0
8 255 0
8 255 0
8 255 0
8 255 0
8 255 0
8 255 0
8 255 0
8 255 0
9 255 0
9 255 0
9 255 0
9 255 0
9 255 0
9 255 0
9 255 0
9 255 0
9 255 0
9 255 0
9 255 0
10 255 0
10 255 0
10 255 0
10 255 0
10 255 0
10 255 0
10 255 0
10 255 0
11 255 0
11 255 0
11 255 0
11 255 0
11 255 0
11 255 0
11 255 0
11 255 0
11 255 0
12 255 0
12 255 0
12 255 0
12 255 0
12 255 0
12 255 0
12 255 0
13 255 0
13 255 0
13 255 0
13 255 0
13 255 0
13 255 0
13 255 0
14 255 0
14 255 0
14 255 0
14 255 0
14 255 0
15 255 0
15 255 0
15 255 0
15 255 0
16 255 0
16 255 0
16 255 0
16 255 0
17 255 0
17 255 0
19 254 0
30 252 9
54 248 42
74 244 69
101 239 107
106 238 115
99 239 105
128 234 145
142 231 165
155 229 183
173 225 208
192 222 236
197 221 244
197 221 244
197 221 244
197 221 244
197 221 244
54 243 77
65 241 90
20 249 37
9 250 24
0 253 4
0 255 0
0 255 0
0 255 0
0 255 0
0 255 0
0 255 0
0 255 0
0 255 0
0 255 0
0 255 0
0 255 0
0 255 0
0 255 0
0 255 0
0 255 0
0 255 0
0 255 0
0 255 0
0 255 0
0 255 0
0 255 0
0 255 0
0 255 0
0 255 0
0 255 0
0 255 0
0 255 0
0 255 0
0 255 0
0 255 0
0 255 0
0 255 0
0 255 0
0 255 0
0 255 0
0 255 0
0 255 0
0 255 0
0 255 0
0 255 0
0 255 0
0 255 0
0 255 0
0 255 0
0 255 0
0 255 0
0 255 0
0 255 0
0 255 0
0 255 0
0 255 0
0 255 0
0 255 0
0 255 0
0 255 0
0 255 0
0 255 0
0 255 0
0 255 0
0 255 0
0 255 0
0 255 0
0 255 0
0 255 0
0 255 0
0 255 0
0 255 0
0 255 0
0 255 0
0 255 0
0 255 0
0 255 0
0 255 0
0 255 0
0 255 0
0 255 0
0 255 0
0 255 0
0 255 0
0 255 0
0 255 0
0 255 0
0 255 0
0 255 0
0 255 0
0 255 0
0 255 0
0 255 0
0 255 0
0 255 0
0 255 0
0 255 0
0 255 0
0 255 0
0 255 0
0 255 0
0 255 0
0 255 0
0 255 0
0 255 0
0 255 0
0 255 0
0 255 0
0 255 0
0 255 0
0 255 0
0 255 0
0 255 0
0 255 0
0 255 0
0 255 0
0 255 0
0 255 0
0 255 0
0 255 0
0 255 0
0 255 0
0 255 0
0 255 0
0 255 0
0 255 0
0 255 0
0 255 0
0 255 0
0 255 0
0 255 0
0 255 0
0 255 0
0 255 0
0 255 0
0 255 0
0 255 0
0 255 0
0 219 11
0 0 148
0 0 164
0 0 173
0 0 180
0 0 186
0 0 191
0 0 195
0 0 199
0 0 202
0 0 205
0 0 208
0 0 211
0 0 213
0 0 215
0 0 217
0 0 219
0 0 221
0 0 223
0 0 224
0 0 226
0 0 228
0 0 229
0 0 230
0 0 232
0 0 233
0 0 234
0 0 235
0 0 236
0 0 237
0 0 238
0 0 239
0 0 240
0 0 240
0 0 241
0 0 242
0 0 242
0 0 243
0 0 244
0 0 244
0 0 245
0 0 245
0 0 246
0 0 246
0 0 247
0 0 247
0 0 248
0 0 248
0 0 248
0 0 249
0 0 249
0 0 249
0 0 249
0 0 250
0 0 250
0 0 250
0 0 250
0 0 250
0 0 250
0 0 250
0 0 250
0 0 250
1 0 250
3 0 250
5 0 250
8 0 250
10 0 250
12 0 250
15 0 250
17 0 250
19 0 250
22 0 249
24 0 249
26 0 249
29 0 249
31 0 248
33 0 248
36 0 248
38 0 247
41 0 247
43 0 246
45 0 246
48 0 245
50 0 245
53 0 244
55 0 244
58 0 243
60 0 243
63 0 242
66 0 241
68 0 240
71 0 240
73 0 239
76 0 238
79 0 237
82 0 236
84 0 235
87 0 234
90 0 233
93 0 231
96 0 230
99 0 229
102 0 227
105 0 226
108 0 225
111 0 223
114 0 221
118 0 219
121 0 217
125 0 215
128 0 213
132 0 210
136 0 208
140 0 205
144 0 202
148 0 199
153 0 195
158 0 191
163 0 186
169 0 180
175 0 174
183 0 165
190 0 147
21 226 8
3 255 0
3 255 0
3 255 0
4 255 0
4 255 0
4 255 0
4 255 0
4 255 0
4 255 0
4 255 0
4 255 0
4 255 0
4 255 0
4 255 0
4 255 0
4 255 0
4 255 0
4 255 0
5 255 0
5 255 0
5 255 0
5 255 0
5 255 0
5 255 0
5 255 0
5 255 0
5 255 0
5 255 0
5 255 0
5 255 0
5 255 0
5 255 0
5 255 0
6 255 0
6 255 0
6 255 0
6 255 0
6 255 0
6 255 0
6 255 0
6 255 0
6 255 0
6 255 0
6 255 0
6 255 0
6 255 0
7 255 0
7 255 0
7 255 0
7 255 0
7 255 0
7 255 0
7 255 0
7 255 0
7 255 0
7 255 0
7 255 0
7 255 0
7 255 0
8 255 0
8 255 0
8 255 0
8 255 0
8 255 0
8 255 0
8 255 0
8 255 0
8 255 0
8 255 0
8 255 0
8 255 0
9 255 0
9 255 0
9 255 0
9 255 0
9 255 0
9 255 0
9 255 0
9 255 0
9 255 0
9 255 0
9 255 0
10 255 0
10 255 0
10 255 0
10 255 0
10 255 0
10 255 0
10 255 0
10 255 0
10 255 0
10 255 0
11 255 0
11 255 0
11 255 0
11 255 0
11 255 0
11 255 0
11 255 0
11 255 0
12 255 0
12 255 0
12 255 0
12 255 0
12 255 0
12 255 0
12 255 0
12 255 0
13 255 0
13 255 0
13 255 0
13 255 0
13 255 0
13 255 0
13 255 0
14 255 0
14 255 0
14 255 0
14 255 0
14 255 0
15 255 0
15 255 0
15 255 0
15 255 0
15 255 0
16 255 0
16 255 0
16 255 0
16 255 0
17 255 0
17 255 0
17 255 0
18 255 0
30 252 9
40 251 22
58 247 47
90 241 92
90 241 92
0 255 0
0 255 0
0 255 0
0 255 0
0 255 0
0 255 0
0 255 0
0 255 0
0 255 0
0 255 0
0 255 0
0 255 0
0 255 0
0 255 0
0 255 0
0 255 0
0 255 0
0 255 0
0 255 0
0 255 0
0 255 0
0 255 0
0 255 0
0 255 0
0 255 0
0 255 0
0 255 0
0 255 0
0 255 0
0 255 0
0 255 0
0 255 0
0 255 0
0 255 0
0 255 0
0 255 0
0 255 0
0 255 0
0 255 0
0 255 0
0 255 0
0 255 0
0 255 0
0 255 0
0 255 0
0 255 0
0 255 0
0 255 0
0 255 0
0 255 0
0 255 0
0 255 0
0 255 0
0 255 0
0 255 0
0 255 0
0 255 0
0 255 0
0 255 0
0 255 0
0 255 0
0 255 0
0 255 0
0 255 0
0 255 0
0 255 0
0 255 0
0 255 0
0 255 0
0 255 0
0 255 0
0 255 0
0 255 0
0 255 0
0 255 0
0 255 0
0 255 0
0 255 0
0 255 0
0 255 0
0 255 0
0 255 0
0 255 0
0 255 0
0 255 0
0 255 0
0 255 0
0 255 0
0 255 0
0 255 0
0 255 0
0 255 0
0 255 0
0 255 0
0 255 0
0 255 0
0 255 0
0 255 0
0 255 0
0 255 0
0 255 0
0 255 0
0 255 0
0 255 0
0 255 0
0 255 0
0 255 0
0 255 0
0 255 0
0 255 0
0 255 0
0 255 0
0 255 0
0 255 0
0 255 0
0 255 0
0 255 0
0 255 0
0 255 0
0 255 0
0 255 0
0 255 0
0 255 0
0 255 0
0 255 0
0 255 0
0 255 0
0 255 0
0 255 0
0 255 0
0 255 0
0 255 0
0 255 0
0 255 0
0 255 0
0 255 0
0 255 0
0 255 0
0 255 0
0 1 111
0 0 161
0 0 170
0 0 178
0 0 184
0 0 189
0 0 193
0 0 197
0 0 201
0 0 204
0 0 207
0 0 209
0 0 212
0 0 214
0 0 216
0 0 218
0 0 220
0 0 222
0 0 224
0 0 225
0 0 227
0 0 228
0 0 229
0 0 231
0 0 232
0 0 233
0 0 234
0 0 235
0 0 236
0 0 237
0 0 238
0 0 239
0 0 240
0 0 241
0 0 241
0 0 242
0 0 243
0 0 243
0 0 244
0 0 244
0 0 245
0 0 245
0 0 246
0 0 246
0 0 247
0 0 247
0 0 247
0 0 248
0 0 248
0 0 248
0 0 249
0 0 249
0 0 249
0 0 249
0 0 249
0 0 250
0 0 250
0 0 250
0 0 250
0 0 250
0 0 250
1 0 250
3 0 250
5 0 250
8 0 250
10 0 250
12 0 250
15 0 249
17 0 249
19 0 249
22 0 249
24 0 249
26 0 248
29 0 248
31 0 248
34 0 247
36 0 247
38 0 247
41 0 246
43 0 246
46 0 245
48 0 245
51 0 244
53 0 244
55 0 243
58 0 243
61 0 242
63 0 241
66 0 240
68 0 240
71 0 239
74 0 238
76 0 237
79 0 236
82 0 235
85 0 234
87 0 233
90 0 232
93 0 231
96 0 229
99 0 228
102 0 227
105 0 225
108 0 224
112 0 222
115 0 220
118 0 218
122 0 216
125 0 214
129 0 212
132 0 209
136 0 207
140 0 204
145 0 201
149 0 197
154 0 193
158 0 189
164 0 184
170 0 177
177 0 170
185 0 160
157 0 116
3 255 0
3 255 0
3 255 0
3 255 0
3 255 0
3 255 0
3 255 0
3 255 0
4 255 0
4 255 0
4 255 0
4 255 0
4 255 0
4 255 0
4 255 0
4 255 0
4 255 0
4 255 0
4 255 0
4 255 0
4 255 0
4 255 0
4 255 0
5 255 0
5 255 0
5 255 0
5 255 0
5 255 0
5 255 0
5 255 0
5 255 0
5 255 0
5 255 0
5 255 0
5 255 0
5 255 0
5 255 0
5 255 0
5 255 0
6 255 0
6 255 0
6 255 0
6 255 0
6 255 0
6 255 0
6 255 0
6 255 0
6 255 0
6 255 0
6 255 0
6 255 0
6 255 0
6 255 0
7 255 0
7 255 0
7 255 0
7 255 0
7 255 0
7 255 0
7 255 0
7 255 0
7 255 0
7 255 0
7 255 0
7 255 0
7 255 0
8 255 0
8 255 0
8 255 0
8 255 0
8 255 0
8 255 0
8 255 0
8 255 0
8 255 0
8 255 0
8 255 0
8 255 0
9 255 0
9 255 0
9 255 0
9 255 0
9 255 0
9 255 0
9 255 0
9 255 0
9 255 0
9 255 0
9 255 0
9 255 0
10 255 0
10 255 0
10 255 0
10 255 0
10 255 0
10 255 0
10 255 0
10 255 0
10 255 0
10 255 0
11 255 0
11 255 0
11 255 0
11 255 0
11 255 0
11 255 0
11 255 0
11 255 0
11 255 0
11 255 0
12 255 0
12 255 0
12 255 0
12 255 0
12 255 0
12 255 0
12 255 0
13 255 0
13 255 0
13 255 0
13 255 0
13 255 0
13 255 0
13 255 0
13 255 0
14 255 0
14 255 0
14 255 0
14 255 0
14 255 0
14 255 0
15 255 0
15 255 0
15 255 0
15 255 0
15 255 0
16 255 0
16 255 0
16 255 0
0 255 0
0 255 0
0 255 0
0 255 0
0 255 0
0 255 0
0 255 0
0 255 0
0 255 0
0 255 0
0 255 0
0 255 0
0 255 0
0 255 0
0 255 0
0 255 0
0 255 0
0 255 0
0 255 0
0 255 0
0 255 0
0 255 0
0 255 0
0 255 0
0 255 0
0 255 0
0 255 0
0 255 0
0 255 0
0 255 0
0 255 0
0 255 0
0 255 0
0 255 0
0 255 0
0 255 0
0 255 0
0 255 0
0 255 0
0 255 0
0 255 0
0 255 0
0 255 0
0 255 0
0 255 0
0 255 0
0 255 0
0 255 0
0 255 0
0 255 0
0 255 0
0 255 0
0 255 0
0 255 0
0 255 0
0 255 0
0 255 0
0 255 0
0 255 0
0 255 0
0 255 0
0 255 0
0 255 0
0 255 0
0 255 0
0 255 0
0 255 0
0 255 0
0 255 0
0 255 0
0 255 0
0 255 0
0 255 0
0 255 0
0 255 0
0 255 0
0 255 0
0 255 0
0 255 0
0 255 0
0 255 0
0 255 0
0 255 0
0 255 0
0 255 0
0 255 0
0 255 0
0 255 0
0 255 0
0 255 0
0 255 0
0 255 0
0 255 0
0 255 0
0 255 0
0 255 0
0 255 0
0 255 0
0 255 0
0 255 0
0 255 0
0 255 0
0 255 0
0 255 0
0 255 0
0 255 0
0 255 0
0 255 0
0 255 0
0 255 0
0 255 0
0 255 0
0 255 0
0 255 0
0 255 0
0 255 0
0 255 0
0 255 0
0 255 0
0 255 0
0 255 0
0 255 0
0 255 0
0 255 0
0 255 0
0 255 0
0 255 0
0 255 0
0 255 0
0 255 0
0 255 0
0 255 0
0 255 0
0 255 0
0 255 0
0 255 0
0 255 0
0 255 0
0 255 0
0 135 48
0 0 155
0 0 167
0 0 175
0 0 181
0 0 187
0 0 191
0 0 196
0 0 199
0 0 202
0 0 205
0 0 208
0 0 211
0 0 213
0 0 215
0 0 217
0 0 219
0 0 221
0 0 223
0 0 224
0 0 226
0 0 227
0 0 229
0 0 230
0 0 231
0 0 232
0 0 233
0 0 235
0 0 236
0 0 236
0 0 237
0 0 238
0 0 239
0 0 240
0 0 241
0 0 241
0 0 242
0 0 243
0 0 243
0 0 244
0 0 244
0 0 245
0 0 245
0 0 246
0 0 246
0 0 246
0 0 247
0 0 247
0 0 247
0 0 248
0 0 248
0 0 248
0 0 248
0 0 249
0 0 249
0 0 249
0 0 249
0 0 249
0 0 249
0 0 249
0 0 249
1 0 249
3 0 249
5 0 249
8 0 249
10 0 249
12 0 249
15 0 249
17 0 249
19 0 248
22 0 248
24 0 248
26 0 248
29 0 247
31 0 247
34 0 247
36 0 247
38 0 246
41 0 246
43 0 245
46 0 245
48 0 244
51 0 244
53 0 243
56 0 243
58 0 242
61 0 241
63 0 241
66 0 240
69 0 239
71 0 238
74 0 237
77 0 236
79 0 236
82 0 234
85 0 233
88 0 232
90 0 231
93 0 230
96 0 229
99 0 227
102 0 226
105 0 224
109 0 223
112 0 221
115 0 219
119 0 217
122 0 215
126 0 213
129 0 211
133 0 208
137 0 205
141 0 202
145 0 199
150 0 195
155 0 191
159 0 187
165 0 181
171 0 175
179 0 166
188 0 155
67 145 44
3 255 0
3 255 0
3 255 0
3 255 0
3 255 0
3 255 0
3 255 0
3 255 0
3 255 0
3 255 0
3 255 0
4 255 0
4 255 0
4 255 0
4 255 0
4 255 0
4 255 0
4 255 0
4 255 0
4 255 0
4 255 0
4 255 0
4 255 0
4 255 0
4 255 0
4 255 0
4 255 0
5 255 0
5 255 0
5 255 0
5 255 0
5 255 0
5 255 0
5 255 0
5 255 0
5 255 0
5 255 0
5 255 0
5 255 0
5 255 0
5 255 0
5 255 0
5 255 0
6 255 0
6 255 0
6 255 0
6 255 0
6 255 0
6 255 0
6 255 0
6 255 0
6 255 0
6 255 0
6 255 0
6 255 0
6 255 0
6 255 0
6 255 0
7 255 0
7 255 0
7 255 0
7 255 0
7 255 0
7 255 0
7 255 0
7 255 0
7 255 0
7 255 0
7 255 0
7 255 0
7 255 0
7 255 0
8 255 0
8 255 0
8 255 0
8 255 0
8 255 0
8 255 0
8 255 0
8 255 0
8 255 0
8 255 0
8 255 0
8 255 0
8 255 0
9 255 0
9 255 0
9 255 0
9 255 0
9 255 0
9 255 0
9 255 0
9 255 0
9 255 0
9 255 0
9 255 0
9 255 0
10 255 0
10 255 0
10 255 0
10 255 0
10 255 0
10 255 0
10 255 0
10 255 0
10 255 0
10 255 0
10 255 0
11 255 0
11 255 0
11 255 0
11 255 0
11 255 0
11 255 0
11 255 0
11 255 0
11 255 0
11 255 0
12 255 0
12 255 0
12 255 0
12 255 0
12 255 0
12 255 0
12 255 0
12 255 0
12 255 0
13 255 0
13 255 0
13 255 0
13 255 0
13 255 0
13 255 0
13 255 0
14 255 0
14 255 0
14 255 0
14 255 0
14 255 0
0 255 0
0 255 0
0 255 0
0 255 0
0 255 0
0 255 0
0 255 0
0 255 0
0 255 0
0 255 0
0 255 0
0 255 0
0 255 0
0 255 0
0 255 0
0 255 0
0 255 0
0 255 0
0 255 0
0 255 0
0 255 0
0 255 0
0 255 0
0 255 0
0 255 0
0 255 0
0 255 0
0 255 0
0 255 0
0 255 0
0 255 0
0 255 0
0 255 0
0 255 0
0 255 0
0 255 0
0 255 0
0 255 0
0 255 0
0 255 0
0 255 0
0 255 0
0 255 0
0 255 0
0 255 0
0 255 0
0 255 0
0 255 0
0 255 0
0 255 0
0 255 0
0 255 0
0 255 0
0 255 0
0 255 0
0 255 0
0 255 0
0 255 0
0 255 0
0 255 0
0 255 0
0 255 0
0 255 0
0 255 0
0 255 0
0 255 0
0 255 0
0 255 0
0 255 0
0 255 0
0 255 0
0 255 0
0 255 0
0 255 0
0 255 0
0 255 0
0 255 0
0 255 0
0 255 0
0 255 0
0 255 0
0 255 0
0 255 0
0 255 0
0 255 0
0 255 0
0 255 0
0 255 0
0 255 0
0 255 0
0 255 0
0 255 0
0 255 0
0 255 0
0 255 0
0 255 0
0 255 0
0 255 0
0 255 0
0 255 0
0 255 0
0 255 0
0 255 0
0 255 0
0 255 0
0 255 0
0 255 0
0 255 0
0 255 0
0 255 0
0 255 0
0 255 0
0 255 0
0 255 0
0 255 0
0 255 0
0 255 0
0 255 0
0 255 0
0 255 0
0 255 0
0 255 0
0 255 0
0 255 0
0 255 0
0 255 0
0 255 0
0 255 0
0 255 0
0 255 0
0 255 0
0 255 0
0 255 0
0 255 0
0 255 0
0 255 0
0 255 0
0 255 0
0 255 0
0 249 0
0 0 136
0 0 163
0 0 172
0 0 179
0 0 184
0 0 189
0 0 194
0 0 198
0 0 201
0 0 204
0 0 207
0 0 209
0 0 212
0 0 214
0 0 216
0 0 218
0 0 220
0 0 222
0 0 223
0 0 225
0 0 226
0 0 228
0 0 229
0 0 230
0 0 232
0 0 233
0 0 234
0 0 235
0 0 236
0 0 237
0 0 238
0 0 238
0 0 239
0 0 240
0 0 241
0 0 241
0 0 242
0 0 243
0 0 243
0 0 244
0 0 244
0 0 245
0 0 245
0 0 246
0 0 246
0 0 246
0 0 247
0 0 247
0 0 247
0 0 247
0 0 248
0 0 248
0 0 248
0 0 248
0 0 248
0 0 249
0 0 249
0 0 249
0 0 249
0 0 249
1 0 249
3 0 249
5 0 249
8 0 249
10 0 249
12 0 248
15 0 248
17 0 248
19 0 248
22 0 248
24 0 247
27 0 247
29 0 247
31 0 247
34 0 246
36 0 246
38 0 246
41 0 245
43 0 245
46 0 244
48 0 244
51 0 243
53 0 243
56 0 242
58 0 241
61 0 241
63 0 240
66 0 239
69 0 238
71 0 238
74 0 237
77 0 236
79 0 235
82 0 234
85 0 233
88 0 232
91 0 230
94 0 229
97 0 228
100 0 226
103 0 225
106 0 223
109 0 222
112 0 220
116 0 218
119 0 216
122 0 214
126 0 212
130 0 209
133 0 207
137 0 204
141 0 201
146 0 197
151 0 194
156 0 189
161 0 184
167 0 179
173 0 172
181 0 163
174 0 135
15 235 4
3 255 0
3 255 0
3 255 0
3 255 0
3 255 0
3 255 0
3 255 0
3 255 0
3 255 0
3 255 0
3 255 0
3 255 0
3 255 0
3 255 0
4 255 0
4 255 0
4 255 0
4 255 0
4 255 0
4 255 0
4 255 0
4 255 0
4 255 0
4 255 0
4 255 0
4 255 0
4 255 0
4 255 0
4 255 0
4 255 0
4 255 0
5 255 0
5 255 0
5 255 0
5 255 0
5 255 0
5 255 0
5 255 0
5 255 0
5 255 0
5 255 0
5 255 0
5 255 0
5 255 0
5 255 0
5 255 0
5 255 0
5 255 0
6 255 0
6 255 0
6 255 0
6 255 0
6 255 0
6 255 0
6 255 0
6 255 0
6 255 0
6 255 0
6 255 0
6 255 0
6 255 0
6 255 0
6 255 0
7 255 0
7 255 0
7 255 0
7 255 0
7 255 0
7 255 0
7 255 0
7 255 0
7 255 0
7 255 0
7 255 0
7 255 0
7 255 0
7 255 0
7 255 0
8 255 0
8 255 0
8 255 0
8 255 0
8 255 0
8 255 0
8 255 0
8 255 0
8 255 0
8 255 0
8 255 0
8 255 0
8 255 0
8 255 0
9 255 0
9 255 0
9 255 0
9 255 0
9 255 0
9 255 0
9 255 0
9 255 0
9 255 0
9 255 0
9 255 0
9 255 0
10 255 0
10 255 0
10 255 0
10 255 0
10 255 0
10 255 0
10 255 0
10 255 0
10 255 0
10 255 0
10 255 0
10 255 0
11 255 0
11 255 0
11 255 0
11 255 0
11 255 0
11 255 0
11 255 0
11 255 0
11 255 0
11 255 0
12 255 0
12 255 0
12 255 0
12 255 0
12 255 0
12 255 0
12 255 0
12 255 0
12 255 0
13 255 0
13 255 0
13 255 0
13 255 0
0 255 0
0 255 0
0 255 0
0 255 0
0 255 0
0 255 0
0 255 0
0 255 0
0 255 0
0 255 0
0 255 0
0 255 0
0 255 0
0 255 0
0 255 0
0 255 0
0 255 0
0 255 0
0 255 0
0 255 0
0 255 0
0 255 0
0 255 0
0 255 0
0 255 0
0 255 0
0 255 0
0 255 0
0 255 0
0 255 0
0 255 0
0 255 0
0 255 0
0 255 0
0 255 0
0 255 0
0 255 0
0 255 0
0 255 0
0 255 0
0 255 0
0 255 0
0 255 0
0 255 0
0 255 0
0 255 0
0 255 0
0 255 0
0 255 0
0 255 0
0 255 0
0 255 0
0 255 0
0 255 0
0 255 0
0 255 0
0 255 0
0 255 0
0 255 0
0 255 0
0 255 0
0 255 0
0 255 0
0 255 0
0 255 0
0 255 0
0 255 0
0 255 0
0 255 0
0 255 0
0 255 0
0 255 0
0 255 0
0 255 0
0 255 0
0 255 0
0 255 0
0 255 0
0 255 0
0 255 0
0 255 0
0 255 0
0 255 0
0 255 0
0 255 0
0 255 0
0 255 0
0 255 0
0 255 0
0 255 0
0 255 0
0 255 0
0 255 0
0 255 0
0 255 0
0 255 0
0 255 0
0 255 0
0 255 0
0 255 0
0 255 0
0 255 0
0 255 0
0 255 0
0 255 0
0 255 0
0 255 0
0 255 0
0 255 0
0 255 0
0 255 0
0 255 0
0 255 0
0 255 0
0 255 0
0 255 0
0 255 0
0 255 0
0 255 0
0 255 0
0 255 0
0 255 0
0 255 0
0 255 0
0 255 0
0 255 0
0 255 0
0 255 0
0 255 0
0 255 0
0 255 0
0 255 0
0 255 0
0 255 0
0 255 0
0 255 0
0 255 0
0 255 0
0 255 0
0 255 0
0 71 75
0 0 156
0 0 168
0 0 176
0 0 182
0 0 187
0 0 192
0 0 196
0 0 199
0 0 203
0 0 205
0 0 208
0 0 210
0 0 213
0 0 215
0 0 217
0 0 219
0 0 221
0 0 223
0 0 224
0 0 226
0 0 227
0 0 228
0 0 230
0 0 231
0 0 232
0 0 233
0 0 234
0 0 235
0 0 236
0 0 237
0 0 238
0 0 238
0 0 239
0 0 240
0 0 241
0 0 241
0 0 242
0 0 242
0 0 243
0 0 243
0 0 244
0 0 244
0 0 245
0 0 245
0 0 246
0 0 246
0 0 246
0 0 247
0 0 247
0 0 247
0 0 247
0 0 247
0 0 248
0 0 248
0 0 248
0 0 248
0 0 248
0 0 248
0 0 248
1 0 248
3 0 248
5 0 248
8 0 248
10 0 248
12 0 248
15 0 248
17 0 248
19 0 247
22 0 247
24 0 247
26 0 247
29 0 246
31 0 246
34 0 246
36 0 245
39 0 245
41 0 244
43 0 244
46 0 243
48 0 243
51 0 242
53 0 242
56 0 241
59 0 241
61 0 240
64 0 239
66 0 238
69 0 238
72 0 237
74 0 236
77 0 235
80 0 234
82 0 233
85 0 232
88 0 231
91 0 230
94 0 228
97 0 227
100 0 225
103 0 224
106 0 222
109 0 221
113 0 219
116 0 217
120 0 215
123 0 213
127 0 211
130 0 208
134 0 205
138 0 203
142 0 199
147 0 196
152 0 192
157 0 187
162 0 182
168 0 176
175 0 168
184 0 156
92 95 65
3 255 0
3 255 0
3 255 0
3 255 0
3 255 0
3 255 0
3 255 0
3 255 0
3 255 0
3 255 0
3 255 0
3 255 0
3 255 0
3 255 0
3 255 0
3 255 0
3 255 0
3 255 0
4 255 0
4 255 0
4 255 0
4 255 0
4 255 0
4 255 0
4 255 0
4 255 0
4 255 0
4 255 0
4 255 0
4 255 0
4 255 0
4 255 0
4 255 0
4 255 0
4 255 0
4 255 0
5 255 0
5 255 0
5 255 0
5 255 0
5 255 0
5 255 0
5 255 0
5 255 0
5 255 0
5 255 0
5 255 0
5 255 0
5 255 0
5 255 0
5 255 0
5 255 0
5 255 0
5 255 0
6 255 0
6 255 0
6 255 0
6 255 0
6 255 0
6 255 0
6 255 0
6 255 0
6 255 0
6 255 0
6 255 0
6 255 0
6 255 0
6 255 0
6 255 0
6 255 0
7 255 0
7 255 0
7 255 0
7 255 0
7 255 0
7 255 0
7 255 0
7 255 0
7 255 0
7 255 0
7 255 0
7 255 0
7 255 0
7 255 0
7 255 0
8 255 0
8 255 0
8 255 0
8 255 0
8 255 0
8 255 0
8 255 0
8 255 0
8 255 0
8 255 0
8 255 0
8 255 0
8 255 0
8 255 0
8 255 0
9 255 0
9 255 0
9 255 0
9 255 0
9 255 0
9 255 0
9 255 0
9 255 0
9 255 0
9 255 0
9 255 0
9 255 0
9 255 0
10 255 0
10 255 0
10 255 0
10 255 0
10 255 0
10 255 0
10 255 0
10 255 0
10 255 0
10 255 0
10 255 0
10 255 0
11 255 0
11 255 0
11 255 0
11 255 0
11 255 0
11 255 0
11 255 0
11 255 0
11 255 0
11 255 0
12 255 0
12 255 0
12 255 0
12 255 0
12 255 0
0 255 0
0 255 0
0 255 0
0 255 0
0 255 0
0 255 0
0 255 0
0 255 0
0 255 0
0 255 0
0 255 0
0 255 0
0 255 0
0 255 0
0 255 0
0 255 0
0 255 0
0 255 0
0 255 0
0 255 0
0 255 0
0 255 0
0 255 0
0 255 0
0 255 0
0 255 0
0 255 0
0 255 0
0 255 0
0 255 0
0 255 0
0 255 0
0 255 0
0 255 0
0 255 0
0 255 0
0 255 0
0 255 0
0 255 0
0 255 0
0 255 0
0 255 0
0 255 0
0 255 0
0 255 0
0 255 0
0 255 0
0 255 0
0 255 0
0 255 0
0 255 0
0 255 0
0 255 0
0 255 0
0 255 0
0 255 0
0 255 0
0 255 0
0 255 0
0 255 0
0 255 0
0 255 0
0 255 0
0 255 0
0 255 0
0 255 0
0 255 0
0 255 0
0 255 0
0 255 0
0 255 0
0 255 0
0 255 0
0 255 0
0 255 0
0 255 0
0 255 0
0 255 0
0 255 0
0 255 0
0 255 0
0 255 0
0 255 0
0 255 0
0 255 0
0 255 0
0 255 0
0 255 0
0 255 0
0 255 0
0 255 0
0 255 0
0 255 0
0 255 0
0 255 0
0 255 0
0 255 0
0 255 0
0 255 0
0 255 0
0 255 0
0 255 0
0 255 0
0 255 0
0 255 0
0 255 0
0 255 0
0 255 0
0 255 0
0 255 0
0 255 0
0 255 0
0 255 0
0 255 0
0 255 0
0 255 0
0 255 0
0 255 0
0 255 0
0 255 0
0 255 0
0 255 0
0 255 0
0 255 0
0 255 0
0 255 0
0 255 0
0 255 0
0 255 0
0 255 0
0 255 0
0 255 0
0 255 0
0 255 0
0 255 0
0 255 0
0 255 0
0 255 0
0 255 0
0 255 0
0 211 15
0 0 149
0 0 164
0 0 172
0 0 179
0 0 185
0 0 189
0 0 194
0 0 197
0 0 201
0 0 204
0 0 207
0 0 209
0 0 212
0 0 214
0 0 216
0 0 218
0 0 220
0 0 221
0 0 223
0 0 224
0 0 226
0 0 227
0 0 229
0 0 230
0 0 231
0 0 232
0 0 233
0 0 234
0 0 235
0 0 236
0 0 237
0 0 238
0 0 239
0 0 239
0 0 240
0 0 241
0 0 241
0 0 242
0 0 242
0 0 243
0 0 243
0 0 244
0 0 244
0 0 245
0 0 245
0 0 245
0 0 246
0 0 246
0 0 246
0 0 246
0 0 247
0 0 247
0 0 247
0 0 247
0 0 247
0 0 247
0 0 247
0 0 248
0 0 248
1 0 248
3 0 247
5 0 247
8 0 247
10 0 247
12 0 247
15 0 247
17 0 247
20 0 247
22 0 246
24 0 246
27 0 246
29 0 246
31 0 245
34 0 245
36 0 245
39 0 244
41 0 244
44 0 243
46 0 243
49 0 242
51 0 242
54 0 241
56 0 241
59 0 240
61 0 239
64 0 238
66 0 238
69 0 237
72 0 236
74 0 235
77 0 234
80 0 233
83 0 232
86 0 231
88 0 230
91 0 229
94 0 227
97 0 226
100 0 225
103 0 223
106 0 221
110 0 220
113 0 218
116 0 216
120 0 214
124 0 211
127 0 209
131 0 207
135 0 204
139 0 201
143 0 197
148 0 193
153 0 190
158 0 184
163 0 179
170 0 172
178 0 163
186 0 148
18 228 8
2 255 0
2 255 0
3 255 0
3 255 0
3 255 0
3 255 0
3 255 0
3 255 0
3 255 0
3 255 0
3 255 0
3 255 0
3 255 0
3 255 0
3 255 0
3 255 0
3 255 0
3 255 0
3 255 0
3 255 0
3 255 0
4 255 0
4 255 0
4 255 0
4 255 0
4 255 0
4 255 0
4 255 0
4 255 0
4 255 0
4 255 0
4 255 0
4 255 0
4 255 0
4 255 0
4 255 0
4 255 0
4 255 0
4 255 0
4 255 0
5 255 0
5 255 0
5 255 0
5 255 0
5 255 0
5 255 0
5 255 0
5 255 0
5 255 0
5 255 0
5 255 0
5 255 0
5 255 0
5 255 0
5 255 0
5 255 0
5 255 0
5 255 0
6 255 0
6 255 0
6 255 0
6 255 0
6 255 0
6 255 0
6 255 0
6 255 0
6 255 0
6 255 0
6 255 0
6 255 0
6 255 0
6 255 0
6 255 0
6 255 0
6 255 0
7 255 0
7 255 0
7 255 0
7 255 0
7 255 0
7 255 0
7 255 0
7 255 0
7 255 0
7 255 0
7 255 0
7 255 0
7 255 0
7 255 0
7 255 0
7 255 0
8 255 0
8 255 0
8 255 0
8 255 0
8 255 0
8 255 0
8 255 0
8 255 0
8 255 0
8 255 0
8 255 0
8 255 0
8 255 0
8 255 0
8 255 0
9 255 0
9 255 0
9 255 0
9 255 0
9 255 0
9 255 0
9 255 0
9 255 0
9 255 0
9 255 0
9 255 0
9 255 0
9 255 0
9 255 0
10 255 0
10 255 0
10 255 0
10 255 0
10 255 0
10 255 0
10 255 0
10 255 0
10 255 0
10 255 0
10 255 0
10 255 0
11 255 0
11 255 0
11 255 0
11 255 0
11 255 0
11 255 0
11 255 0
11 255 0
0 255 0
0 255 0
0 255 0
0 255 0
0 255 0
0 255 0
0 255 0
0 255 0
0 255 0
0 255 0
0 255 0
0 255 0
0 255 0
0 255 0
0 255 0
0 255 0
0 255 0
0 255 0
0 255 0
0 255 0
0 255 0
0 255 0
0 255 0
0 255 0
0 255 0
0 255 0
0 255 0
0 255 0
0 255 0
0 255 0
0 255 0
0 255 0
0 255 0
0 255 0
0 255 0
0 255 0
0 255 0
0 255 0
0 255 0
0 255 0
0 255 0
0 255 0
0 255 0
0 255 0
0 255 0
0 255 0
0 255 0
0 255 0
0 255 0
0 255 0
0 255 0
0 255 0
0 255 0
0 255 0
0 255 0
0 255 0
0 255 0
0 255 0
0 255 0
0 255 0
0 255 0
0 255 0
0 255 0
0 255 0
0 255 0
0 255 0
0 255 0
0 255 0
0 255 0
0 255 0
0 255 0
0 255 0
0 255 0
0 255 0
0 255 0
0 255 0
0 255 0
0 255 0
0 255 0
0 255 0
0 255 0
0 255 0
0 255 0
0 255 0
0 255 0
0 255 0
0 255 0
0 255 0
0 255 0
0 255 0
0 255 0
0 255 0
0 255 0
0 255 0
0 255 0
0 255 0
0 255 0
0 255 0
0 255 0
0 255 0
0 255 0
0 255 0
0 255 0
0 255 0
0 255 0
0 255 0
0 255 0
0 255 0
0 255 0
0 255 0
0 255 0
0 255 0
0 255 0
0 255 0
0 255 0
0 255 0
0 255 0
0 255 0
0 255 0
0 255 0
0 255 0
0 255 0
0 255 0
0 255 0
0 255 0
0 255 0
0 255 0
0 255 0
0 255 0
0 255 0
0 255 0
0 255 0
0 255 0
0 255 0
0 255 0
0 255 0
0 255 0
0 255 0
0 255 0
0 255 0
0 255 0
0 19 97
0 0 159
0 0 168
0 0 176
0 0 182
0 0 187
0 0 191
0 0 196
0 0 199
0 0 202
0 0 205
0 0 208
0 0 210
0 0 213
0 0 215
0 0 217
0 0 219
0 0 220
0 0 222
0 0 224
0 0 225
0 0 226
0 0 228
0 0 229
0 0 230
0 0 231
0 0 232
0 0 233
0 0 234
0 0 235
0 0 236
0 0 237
0 0 238
0 0 238
0 0 239
0 0 240
0 0 240
0 0 241
0 0 242
0 0 242
0 0 243
0 0 243
0 0 243
0 0 244
0 0 244
0 0 245
0 0 245
0 0 245
0 0 246
0 0 246
0 0 246
0 0 246
0 0 246
0 0 247
0 0 247
0 0 247
0 0 247
0 0 247
0 0 247
1 0 247
3 0 247
5 0 247
8 0 247
10 0 247
12 0 246
15 0 246
17 0 246
20 0 246
22 0 246
24 0 246
27 0 245
29 0 245
32 0 245
34 0 244
36 0 244
39 0 244
41 0 243
44 0 243
46 0 242
49 0 242
51 0 241
54 0 240
56 0 240
59 0 239
61 0 238
64 0 238
67 0 237
69 0 236
72 0 235
75 0 234
77 0 233
80 0 232
83 0 231
86 0 230
89 0 229
92 0 228
95 0 226
98 0 225
100 0 224
104 0 222
107 0 220
110 0 219
114 0 217
117 0 215
120 0 213
124 0 210
128 0 208
132 0 205
136 0 202
140 0 199
144 0 195
149 0 192
154 0 187
159 0 182
165 0 176
172 0 168
180 0 158
110 57 80
2 255 0
2 255 0
2 255 0
2 255 0
2 255 0
3 255 0
3 255 0
3 255 0
3 255 0
3 255 0
3 255 0
3 255 0
3 255 0
3 255 0
3 255 0
3 255 0
3 255 0
3 255 0
3 255 0
3 255 0
3 255 0
3 255 0
3 255 0
3 255 0
3 255 0
3 255 0
4 255 0
4 255 0
4 255 0
4 255 0
4 255 0
4 255 0
4 255 0
4 255 0
4 255 0
4 255 0
4 255 0
4 255 0
4 255 0
4 255 0
4 255 0
4 255 0
4 255 0
4 255 0
4 255 0
5 255 0
5 255 0
5 255 0
5 255 0
5 255 0
5 255 0
5 255 0
5 255 0
5 255 0
5 255 0
5 255 0
5 255 0
5 255 0
5 255 0
5 255 0
5 255 0
5 255 0
5 255 0
5 255 0
6 255 0
6 255 0
6 255 0
6 255 0
6 255 0
6 255 0
6 255 0
6 255 0
6 255 0
6 255 0
6 255 0
6 255 0
6 255 0
6 255 0
6 255 0
6 255 0
6 255 0
6 255 0
7 255 0
7 255 0
7 255 0
7 255 0
7 255 0
7 255 0
7 255 0
7 255 0
7 255 0
7 255 0
7 255 0
7 255 0
7 255 0
7 255 0
7 255 0
7 255 0
8 255 0
8 255 0
8 255 0
8 255 0
8 255 0
8 255 0
8 255 0
8 255 0
8 255 0
8 255 0
8 255 0
8 255 0
8 255 0
8 255 0
8 255 0
8 255 0
9 255 0
9 255 0
9 255 0
9 255 0
9 255 0
9 255 0
9 255 0
9 255 0
9 255 0
9 255 0
9 255 0
9 255 0
9 255 0
9 255 0
10 255 0
10 255 0
10 255 0
10 255 0
10 255 0
10 255 0
10 255 0
10 255 0
10 255 0
10 255 0
10 255 0
10 255 0
11 255 0
0 255 0
0 255 0
0 255 0
0 255 0
0 255 0
0 255 0
0 255 0
0 255 0
0 255 0
0 255 0
0 255 0
0 255 0
0 255 0
0 255 0
0 255 0
0 255 0
0 255 0
0 255 0
0 255 0
0 255 0
0 255 0
0 255 0
0 255 0
0 255 0
0 255 0
0 255 0
0 255 0
0 255 0
0 255 0
0 255 0
0 255 0
0 255 0
0 255 0
0 255 0
0 255 0
0 255 0
0 255 0
0 255 0
0 255 0
0 255 0
0 255 0
0 255 0
0 255 0
0 255 0
0 255 0
0 255 0
0 255 0
0 255 0
0 255 0
0 255 0
0 255 0
0 255 0
0 255 0
0 255 0
0 255 0
0 255 0
0 255 0
0 255 0
0 255 0
0 255 0
0 255 0
0 255 0
0 255 0
0 255 0
0 255 0
0 255 0
0 255 0
0 255 0
0 255 0
0 255 0
0 255 0
0 255 0
0 255 0
0 255 0
0 255 0
0 255 0
0 255 0
0 255 0
0 255 0
0 255 0
0 255 0
0 255 0
0 255 0
0 255 0
0 255 0
0 255 0
0 255 0
0 255 0
0 255 0
0 255 0
0 255 0
0 255 0
0 255 0
0 255 0
0 255 0
0 255 0
0 255 0
0 255 0
0 255 0
0 255 0
0 255 0
0 255 0
0 255 0
0 255 0
0 255 0
0 255 0
0 255 0
0 255 0
0 255 0
0 255 0
0 255 0
0 255 0
0 255 0
0 255 0
0 255 0
0 255 0
0 255 0
0 255 0
0 255 0
0 255 0
0 255 0
0 255 0
0 255 0
0 255 0
0 255 0
0 255 0
0 255 0
0 255 0
0 255 0
0 255 0
0 255 0
0 255 0
0 255 0
0 255 0
0 255 0
0 255 0
0 255 0
0 255 0
0 255 0
0 255 0
0 255 0
0 199 19
0 0 146
0 0 163
0 0 173
0 0 179
0 0 185
0 0 189
0 0 193
0 0 197
0 0 201
0 0 203
0 0 206
0 0 209
0 0 211
0 0 213
0 0 215
0 0 217
0 0 219
0 0 221
0 0 222
0 0 224
0 0 225
0 0 227
0 0 228
0 0 229
0 0 230
0 0 231
0 0 232
0 0 233
0 0 234
0 0 235
0 0 236
0 0 237
0 0 238
0 0 238
0 0 239
0 0 240
0 0 240
0 0 241
0 0 241
0 0 242
0 0 242
0 0 243
0 0 243
0 0 244
0 0 244
0 0 244
0 0 245
0 0 245
0 0 245
0 0 245
0 0 245
0 0 246
0 0 246
0 0 246
0 0 246
0 0 246
0 0 246
0 0 246
1 0 246
3 0 246
5 0 246
8 0 246
10 0 246
12 0 246
15 0 246
17 0 246
20 0 245
22 0 245
24 0 245
27 0 245
29 0 244
32 0 244
34 0 244
36 0 243
39 0 243
41 0 242
44 0 242
46 0 241
49 0 241
51 0 240
54 0 240
57 0 239
59 0 238
62 0 238
64 0 237
67 0 236
69 0 235
72 0 234
75 0 233
77 0 233
80 0 231
83 0 230
86 0 229
89 0 228
92 0 227
95 0 225
98 0 224
101 0 222
104 0 221
107 0 219
111 0 217
114 0 215
118 0 213
121 0 211
125 0 209
128 0 206
132 0 203
136 0 200
141 0 197
145 0 194
150 0 189
155 0 185
160 0 180
167 0 172
174 0 164
179 0 146
34 196 21
2 255 0
2 255 0
2 255 0
2 255 0
2 255 0
2 255 0
2 255 0
3 255 0
3 255 0
3 255 0
3 255 0
3 255 0
3 255 0
3 255 0
3 255 0
3 255 0
3 255 0
3 255 0
3 255 0
3 255 0
3 255 0
3 255 0
3 255 0
3 255 0
3 255 0
3 255 0
3 255 0
3 255 0
3 255 0
4 255 0
4 255 0
4 255 0
4 255 0
4 255 0
4 255 0
4 255 0
4 255 0
4 255 0
4 255 0
4 255 0
4 255 0
4 255 0
4 255 0
4 255 0
4 255 0
4 255 0
4 255 0
4 255 0
4 255 0
5 255 0
5 255 0
5 255 0
5 255 0
5 255 0
5 255 0
5 255 0
5 255 0
5 255 0
5 255 0
5 255 0
5 255 0
5 255 0
5 255 0
5 255 0
5 255 0
5 255 0
5 255 0
5 255 0
6 255 0
6 255 0
6 255 0
6 255 0
6 255 0
6 255 0
6 255 0
6 255 0
6 255 0
6 255 0
6 255 0
6 255 0
6 255 0
6 255 0
6 255 0
6 255 0
6 255 0
6 255 0
6 255 0
7 255 0
7 255 0
7 255 0
7 255 0
7 255 0
7 255 0
7 255 0
7 255 0
7 255 0
7 255 0
7 255 0
7 255 0
7 255 0
7 255 0
7 255 0
7 255 0
7 255 0
8 255 0
8 255 0
8 255 0
8 255 0
8 255 0
8 255 0
8 255 0
8 255 0
8 255 0
8 255 0
8 255 0
8 255 0
8 255 0
8 255 0
8 255 0
8 255 0
9 255 0
9 255 0
9 255 0
9 255 0
9 255 0
9 255 0
9 255 0
9 255 0
9 255 0
9 255 0
9 255 0
9 255 0
9 255 0
9 255 0
9 255 0
10 255 0
10 255 0
10 255 0
10 255 0
10 255 0
10 255 0
0 255 0
0 255 0
0 255 0
0 255 0
0 255 0
0 255 0
0 255 0
0 255 0
0 255 0
0 255 0
0 255 0
0 255 0
0 255 0
0 255 0
0 255 0
0 255 0
0 255 0
0 255 0
0 255 0
0 255 0
0 255 0
0 255 0
0 255 0
0 255 0
0 255 0
0 255 0
0 255 0
0 255 0
0 255 0
0 255 0
0 255 0
0 255 0
0 255 0
0 255 0
0 255 0
0 255 0
0 255 0
0 255 0
0 255 0
0 255 0
0 255 0
0 255 0
0 255 0
0 255 0
0 255 0
0 255 0
0 255 0
0 255 0
0 255 0
0 255 0
0 255 0
0 255 0
0 255 0
0 255 0
0 255 0
0 255 0
0 255 0
0 255 0
0 255 0
0 255 0
0 255 0
0 255 0
0 255 0
0 255 0
0 255 0
0 255 0
0 255 0
0 255 0
0 255 0
0 255 0
0 255 0
0 255 0
0 255 0
0 255 0
0 255 0
0 255 0
0 255 0
0 255 0
0 255 0
0 255 0
0 255 0
0 255 0
0 255 0
0 255 0
0 255 0
0 255 0
0 255 0
0 255 0
0 255 0
0 255 0
0 255 0
0 255 0
0 255 0
0 255 0
0 255 0
0 255 0
0 255 0
0 255 0
0 255 0
0 255 0
0 255 0
0 255 0
0 255 0
0 255 0
0 255 0
0 255 0
0 255 0
0 255 0
0 255 0
0 255 0
0 255 0
0 255 0
0 255 0
0 255 0
0 255 0
0 255 0
0 255 0
0 255 0
0 255 0
0 255 0
0 255 0
0 255 0
0 255 0
0 255 0
0 255 0
0 255 0
0 255 0
0 255 0
0 255 0
0 255 0
0 255 0
0 255 0
0 255 0
0 255 0
0 255 0
0 255 0
0 255 0
0 255 0
0 255 0
0 255 0
0 255 0
0 255 0
0 46 83
0 0 157
0 0 168
0 0 176
0 0 182
0 0 187
0 0 191
0 0 195
0 0 198
0 0 202
0 0 204
0 0 207
0 0 210
0 0 212
0 0 214
0 0 216
0 0 218
0 0 220
0 0 221
0 0 223
0 0 224
0 0 225
0 0 227
0 0 228
0 0 229
0 0 230
0 0 231
0 0 232
0 0 233
0 0 234
0 0 235
0 0 236
0 0 237
0 0 238
0 0 238
0 0 239
0 0 239
0 0 240
0 0 241
0 0 241
0 0 242
0 0 242
0 0 242
0 0 243
0 0 243
0 0 244
0 0 244
0 0 244
0 0 244
0 0 245
0 0 245
0 0 245
0 0 245
0 0 245
0 0 245
0 0 245
0 0 245
0 0 245
1 0 245
3 0 245
5 0 245
8 0 245
10 0 245
13 0 245
15 0 245
17 0 245
20 0 245
22 0 244
24 0 244
27 0 244
29 0 244
32 0 243
34 0 243
37 0 242
39 0 242
41 0 242
44 0 241
46 0 241
49 0 240
51 0 239
54 0 239
57 0 238
59 0 237
62 0 237
64 0 236
67 0 235
70 0 234
72 0 233
75 0 233
78 0 231
81 0 230
84 0 229
86 0 228
89 0 227
92 0 226
95 0 224
98 0 223
102 0 221
105 0 220
108 0 218
111 0 216
114 0 214
118 0 212
122 0 210
125 0 207
129 0 205
133 0 202
137 0 199
142 0 195
146 0 191
151 0 187
156 0 182
163 0 175
169 0 168
177 0 158
120 29 91
2 255 0
2 255 0
2 255 0
2 255 0
2 255 0
2 255 0
2 255 0
2 255 0
2 255 0
2 255 0
2 255 0
3 255 0
3 255 0
3 255 0
3 255 0
3 255 0
3 255 0
3 255 0
3 255 0
3 255 0
3 255 0
3 255 0
3 255 0
3 255 0
3 255 0
3 255 0
3 255 0
3 255 0
3 255 0
3 255 0
3 255 0
3 255 0
3 255 0
4 255 0
4 255 0
4 255 0
4 255 0
4 255 0
4 255 0
4 255 0
4 255 0
4 255 0
4 255 0
4 255 0
4 255 0
4 255 0
4 255 0
4 255 0
4 255 0
4 255 0
4 255 0
4 255 0
4 255 0
4 255 0
5 255 0
5 255 0
5 255 0
5 255 0
5 255 0
5 255 0
5 255 0
5 255 0
5 255 0
5 255 0
5 255 0
5 255 0
5 255 0
5 255 0
5 255 0
5 255 0
5 255 0
5 255 0
5 255 0
5 255 0
6 255 0
6 255 0
6 255 0
6 255 0
6 255 0
6 255 0
6 255 0
6 255 0
6 255 0
6 255 0
6 255 0
6 255 0
6 255 0
6 255 0
6 255 0
6 255 0
6 255 0
6 255 0
6 255 0
7 255 0
7 255 0
7 255 0
7 255 0
7 255 0
7 255 0
7 255 0
7 255 0
7 255 0
7 255 0
7 255 0
7 255 0
7 255 0
7 255 0
7 255 0
7 255 0
7 255 0
7 255 0
8 255 0
8 255 0
8 255 0
8 255 0
8 255 0
8 255 0
8 255 0
8 255 0
8 255 0
8 255 0
8 255 0
8 255 0
8 255 0
8 255 0
8 255 0
8 255 0
8 255 0
9 255 0
9 255 0
9 255 0
9 255 0
9 255 0
9 255 0
9 255 0
9 255 0
9 255 0
9 255 0
9 255 0
9 255 0
9 255 0
9 255 0
0 255 0
0 255 0
0 255 0
0 255 0
0 255 0
0 255 0
0 255 0
0 255 0
0 255 0
0 255 0
0 255 0
0 255 0
0 255 0
0 255 0
0 255 0
0 255 0
0 255 0
0 255 0
0 255 0
0 255 0
0 255 0
0 255 0
0 255 0
0 255 0
0 255 0
0 255 0
0 255 0
0 255 0
0 255 0
0 255 0
0 255 0
0 255 0
0 255 0
0 255 0
0 255 0
0 255 0
0 255 0
0 255 0
0 255 0
0 255 0
0 255 0
0 255 0
0 255 0
0 255 0
0 255 0
0 255 0
0 255 0
0 255 0
0 255 0
0 255 0
0 255 0
0 255 0
0 255 0
0 255 0
0 255 0
0 255 0
0 255 0
0 255 0
0 255 0
0 255 0
0 255 0
0 255 0
0 255 0
0 255 0
0 255 0
0 255 0
0 255 0
0 255 0
0 255 0
0 255 0
0 255 0
0 255 0
0 255 0
0 255 0
0 255 0
0 255 0
0 255 0
0 255 0
0 255 0
0 255 0
0 255 0
0 255 0
0 255 0
0 255 0
0 255 0
0 255 0
0 255 0
0 255 0
0 255 0
0 255 0
0 255 0
0 255 0
0 255 0
0 255 0
0 255 0
0 255 0
0 255 0
0 255 0
0 255 0
0 255 0
0 255 0
0 255 0
0 255 0
0 255 0
0 255 0
0 255 0
0 255 0
0 255 0
0 255 0
0 255 0
0 255 0
0 255 0
0 255 0
0 255 0
0 255 0
0 255 0
0 255 0
0 255 0
0 255 0
0 255 0
0 255 0
0 255 0
0 255 0
0 255 0
0 255 0
0 255 0
0 255 0
0 255 0
0 255 0
0 255 0
0 255 0
0 255 0
0 255 0
0 255 0
0 255 0
0 255 0
0 255 0
0 255 0
0 255 0
0 255 0
0 255 0
0 255 0
0 216 13
0 0 148
0 0 163
0 0 172
0 0 179
0 0 184
0 0 189
0 0 193
0 0 196
0 0 200
0 0 203
0 0 206
0 0 208
0 0 210
0 0 213
0 0 215
0 0 217
0 0 218
0 0 220
0 0 221
0 0 223
0 0 225
0 0 226
0 0 227
0 0 228
0 0 229
0 0 231
0 0 232
0 0 232
0 0 233
0 0 234
0 0 235
0 0 236
0 0 237
0 0 237
0 0 238
0 0 239
0 0 239
0 0 240
0 0 240
0 0 241
0 0 241
0 0 242
0 0 242
0 0 242
0 0 243
0 0 243
0 0 243
0 0 244
0 0 244
0 0 244
0 0 244
0 0 244
0 0 244
0 0 245
0 0 245
0 0 245
0 0 245
1 0 245
3 0 245
5 0 245
8 0 245
10 0 244
13 0 244
15 0 244
17 0 244
20 0 244
22 0 244
25 0 243
27 0 243
29 0 243
32 0 242
34 0 242
37 0 242
39 0 241
42 0 241
44 0 240
47 0 240
49 0 239
52 0 239
54 0 238
57 0 237
59 0 237
62 0 236
65 0 235
67 0 234
70 0 233
73 0 232
75 0 231
78 0 230
81 0 229
84 0 228
87 0 227
90 0 226
93 0 224
96 0 223
99 0 221
102 0 220
105 0 218
108 0 216
112 0 215
115 0 213
118 0 211
122 0 208
126 0 205
130 0 202
134 0 200
138 0 196
143 0 193
147 0 189
152 0 184
158 0 178
164 0 172
171 0 164
176 0 145
24 213 14
2 255 0
2 255 0
2 255 0
2 255 0
2 255 0
2 255 0
2 255 0
2 255 0
2 255 0
2 255 0
2 255 0
2 255 0
2 255 0
3 255 0
3 255 0
3 255 0
3 255 0
3 255 0
3 255 0
3 255 0
3 255 0
3 255 0
3 255 0
3 255 0
3 255 0
3 255 0
3 255 0
3 255 0
3 255 0
3 255 0
3 255 0
3 255 0
3 255 0
3 255 0
3 255 0
3 255 0
4 255 0
4 255 0
4 255 0
4 255 0
4 255 0
4 255 0
4 255 0
4 255 0
4 255 0
4 255 0
4 255 0
4 255 0
4 255 0
4 255 0
4 255 0
4 255 0
4 255 0
4 255 0
4 255 0
4 255 0
4 255 0
4 255 0
5 255 0
5 255 0
5 255 0
5 255 0
5 255 0
5 255 0
5 255 0
5 255 0
5 255 0
5 255 0
5 255 0
5 255 0
5 255 0
5 255 0
5 255 0
5 255 0
5 255 0
5 255 0
5 255 0
5 255 0
6 255 0
6 255 0
6 255 0
6 255 0
6 255 0
6 255 0
6 255 0
6 255 0
6 255 0
6 255 0
6 255 0
6 255 0
6 255 0
6 255 0
6 255 0
6 255 0
6 255 0
6 255 0
6 255 0
6 255 0
7 255 0
7 255 0
7 255 0
7 255 0
7 255 0
7 255 0
7 255 0
7 255 0
7 255 0
7 255 0
7 255 0
7 255 0
7 255 0
7 255 0
7 255 0
7 255 0
7 255 0
7 255 0
7 255 0
8 255 0
8 255 0
8 255 0
8 255 0
8 255 0
8 255 0
8 255 0
8 255 0
8 255 0
8 255 0
8 255 0
8 255 0
8 255 0
8 255 0
8 255 0
8 255 0
8 255 0
9 255 0
9 255 0
9 255 0
9 255 0
9 255 0
9 255 0
9 255 0
9 255 0
0 255 0
0 255 0
0 255 0
0 255 0
0 255 0
0 255 0
0 255 0
0 255 0
0 255 0
0 255 0
0 255 0
0 255 0
0 255 0
0 255 0
0 255 0
0 255 0
0 255 0
0 255 0
0 255 0
0 255 0
0 255 0
0 255 0
0 255 0
0 255 0
0 255 0
0 255 0
0 255 0
0 255 0
0 255 0
0 255 0
0 255 0
0 255 0
0 255 0
0 255 0
0 255 0
0 255 0
0 255 0
0 255 0
0 255 0
0 255 0
0 255 0
0 255 0
0 255 0
0 255 0
0 255 0
0 255 0
0 255 0
0 255 0
0 255 0
0 255 0
0 255 0
0 255 0
0 255 0
0 255 0
0 255 0
0 255 0
0 255 0
0 255 0
0 255 0
0 255 0
0 255 0
0 255 0
0 255 0
0 255 0
0 255 0
0 255 0
0 255 0
0 255 0
0 255 0
0 255 0
0 255 0
0 255 0
0 255 0
0 255 0
0 255 0
0 255 0
0 255 0
0 255 0
0 255 0
0 255 0
0 255 0
0 255 0
0 255 0
0 255 0
0 255 0
0 255 0
0 255 0
0 255 0
0 255 0
0 255 0
0 255 0
0 255 0
0 255 0
0 255 0
0 255 0
0 255 0
0 255 0
0 255 0
0 255 0
0 255 0
0 255 0
0 255 0
0 255 0
0 255 0
0 255 0
0 255 0
0 255 0
0 255 0
0 255 0
0 255 0
0 255 0
0 255 0
0 255 0
0 255 0
0 255 0
0 255 0
0 255 0
0 255 0
0 255 0
0 255 0
0 255 0
0 255 0
0 255 0
0 255 0
0 255 0
0 255 0
0 255 0
0 255 0
0 255 0
0 255 0
0 255 0
0 255 0
0 255 0
0 255 0
0 255 0
0 255 0
0 255 0
0 255 0
0 255 0
0 255 0
0 255 0
0 255 0
0 255 0
0 54 79
0 0 156
0 0 167
0 0 175
0 0 181
0 0 186
0 0 190
0 0 194
0 0 198
0 0 201
0 0 204
0 0 206
0 0 209
0 0 211
0 0 213
0 0 215
0 0 217
0 0 219
0 0 220
0 0 222
0 0 223
0 0 225
0 0 226
0 0 227
0 0 228
0 0 229
0 0 231
0 0 231
0 0 232
0 0 233
0 0 234
0 0 235
0 0 236
0 0 236
0 0 237
0 0 238
0 0 238
0 0 239
0 0 239
0 0 240
0 0 240
0 0 241
0 0 241
0 0 242
0 0 242
0 0 242
0 0 242
0 0 243
0 0 243
0 0 243
0 0 243
0 0 244
0 0 244
0 0 244
0 0 244
0 0 244
0 0 244
1 0 244
3 0 244
6 0 244
8 0 244
10 0 244
13 0 244
15 0 243
17 0 243
20 0 243
22 0 243
25 0 242
27 0 242
29 0 242
32 0 242
34 0 241
37 0 241
39 0 240
42 0 240
44 0 239
47 0 239
49 0 238
52 0 238
54 0 237
57 0 236
60 0 236
62 0 235
65 0 234
67 0 233
70 0 232
73 0 231
76 0 230
79 0 229
81 0 228
84 0 227
87 0 226
90 0 225
93 0 223
96 0 222
99 0 220
102 0 219
106 0 217
109 0 215
112 0 213
116 0 211
119 0 209
123 0 206
127 0 204
131 0 201
135 0 198
139 0 194
144 0 190
149 0 186
154 0 181
160 0 175
166 0 167
175 0 157
82 97 61
2 255 0
2 255 0
2 255 0
2 255 0
2 255 0
2 255 0
2 255 0
2 255 0
2 255 0
2 255 0
2 255 0
2 255 0
2 255 0
2 255 0
2 255 0
2 255 0
2 255 0
3 255 0
3 255 0
3 255 0
3 255 0
3 255 0
3 255 0
3 255 0
3 255 0
3 255 0
3 255 0
3 255 0
3 255 0
3 255 0
3 255 0
3 255 0
3 255 0
3 255 0
3 255 0
3 255 0
3 255 0
3 255 0
3 255 0
3 255 0
4 255 0
4 255 0
4 255 0
4 255 0
4 255 0
4 255 0
4 255 0
4 255 0
4 255 0
4 255 0
4 255 0
4 255 0
4 255 0
4 255 0
4 255 0
4 255 0
4 255 0
4 255 0
4 255 0
4 255 0
4 255 0
4 255 0
5 255 0
5 255 0
5 255 0
5 255 0
5 255 0
5 255 0
5 255 0
5 255 0
5 255 0
5 255 0
5 255 0
5 255 0
5 255 0
5 255 0
5 255 0
5 255 0
5 255 0
5 255 0
5 255 0
5 255 0
5 255 0
5 255 0
6 255 0
6 255 0
6 255 0
6 255 0
6 255 0
6 255 0
6 255 0
6 255 0
6 255 0
6 255 0
6 255 0
6 255 0
6 255 0
6 255 0
6 255 0
6 255 0
6 255 0
6 255 0
6 255 0
6 255 0
7 255 0
7 255 0
7 255 0
7 255 0
7 255 0
7 255 0
7 255 0
7 255 0
7 255 0
7 255 0
7 255 0
7 255 0
7 255 0
7 255 0
7 255 0
7 255 0
7 255 0
7 255 0
7 255 0
7 255 0
8 255 0
8 255 0
8 255 0
8 255 0
8 255 0
8 255 0
8 255 0
8 255 0
8 255 0
8 255 0
8 255 0
8 255 0
8 255 0
8 255 0
8 255 0
8 255 0
8 255 0
8 255 0
9 255 0
0 255 0
0 255 0
0 255 0
0 255 0
0 255 0
0 255 0
0 255 0
0 255 0
0 255 0
0 255 0
0 255 0
0 255 0
0 255 0
0 255 0
0 255 0
0 255 0
0 255 0
0 255 0
0 255 0
0 255 0
0 255 0
0 255 0
0 255 0
0 255 0
0 255 0
0 255 0
0 255 0
0 255 0
0 255 0
0 255 0
0 255 0
0 255 0
0 255 0
0 255 0
0 255 0
0 255 0
0 255 0
0 255 0
0 255 0
0 255 0
0 255 0
0 255 0
0 255 0
0 255 0
0 255 0
0 255 0
0 255 0
0 255 0
0 255 0
0 255 0
0 255 0
0 255 0
0 255 0
0 255 0
0 255 0
0 255 0
0 255 0
0 255 0
0 255 0
0 255 0
0 255 0
0 255 0
0 255 0
0 255 0
0 255 0
0 255 0
0 255 0
0 255 0
0 255 0
0 255 0
0 255 0
0 255 0
0 255 0
0 255 0
0 255 0
0 255 0
0 255 0
0 255 0
0 255 0
0 255 0
0 255 0
0 255 0
0 255 0
0 255 0
0 255 0
0 255 0
0 255 0
0 255 0
0 255 0
0 255 0
0 255 0
0 255 0
0 255 0
0 255 0
0 255 0
0 255 0
0 255 0
0 255 0
0 255 0
0 255 0
0 255 0
0 255 0
0 255 0
0 255 0
0 255 0
0 255 0
0 255 0
0 255 0
0 255 0
0 255 0
0 255 0
0 255 0
0 255 0
0 255 0
0 255 0
0 255 0
0 255 0
0 255 0
0 255 0
0 255 0
0 255 0
0 255 0
0 255 0
0 255 0
0 255 0
0 255 0
0 255 0
0 255 0
0 255 0
0 255 0
0 255 0
0 255 0
0 255 0
0 255 0
0 255 0
0 255 0
0 255 0
0 255 0
0 255 0
0 255 0
0 255 0
0 255 0
0 255 0
0 241 3
0 0 138
0 0 162
0 0 170
0 0 177
0 0 183
0 0 188
0 0 192
0 0 195
0 0 199
0 0 202
0 0 204
0 0 207
0 0 209
0 0 211
0 0 213
0 0 215
0 0 217
0 0 219
0 0 221
0 0 222
0 0 223
0 0 225
0 0 226
0 0 227
0 0 228
0 0 229
0 0 230
0 0 231
0 0 232
0 0 233
0 0 234
0 0 235
0 0 235
0 0 236
0 0 237
0 0 237
0 0 238
0 0 238
0 0 239
0 0 239
0 0 240
0 0 240
0 0 241
0 0 241
0 0 241
0 0 242
0 0 242
0 0 242
0 0 242
0 0 243
0 0 243
0 0 243
0 0 243
0 0 243
0 0 243
0 0 243
1 0 243
3 0 243
5 0 243
8 0 243
10 0 243
13 0 243
15 0 243
18 0 242
20 0 242
22 0 242
25 0 242
27 0 241
30 0 241
32 0 241
35 0 240
37 0 240
39 0 239
42 0 239
44 0 238
47 0 238
49 0 237
52 0 237
54 0 236
57 0 235
60 0 235
62 0 234
65 0 233
68 0 232
71 0 231
73 0 230
76 0 229
79 0 228
81 0 227
85 0 226
87 0 225
90 0 223
94 0 222
96 0 221
100 0 219
103 0 217
106 0 216
109 0 213
113 0 212
116 0 209
120 0 207
124 0 204
128 0 202
132 0 199
136 0 195
140 0 191
145 0 188
150 0 183
155 0 177
162 0 170
169 0 161
163 0 134
7 245 2
2 255 0
2 255 0
2 255 0
2 255 0
2 255 0
2 255 0
2 255 0
2 255 0
2 255 0
2 255 0
2 255 0
2 255 0
2 255 0
2 255 0
2 255 0
2 255 0
2 255 0
2 255 0
2 255 0
3 255 0
3 255 0
3 255 0
3 255 0
3 255 0
3 255 0
3 255 0
3 255 0
3 255 0
3 255 0
3 255 0
3 255 0
3 255 0
3 255 0
3 255 0
3 255 0
3 255 0
3 255 0
3 255 0
3 255 0
3 255 0
3 255 0
3 255 0
3 255 0
4 255 0
4 255 0
4 255 0
4 255 0
4 255 0
4 255 0
4 255 0
4 255 0
4 255 0
4 255 0
4 255 0
4 255 0
4 255 0
4 255 0
4 255 0
4 255 0
4 255 0
4 255 0
4 255 0
4 255 0
4 255 0
4 255 0
4 255 0
4 255 0
5 255 0
5 255 0
5 255 0
5 255 0
5 255 0
5 255 0
5 255 0
5 255 0
5 255 0
5 255 0
5 255 0
5 255 0
5 255 0
5 255 0
5 255 0
5 255 0
5 255 0
5 255 0
5 255 0
5 255 0
5 255 0
5 255 0
6 255 0
6 255 0
6 255 0
6 255 0
6 255 0
6 255 0
6 255 0
6 255 0
6 255 0
6 255 0
6 255 0
6 255 0
6 255 0
6 255 0
6 255 0
6 255 0
6 255 0
6 255 0
6 255 0
6 255 0
6 255 0
7 255 0
7 255 0
7 255 0
7 255 0
7 255 0
7 255 0
7 255 0
7 255 0
7 255 0
7 255 0
7 255 0
7 255 0
7 255 0
7 255 0
7 255 0
7 255 0
7 255 0
7 255 0
7 255 0
7 255 0
8 255 0
8 255 0
8 255 0
8 255 0
8 255 0
8 255 0
8 255 0
8 255 0
8 255 0
8 255 0
8 255 0
8 255 0
8 255 0
0 255 0
0 255 0
0 255 0
0 255 0
0 255 0
0 255 0
0 255 0
0 255 0
0 255 0
0 255 0
0 255 0
0 255 0
0 255 0
0 255 0
0 255 0
0 255 0
0 255 0
0 255 0
0 255 0
0 255 0
0 255 0
0 255 0
0 255 0
0 255 0
0 255 0
0 255 0
0 255 0
0 255 0
0 255 0
0 255 0
0 255 0
0 255 0
0 255 0
0 255 0
0 255 0
0 255 0
0 255 0
0 255 0
0 255 0
0 255 0
0 255 0
0 255 0
0 255 0
0 255 0
0 255 0
0 255 0
0 255 0
0 255 0
0 255 0
0 255 0
0 255 0
0 255 0
0 255 0
0 255 0
0 255 0
0 255 0
0 255 0
0 255 0
0 255 0
0 255 0
0 255 0
0 255 0
0 255 0
0 255 0
0 255 0
0 255 0
0 255 0
0 255 0
0 255 0
0 255 0
0 255 0
0 255 0
0 255 0
0 255 0
0 255 0
0 255 0
0 255 0
0 255 0
0 255 0
0 255 0
0 255 0
0 255 0
0 255 0
0 255 0
0 255 0
0 255 0
0 255 0
0 255 0
0 255 0
0 255 0
0 255 0
0 255 0
0 255 0
0 255 0
0 255 0
0 255 0
0 255 0
0 255 0
0 255 0
0 255 0
0 255 0
0 255 0
0 255 0
0 255 0
0 255 0
0 255 0
0 255 0
0 255 0
0 255 0
0 255 0
0 255 0
0 255 0
0 255 0
0 255 0
0 255 0
0 255 0
0 255 0
0 255 0
0 255 0
0 255 0
0 255 0
0 255 0
0 255 0
0 255 0
0 255 0
0 255 0
0 255 0
0 255 0
0 255 0
0 255 0
0 255 0
0 255 0
0 255 0
0 255 0
0 255 0
0 255 0
0 255 0
0 255 0
0 255 0
0 255 0
0 255 0
0 255 0
0 255 0
0 255 0
0 105 56
0 0 154
0 0 164
0 0 173
0 0 179
0 0 185
0 0 189
0 0 193
0 0 197
0 0 200
0 0 202
0 0 205
0 0 208
0 0 210
0 0 212
0 0 214
0 0 216
0 0 217
0 0 219
0 0 221
0 0 222
0 0 223
0 0 225
0 0 226
0 0 227
0 0 228
0 0 229
0 0 230
0 0 231
0 0 232
0 0 233
0 0 234
0 0 234
0 0 235
0 0 236
0 0 236
0 0 237
0 0 237
0 0 238
0 0 239
0 0 239
0 0 239
0 0 240
0 0 240
0 0 240
0 0 241
0 0 241
0 0 241
0 0 242
0 0 242
0 0 242
0 0 242
0 0 242
0 0 242
0 0 242
0 0 242
1 0 242
3 0 242
6 0 242
8 0 242
10 0 242
13 0 242
15 0 242
18 0 241
20 0 241
22 0 241
25 0 241
27 0 240
30 0 240
32 0 240
35 0 239
37 0 239
40 0 239
42 0 238
44 0 238
47 0 237
50 0 236
52 0 236
55 0 235
57 0 234
60 0 234
63 0 233
65 0 232
68 0 231
71 0 230
74 0 229
76 0 228
79 0 227
82 0 226
85 0 225
88 0 223
91 0 222
94 0 221
97 0 219
100 0 217
103 0 216
107 0 214
110 0 212
113 0 210
117 0 208
121 0 205
124 0 203
129 0 199
132 0 196
137 0 193
141 0 189
146 0 184
151 0 179
157 0 173
164 0 165
173 0 153
59 138 44
2 255 0
2 255 0
2 255 0
2 255 0
2 255 0
2 255 0
2 255 0
2 255 0
2 255 0
2 255 0
2 255 0
2 255 0
2 255 0
2 255 0
2 255 0
2 255 0
2 255 0
2 255 0
2 255 0
2 255 0
2 255 0
2 255 0
3 255 0
3 255 0
3 255 0
3 255 0
3 255 0
3 255 0
3 255 0
3 255 0
3 255 0
3 255 0
3 255 0
3 255 0
3 255 0
3 255 0
3 255 0
3 255 0
3 255 0
3 255 0
3 255 0
3 255 0
3 255 0
3 255 0
3 255 0
3 255 0
3 255 0
4 255 0
4 255 0
4 255 0
4 255 0
4 255 0
4 255 0
4 255 0
4 255 0
4 255 0
4 255 0
4 255 0
4 255 0
4 255 0
4 255 0
4 255 0
4 255 0
4 255 0
4 255 0
4 255 0
4 255 0
4 255 0
4 255 0
4 255 0
4 255 0
5 255 0
5 255 0
5 255 0
5 255 0
5 255 0
5 255 0
5 255 0
5 255 0
5 255 0
5 255 0
5 255 0
5 255 0
5 255 0
5 255 0
5 255 0
5 255 0
5 255 0
5 255 0
5 255 0
5 255 0
5 255 0
5 255 0
5 255 0
5 255 0
6 255 0
6 255 0
6 255 0
6 255 0
6 255 0
6 255 0
6 255 0
6 255 0
6 255 0
6 255 0
6 255 0
6 255 0
6 255 0
6 255 0
6 255 0
6 255 0
6 255 0
6 255 0
6 255 0
6 255 0
6 255 0
7 255 0
7 255 0
7 255 0
7 255 0
7 255 0
7 255 0
7 255 0
7 255 0
7 255 0
7 255 0
7 255 0
7 255 0
7 255 0
7 255 0
7 255 0
7 255 0
7 255 0
7 255 0
7 255 0
7 255 0
8 255 0
8 255 0
8 255 0
8 255 0
8 255 0
8 255 0
8 255 0
8 255 0
0 255 0
0 255 0
0 255 0
0 255 0
0 255 0
0 255 0
0 255 0
0 255 0
0 255 0
0 255 0
0 255 0
0 255 0
0 255 0
0 255 0
0 255 0
0 255 0
0 255 0
0 255 0
0 255 0
0 255 0
0 255 0
0 255 0
0 255 0
0 255 0
0 255 0
0 255 0
0 255 0
0 255 0
0 255 0
0 255 0
0 255 0
0 255 0
0 255 0
0 255 0
0 255 0
0 255 0
0 255 0
0 255 0
0 255 0
0 255 0
0 255 0
0 255 0
0 255 0
0 255 0
0 255 0
0 255 0
0 255 0
0 255 0
0 255 0
0 255 0
0 255 0
0 255 0
0 255 0
0 255 0
0 255 0
0 255 0
0 255 0
0 255 0
0 255 0
0 255 0
0 255 0
0 255 0
0 255 0
0 255 0
0 255 0
0 255 0
0 255 0
0 255 0
0 255 0
0 255 0
0 255 0
0 255 0
0 255 0
0 255 0
0 255 0
0 255 0
0 255 0
0 255 0
0 255 0
0 255 0
0 255 0
0 255 0
0 255 0
0 255 0
0 255 0
0 255 0
0 255 0
0 255 0
0 255 0
0 255 0
0 255 0
0 255 0
0 255 0
0 255 0
0 255 0
0 255 0
0 255 0
0 255 0
0 255 0
0 255 0
0 255 0
0 255 0
0 255 0
0 255 0
0 255 0
0 255 0
0 255 0
0 255 0
0 255 0
0 255 0
0 255 0
0 255 0
0 255 0
0 255 0
0 255 0
0 255 0
0 255 0
0 255 0
0 255 0
0 255 0
0 255 0
0 255 0
0 255 0
0 255 0
0 255 0
0 255 0
0 255 0
0 255 0
0 255 0
0 255 0
0 255 0
0 255 0
0 255 0
0 255 0
0 255 0
0 255 0
0 255 0
0 255 0
0 255 0
0 255 0
0 255 0
0 255 0
0 255 0
0 255 0
0 255 0
0 23 91
0 0 158
0 0 168
0 0 176
0 0 181
0 0 186
0 0 190
0 0 194
0 0 197
0 0 200
0 0 203
0 0 206
0 0 208
0 0 210
0 0 212
0 0 214
0 0 216
0 0 218
0 0 219
0 0 221
0 0 222
0 0 224
0 0 225
0 0 226
0 0 227
0 0 228
0 0 229
0 0 230
0 0 231
0 0 232
0 0 233
0 0 233
0 0 234
0 0 235
0 0 235
0 0 236
0 0 236
0 0 237
0 0 238
0 0 238
0 0 238
0 0 239
0 0 239
0 0 240
0 0 240
0 0 240
0 0 240
0 0 241
0 0 241
0 0 241
0 0 241
0 0 241
0 0 241
0 0 241
0 0 241
1 0 241
3 0 241
6 0 241
8 0 241
10 0 241
13 0 241
15 0 241
18 0 241
20 0 240
22 0 240
25 0 240
27 0 239
30 0 239
32 0 239
35 0 238
37 0 238
40 0 237
42 0 237
45 0 237
47 0 236
50 0 235
52 0 235
55 0 234
58 0 233
60 0 233
63 0 232
66 0 231
68 0 230
71 0 229
74 0 228
77 0 227
79 0 226
82 0 225
85 0 223
88 0 222
91 0 221
94 0 219
98 0 218
101 0 216
104 0 214
107 0 212
111 0 210
114 0 208
118 0 206
121 0 203
125 0 200
130 0 197
133 0 194
138 0 190
143 0 186
148 0 181
154 0 175
159 0 168
167 0 159
122 0 99
2 255 0
2 255 0
2 255 0
2 255 0
2 255 0
2 255 0
2 255 0
2 255 0
2 255 0
2 255 0
2 255 0
2 255 0
2 255 0
2 255 0
2 255 0
2 255 0
2 255 0
2 255 0
2 255 0
2 255 0
2 255 0
2 255 0
2 255 0
2 255 0
2 255 0
2 255 0
3 255 0
3 255 0
3 255 0
3 255 0
3 255 0
3 255 0
3 255 0
3 255 0
3 255 0
3 255 0
3 255 0
3 255 0
3 255 0
3 255 0
3 255 0
3 255 0
3 255 0
3 255 0
3 255 0
3 255 0
3 255 0
3 255 0
3 255 0
3 255 0
3 255 0
4 255 0
4 255 0
4 255 0
4 255 0
4 255 0
4 255 0
4 255 0
4 255 0
4 255 0
4 255 0
4 255 0
4 255 0
4 255 0
4 255 0
4 255 0
4 255 0
4 255 0
4 255 0
4 255 0
4 255 0
4 255 0
4 255 0
4 255 0
4 255 0
4 255 0
5 255 0
5 255 0
5 255 0
5 255 0
5 255 0
5 255 0
5 255 0
5 255 0
5 255 0
5 255 0
5 255 0
5 255 0
5 255 0
5 255 0
5 255 0
5 255 0
5 255 0
5 255 0
5 255 0
5 255 0
5 255 0
5 255 0
5 255 0
5 255 0
6 255 0
6 255 0
6 255 0
6 255 0
6 255 0
6 255 0
6 255 0
6 255 0
6 255 0
6 255 0
6 255 0
6 255 0
6 255 0
6 255 0
6 255 0
6 255 0
6 255 0
6 255 0
6 255 0
6 255 0
6 255 0
6 255 0
7 255 0
7 255 0
7 255 0
7 255 0
7 255 0
7 255 0
7 255 0
7 255 0
7 255 0
7 255 0
7 255 0
7 255 0
7 255 0
7 255 0
7 255 0
7 255 0
7 255 0
7 255 0
7 255 0
7 255 0
7 255 0
8 255 0
8 255 0
0 255 0
0 255 0
0 255 0
0 255 0
0 255 0
0 255 0
0 255 0
0 255 0
0 255 0
0 255 0
0 255 0
0 255 0
0 255 0
0 255 0
0 255 0
0 255 0
0 255 0
0 255 0
0 255 0
0 255 0
0 255 0
0 255 0
0 255 0
0 255 0
0 255 0
0 255 0
0 255 0
0 255 0
0 255 0
0 255 0
0 255 0
0 255 0
0 255 0
0 255 0
0 255 0
0 255 0
0 255 0
0 255 0
0 255 0
0 255 0
0 255 0
0 255 0
0 255 0
0 255 0
0 255 0
0 255 0
0 255 0
0 255 0
0 255 0
0 255 0
0 255 0
0 255 0
0 255 0
0 255 0
0 255 0
0 255 0
0 255 0
0 255 0
0 255 0
0 255 0
0 255 0
0 255 0
0 255 0
0 255 0
0 255 0
0 255 0
0 255 0
0 255 0
0 255 0
0 255 0
0 255 0
0 255 0
0 255 0
0 255 0
0 255 0
0 255 0
0 255 0
0 255 0
0 255 0
0 255 0
0 255 0
0 255 0
0 255 0
0 255 0
0 255 0
0 255 0
0 255 0
0 255 0
0 255 0
0 255 0
0 255 0
0 255 0
0 255 0
0 255 0
0 255 0
0 255 0
0 255 0
0 255 0
0 255 0
0 255 0
0 255 0
0 255 0
0 255 0
0 255 0
0 255 0
0 255 0
0 255 0
0 255 0
0 255 0
0 255 0
0 255 0
0 255 0
0 255 0
0 255 0
0 255 0
0 255 0
0 255 0
0 255 0
0 255 0
0 255 0
0 255 0
0 255 0
0 255 0
0 255 0
0 255 0
0 255 0
0 255 0
0 255 0
0 255 0
0 255 0
0 255 0
0 255 0
0 255 0
0 255 0
0 255 0
0 255 0
0 255 0
0 255 0
0 255 0
0 255 0
0 255 0
0 255 0
0 255 0
0 255 0
0 255 0
0 196 20
0 0 142
0 0 162
0 0 171
0 0 177
0 0 183
0 0 187
0 0 191
0 0 195
0 0 198
0 0 201
0 0 204
0 0 206
0 0 208
0 0 210
0 0 212
0 0 214
0 0 216
0 0 218
0 0 219
0 0 221
0 0 222
0 0 223
0 0 225
0 0 226
0 0 227
0 0 228
0 0 229
0 0 230
0 0 230
0 0 232
0 0 232
0 0 233
0 0 234
0 0 234
0 0 235
0 0 235
0 0 236
0 0 236
0 0 237
0 0 237
0 0 238
0 0 238
0 0 238
0 0 239
0 0 239
0 0 239
0 0 240
0 0 240
0 0 240
0 0 240
0 0 240
0 0 240
0 0 240
0 0 240
1 0 240
3 0 240
6 0 240
8 0 240
10 0 240
13 0 240
15 0 240
18 0 240
20 0 239
23 0 239
25 0 239
27 0 239
30 0 238
32 0 238
35 0 237
37 0 237
40 0 236
42 0 236
45 0 235
47 0 235
50 0 234
53 0 234
55 0 233
58 0 232
60 0 231
63 0 231
66 0 230
69 0 229
71 0 228
74 0 227
77 0 226
80 0 225
83 0 223
86 0 222
89 0 221
92 0 219
95 0 218
98 0 216
101 0 214
104 0 213
108 0 210
112 0 208
115 0 206
119 0 204
122 0 201
126 0 198
130 0 195
135 0 191
140 0 187
144 0 182
150 0 177
156 0 171
163 0 162
163 0 141
23 210 15
1 255 0
2 255 0
2 255 0
2 255 0
2 255 0
2 255 0
2 255 0
2 255 0
2 255 0
2 255 0
2 255 0
2 255 0
2 255 0
2 255 0
2 255 0
2 255 0
2 255 0
2 255 0
2 255 0
2 255 0
2 255 0
2 255 0
2 255 0
2 255 0
2 255 0
2 255 0
2 255 0
2 255 0
3 255 0
3 255 0
3 255 0
3 255 0
3 255 0
3 255 0
3 255 0
3 255 0
3 255 0
3 255 0
3 255 0
3 255 0
3 255 0
3 255 0
3 255 0
3 255 0
3 255 0
3 255 0
3 255 0
3 255 0
3 255 0
3 255 0
3 255 0
3 255 0
3 255 0
3 255 0
4 255 0
4 255 0
4 255 0
4 255 0
4 255 0
4 255 0
4 255 0
4 255 0
4 255 0
4 255 0
4 255 0
4 255 0
4 255 0
4 255 0
4 255 0
4 255 0
4 255 0
4 255 0
4 255 0
4 255 0
4 255 0
4 255 0
4 255 0
4 255 0
4 255 0
4 255 0
5 255 0
5 255 0
5 255 0
5 255 0
5 255 0
5 255 0
5 255 0
5 255 0
5 255 0
5 255 0
5 255 0
5 255 0
5 255 0
5 255 0
5 255 0
5 255 0
5 255 0
5 255 0
5 255 0
5 255 0
5 255 0
5 255 0
5 255 0
5 255 0
6 255 0
6 255 0
6 255 0
6 255 0
6 255 0
6 255 0
6 255 0
6 255 0
6 255 0
6 255 0
6 255 0
6 255 0
6 255 0
6 255 0
6 255 0
6 255 0
6 255 0
6 255 0
6 255 0
6 255 0
6 255 0
6 255 0
6 255 0
7 255 0
7 255 0
7 255 0
7 255 0
7 255 0
7 255 0
7 255 0
7 255 0
7 255 0
7 255 0
7 255 0
7 255 0
7 255 0
7 255 0
7 255 0
7 255 0
7 255 0
7 255 0
0 255 0
0 255 0
0 255 0
0 255 0
0 255 0
0 255 0
0 255 0
0 255 0
0 255 0
0 255 0
0 255 0
0 255 0
0 255 0
0 255 0
0 255 0
0 255 0
0 255 0
0 255 0
0 255 0
0 255 0
0 255 0
0 255 0
0 255 0
0 255 0
0 255 0
0 255 0
0 255 0
0 255 0
0 255 0
0 255 0
0 255 0
0 255 0
0 255 0
0 255 0
0 255 0
0 255 0
0 255 0
0 255 0
0 255 0
0 255 0
0 255 0
0 255 0
0 255 0
0 255 0
0 255 0
0 255 0
0 255 0
0 255 0
0 255 0
0 255 0
0 255 0
0 255 0
0 255 0
0 255 0
0 255 0
0 255 0
0 255 0
0 255 0
0 255 0
0 255 0
0 255 0
0 255 0
0 255 0
0 255 0
0 255 0
0 255 0
0 255 0
0 255 0
0 255 0
0 255 0
0 255 0
0 255 0
0 255 0
0 255 0
0 255 0
0 255 0
0 255 0
0 255 0
0 255 0
0 255 0
0 255 0
0 255 0
0 255 0
0 255 0
0 255 0
0 255 0
0 255 0
0 255 0
0 255 0
0 255 0
0 255 0
0 255 0
0 255 0
0 255 0
0 255 0
0 255 0
0 255 0
0 255 0
0 255 0
0 255 0
0 255 0
0 255 0
0 255 0
0 255 0
0 255 0
0 255 0
0 255 0
0 255 0
0 255 0
0 255 0
0 255 0
0 255 0
0 255 0
0 255 0
0 255 0
0 255 0
0 255 0
0 255 0
0 255 0
0 255 0
0 255 0
0 255 0
0 255 0
0 255 0
0 255 0
0 255 0
0 255 0
0 255 0
0 255 0
0 255 0
0 255 0
0 255 0
0 255 0
0 255 0
0 255 0
0 255 0
0 255 0
0 255 0
0 255 0
0 255 0
0 255 0
0 255 0
0 255 0
0 255 0
0 255 0
0 255 0
0 93 59
0 0 153
0 0 165
0 0 173
0 0 179
0 0 184
0 0 188
0 0 192
0 0 195
0 0 199
0 0 201
0 0 204
0 0 206
0 0 209
0 0 211
0 0 213
0 0 214
0 0 216
0 0 218
0 0 219
0 0 221
0 0 222
0 0 223
0 0 224
0 0 226
0 0 226
0 0 228
0 0 228
0 0 229
0 0 230
0 0 231
0 0 232
0 0 232
0 0 233
0 0 234
0 0 234
0 0 235
0 0 235
0 0 236
0 0 236
0 0 237
0 0 237
0 0 237
0 0 238
0 0 238
0 0 238
0 0 239
0 0 239
0 0 239
0 0 239
0 0 239
0 0 239
0 0 239
0 0 239
1 0 239
3 0 239
5 0 239
8 0 239
10 0 239
13 0 239
15 0 239
18 0 239
20 0 238
23 0 238
25 0 238
28 0 237
30 0 237
32 0 237
35 0 236
38 0 236
40 0 235
43 0 235
45 0 234
48 0 234
50 0 233
53 0 232
56 0 232
58 0 231
61 0 230
63 0 229
66 0 228
69 0 228
72 0 227
74 0 226
77 0 224
80 0 223
83 0 222
86 0 220
89 0 219
92 0 218
95 0 216
99 0 214
102 0 213
105 0 211
108 0 209
112 0 206
115 0 204
119 0 201
123 0 198
127 0 196
131 0 192
136 0 188
141 0 184
146 0 179
152 0 173
158 0 165
167 0 153
59 131 45
1 255 0
1 255 0
1 255 0
2 255 0
2 255 0
2 255 0
2 255 0
2 255 0
2 255 0
2 255 0
2 255 0
2 255 0
2 255 0
2 255 0
2 255 0
2 255 0
2 255 0
2 255 0
2 255 0
2 255 0
2 255 0
2 255 0
2 255 0
2 255 0
2 255 0
2 255 0
2 255 0
2 255 0
2 255 0
2 255 0
2 255 0
3 255 0
3 255 0
3 255 0
3 255 0
3 255 0
3 255 0
3 255 0
3 255 0
3 255 0
3 255 0
3 255 0
3 255 0
3 255 0
3 255 0
3 255 0
3 255 0
3 255 0
3 255 0
3 255 0
3 255 0
3 255 0
3 255 0
3 255 0
3 255 0
3 255 0
3 255 0
3 255 0
3 255 0
4 255 0
4 255 0
4 255 0
4 255 0
4 255 0
4 255 0
4 255 0
4 255 0
4 255 0
4 255 0
4 255 0
4 255 0
4 255 0
4 255 0
4 255 0
4 255 0
4 255 0
4 255 0
4 255 0
4 255 0
4 255 0
4 255 0
4 255 0
4 255 0
4 255 0
4 255 0
5 255 0
5 255 0
5 255 0
5 255 0
5 255 0
5 255 0
5 255 0
5 255 0
5 255 0
5 255 0
5 255 0
5 255 0
5 255 0
5 255 0
5 255 0
5 255 0
5 255 0
5 255 0
5 255 0
5 255 0
5 255 0
5 255 0
5 255 0
5 255 0
5 255 0
6 255 0
6 255 0
6 255 0
6 255 0
6 255 0
6 255 0
6 255 0
6 255 0
6 255 0
6 255 0
6 255 0
6 255 0
6 255 0
6 255 0
6 255 0
6 255 0
6 255 0
6 255 0
6 255 0
6 255 0
6 255 0
6 255 0
6 255 0
7 255 0
7 255 0
7 255 0
7 255 0
7 255 0
7 255 0
7 255 0
7 255 0
7 255 0
7 255 0
7 255 0
7 255 0
7 255 0
0 255 0
0 255 0
0 255 0
0 255 0
0 255 0
0 255 0
0 255 0
0 255 0
0 255 0
0 255 0
0 255 0
0 255 0
0 255 0
0 255 0
0 255 0
0 255 0
0 255 0
0 255 0
0 255 0
0 255 0
0 255 0
0 255 0
0 255 0
0 255 0
0 255 0
0 255 0
0 255 0
0 255 0
0 255 0
0 255 0
0 255 0
0 255 0
0 255 0
0 255 0
0 255 0
0 255 0
0 255 0
0 255 0
0 255 0
0 255 0
0 255 0
0 255 0
0 255 0
0 255 0
0 255 0
0 255 0
0 255 0
0 255 0
0 255 0
0 255 0
0 255 0
0 255 0
0 255 0
0 255 0
0 255 0
0 255 0
0 255 0
0 255 0
0 255 0
0 255 0
0 255 0
0 255 0
0 255 0
0 255 0
0 255 0
0 255 0
0 255 0
0 255 0
0 255 0
0 255 0
0 255 0
0 255 0
0 255 0
0 255 0
0 255 0
0 255 0
0 255 0
0 255 0
0 255 0
0 255 0
0 255 0
0 255 0
0 255 0
0 255 0
0 255 0
0 255 0
0 255 0
0 255 0
0 255 0
0 255 0
0 255 0
0 255 0
0 255 0
0 255 0
0 255 0
0 255 0
0 255 0
0 255 0
0 255 0
0 255 0
0 255 0
0 255 0
0 255 0
0 255 0
0 255 0
0 255 0
0 255 0
0 255 0
0 255 0
0 255 0
0 255 0
0 255 0
0 255 0
0 255 0
0 255 0
0 255 0
0 255 0
0 255 0
0 255 0
0 255 0
0 255 0
0 255 0
0 255 0
0 255 0
0 255 0
0 255 0
0 255 0
0 255 0
0 255 0
0 255 0
0 255 0
0 255 0
0 255 0
0 255 0
0 255 0
0 255 0
0 255 0
0 255 0
0 255 0
0 255 0
0 255 0
0 255 0
0 255 0
0 255 0
0 255 0
0 255 0
0 255 0
0 0 101
0 0 157
0 0 166
0 0 174
0 0 180
0 0 185
0 0 189
0 0 193
0 0 196
0 0 199
0 0 202
0 0 204
0 0 206
0 0 209
0 0 211
0 0 213
0 0 214
0 0 216
0 0 218
0 0 219
0 0 220
0 0 222
0 0 223
0 0 224
0 0 225
0 0 226
0 0 227
0 0 228
0 0 229
0 0 230
0 0 230
0 0 231
0 0 232
0 0 233
0 0 233
0 0 234
0 0 234
0 0 235
0 0 235
0 0 236
0 0 236
0 0 236
0 0 237
0 0 237
0 0 237
0 0 238
0 0 238
0 0 238
0 0 238
0 0 238
0 0 238
0 0 238
0 0 238
1 0 238
3 0 238
6 0 238
8 0 238
10 0 238
13 0 238
15 0 238
18 0 238
20 0 237
23 0 237
25 0 237
28 0 236
30 0 236
32 0 236
35 0 235
38 0 235
40 0 234
43 0 234
45 0 233
48 0 232
50 0 232
53 0 231
56 0 230
58 0 230
61 0 229
64 0 228
66 0 227
69 0 226
72 0 225
75 0 224
78 0 223
81 0 222
84 0 220
86 0 219
89 0 218
93 0 216
96 0 214
99 0 213
103 0 211
106 0 209
109 0 207
113 0 204
117 0 202
120 0 199
124 0 196
128 0 193
133 0 189
137 0 185
142 0 180
148 0 174
154 0 167
161 0 158
103 27 85
1 255 0
1 255 0
1 255 0
1 255 0
1 255 0
1 255 0
2 255 0
2 255 0
2 255 0
2 255 0
2 255 0
2 255 0
2 255 0
2 255 0
2 255 0
2 255 0
2 255 0
2 255 0
2 255 0
2 255 0
2 255 0
2 255 0
2 255 0
2 255 0
2 255 0
2 255 0
2 255 0
2 255 0
2 255 0
2 255 0
2 255 0
2 255 0
2 255 0
2 255 0
2 255 0
3 255 0
3 255 0
3 255 0
3 255 0
3 255 0
3 255 0
3 255 0
3 255 0
3 255 0
3 255 0
3 255 0
3 255 0
3 255 0
3 255 0
3 255 0
3 255 0
3 255 0
3 255 0
3 255 0
3 255 0
3 255 0
3 255 0
3 255 0
3 255 0
3 255 0
3 255 0
3 255 0
3 255 0
4 255 0
4 255 0
4 255 0
4 255 0
4 255 0
4 255 0
4 255 0
4 255 0
4 255 0
4 255 0
4 255 0
4 255 0
4 255 0
4 255 0
4 255 0
4 255 0
4 255 0
4 255 0
4 255 0
4 255 0
4 255 0
4 255 0
4 255 0
4 255 0
4 255 0
4 255 0
5 255 0
5 255 0
5 255 0
5 255 0
5 255 0
5 255 0
5 255 0
5 255 0
5 255 0
5 255 0
5 255 0
5 255 0
5 255 0
5 255 0
5 255 0
5 255 0
5 255 0
5 255 0
5 255 0
5 255 0
5 255 0
5 255 0
5 255 0
5 255 0
5 255 0
5 255 0
6 255 0
6 255 0
6 255 0
6 255 0
6 255 0
6 255 0
6 255 0
6 255 0
6 255 0
6 255 0
6 255 0
6 255 0
6 255 0
6 255 0
6 255 0
6 255 0
6 255 0
6 255 0
6 255 0
6 255 0
6 255 0
6 255 0
6 255 0
6 255 0
7 255 0
7 255 0
7 255 0
7 255 0
7 255 0
7 255 0
7 255 0
7 255 0
0 255 0
0 255 0
0 255 0
0 255 0
0 255 0
0 255 0
0 255 0
0 255 0
0 255 0
0 255 0
0 255 0
0 255 0
0 255 0
0 255 0
0 255 0
0 255 0
0 255 0
0 255 0
0 255 0
0 255 0
0 255 0
0 255 0
0 255 0
0 255 0
0 255 0
0 255 0
0 255 0
0 255 0
0 255 0
0 255 0
0 255 0
0 255 0
0 255 0
0 255 0
0 255 0
0 255 0
0 255 0
0 255 0
0 255 0
0 255 0
0 255 0
0 255 0
0 255 0
0 255 0
0 255 0
0 255 0
0 255 0
0 255 0
0 255 0
0 255 0
0 255 0
0 255 0
0 255 0
0 255 0
0 255 0
0 255 0
0 255 0
0 255 0
0 255 0
0 255 0
0 255 0
0 255 0
0 255 0
0 255 0
0 255 0
0 255 0
0 255 0
0 255 0
0 255 0
0 255 0
0 255 0
0 255 0
0 255 0
0 255 0
0 255 0
0 255 0
0 255 0
0 255 0
0 255 0
0 255 0
0 255 0
0 255 0
0 255 0
0 255 0
0 255 0
0 255 0
0 255 0
0 255 0
0 255 0
0 255 0
0 255 0
0 255 0
0 255 0
0 255 0
0 255 0
0 255 0
0 255 0
0 255 0
0 255 0
0 255 0
0 255 0
0 255 0
0 255 0
0 255 0
0 255 0
0 255 0
0 255 0
0 255 0
0 255 0
0 255 0
0 255 0
0 255 0
0 255 0
0 255 0
0 255 0
0 255 0
0 255 0
0 255 0
0 255 0
0 255 0
0 255 0
0 255 0
0 255 0
0 255 0
0 255 0
0 255 0
0 255 0
0 255 0
0 255 0
0 255 0
0 255 0
0 255 0
0 255 0
0 255 0
0 255 0
0 255 0
0 255 0
0 255 0
0 255 0
0 255 0
0 255 0
0 255 0
0 255 0
0 255 0
0 255 0
0 255 0
0 255 0
0 232 6
0 0 136
0 0 160
0 0 169
0 0 175
0 0 181
0 0 185
0 0 190
0 0 193
0 0 196
0 0 199
0 0 202
0 0 204
0 0 207
0 0 209
0 0 211
0 0 213
0 0 214
0 0 216
0 0 217
0 0 219
0 0 220
0 0 221
0 0 223
0 0 224
0 0 225
0 0 226
0 0 227
0 0 228
0 0 228
0 0 229
0 0 230
0 0 231
0 0 231
0 0 232
0 0 233
0 0 233
0 0 234
0 0 234
0 0 234
0 0 235
0 0 235
0 0 236
0 0 236
0 0 236
0 0 236
0 0 237
0 0 237
0 0 237
0 0 237
0 0 237
0 0 237
0 0 237
1 0 237
3 0 237
6 0 237
8 0 237
11 0 237
13 0 237
15 0 237
18 0 236
20 0 236
23 0 236
25 0 236
28 0 235
30 0 235
33 0 234
35 0 234
38 0 234
40 0 233
43 0 233
46 0 232
48 0 231
51 0 231
53 0 230
56 0 229
59 0 228
61 0 228
64 0 227
67 0 226
70 0 225
72 0 224
75 0 223
78 0 221
81 0 220
84 0 219
87 0 217
90 0 216
93 0 214
96 0 213
100 0 211
103 0 209
107 0 207
110 0 204
114 0 202
118 0 199
121 0 196
125 0 193
130 0 190
134 0 186
139 0 181
145 0 175
150 0 169
158 0 159
147 0 129
18 217 12
1 255 0
1 255 0
1 255 0
1 255 0
1 255 0
1 255 0
1 255 0
2 255 0
2 255 0
2 255 0
2 255 0
2 255 0
2 255 0
2 255 0
2 255 0
2 255 0
2 255 0
2 255 0
2 255 0
2 255 0
2 255 0
2 255 0
2 255 0
2 255 0
2 255 0
2 255 0
2 255 0
2 255 0
2 255 0
2 255 0
2 255 0
2 255 0
2 255 0
2 255 0
2 255 0
2 255 0
2 255 0
3 255 0
3 255 0
3 255 0
3 255 0
3 255 0
3 255 0
3 255 0
3 255 0
3 255 0
3 255 0
3 255 0
3 255 0
3 255 0
3 255 0
3 255 0
3 255 0
3 255 0
3 255 0
3 255 0
3 255 0
3 255 0
3 255 0
3 255 0
3 255 0
3 255 0
3 255 0
3 255 0
3 255 0
3 255 0
4 255 0
4 255 0
4 255 0
4 255 0
4 255 0
4 255 0
4 255 0
4 255 0
4 255 0
4 255 0
4 255 0
4 255 0
4 255 0
4 255 0
4 255 0
4 255 0
4 255 0
4 255 0
4 255 0
4 255 0
4 255 0
4 255 0
4 255 0
4 255 0
4 255 0
4 255 0
4 255 0
5 255 0
5 255 0
5 255 0
5 255 0
5 255 0
5 255 0
5 255 0
5 255 0
5 255 0
5 255 0
5 255 0
5 255 0
5 255 0
5 255 0
5 255 0
5 255 0
5 255 0
5 255 0
5 255 0
5 255 0
5 255 0
5 255 0
5 255 0
5 255 0
5 255 0
5 255 0
5 255 0
6 255 0
6 255 0
6 255 0
6 255 0
6 255 0
6 255 0
6 255 0
6 255 0
6 255 0
6 255 0
6 255 0
6 255 0
6 255 0
6 255 0
6 255 0
6 255 0
6 255 0
6 255 0
6 255 0
6 255 0
6 255 0
6 255 0
6 255 0
6 255 0
6 255 0
7 255 0
7 255 0
0 255 0
0 255 0
0 255 0
0 255 0
0 255 0
0 255 0
0 255 0
0 255 0
0 255 0
0 255 0
0 255 0
0 255 0
0 255 0
0 255 0
0 255 0
0 255 0
0 255 0
0 255 0
0 255 0
0 255 0
0 255 0
0 255 0
0 255 0
0 255 0
0 255 0
0 255 0
0 255 0
0 255 0
0 255 0
0 255 0
0 255 0
0 255 0
0 255 0
0 255 0
0 255 0
0 255 0
0 255 0
0 255 0
0 255 0
0 255 0
0 255 0
0 255 0
0 255 0
0 255 0
0 255 0
0 255 0
0 255 0
0 255 0
0 255 0
0 255 0
0 255 0
0 255 0
0 255 0
0 255 0
0 255 0
0 255 0
0 255 0
0 255 0
0 255 0
0 255 0
0 255 0
0 255 0
0 255 0
0 255 0
0 255 0
0 255 0
0 255 0
0 255 0
0 255 0
0 255 0
0 255 0
0 255 0
0 255 0
0 255 0
0 255 0
0 255 0
0 255 0
0 255 0
0 255 0
0 255 0
0 255 0
0 255 0
0 255 0
0 255 0
0 255 0
0 255 0
0 255 0
0 255 0
0 255 0
0 255 0
0 255 0
0 255 0
0 255 0
0 255 0
0 255 0
0 255 0
0 255 0
0 255 0
0 255 0
0 255 0
0 255 0
0 255 0
0 255 0
0 255 0
0 255 0
0 255 0
0 255 0
0 255 0
0 255 0
0 255 0
0 255 0
0 255 0
0 255 0
0 255 0
0 255 0
0 255 0
0 255 0
0 255 0
0 255 0
0 255 0
0 255 0
0 255 0
0 255 0
0 255 0
0 255 0
0 255 0
0 255 0
0 255 0
0 255 0
0 255 0
0 255 0
0 255 0
0 255 0
0 255 0
0 255 0
0 255 0
0 255 0
0 255 0
0 255 0
0 255 0
0 255 0
0 255 0
0 255 0
0 255 0
0 255 0
0 255 0
0 255 0
0 255 0
0 197 19
0 0 145
0 0 162
0 0 170
0 0 177
0 0 181
0 0 186
0 0 190
0 0 194
0 0 196
0 0 200
0 0 202
0 0 204
0 0 207
0 0 209
0 0 211
0 0 212
0 0 214
0 0 216
0 0 217
0 0 219
0 0 220
0 0 221
0 0 222
0 0 223
0 0 224
0 0 225
0 0 226
0 0 227
0 0 228
0 0 229
0 0 229
0 0 230
0 0 231
0 0 231
0 0 232
0 0 232
0 0 233
0 0 233
0 0 234
0 0 234
0 0 234
0 0 235
0 0 235
0 0 235
0 0 235
0 0 236
0 0 236
0 0 236
0 0 236
0 0 236
0 0 236
1 0 236
3 0 236
6 0 236
8 0 236
11 0 236
13 0 236
16 0 235
18 0 235
20 0 235
23 0 235
25 0 234
28 0 234
30 0 234
33 0 233
35 0 233
38 0 232
41 0 232
43 0 231
46 0 231
48 0 230
51 0 229
54 0 229
56 0 228
59 0 227
62 0 226
64 0 225
67 0 224
70 0 223
73 0 222
76 0 221
79 0 220
82 0 218
85 0 217
88 0 216
91 0 214
94 0 212
97 0 211
100 0 209
104 0 207
107 0 204
111 0 202
115 0 199
118 0 197
122 0 193
127 0 190
131 0 186
136 0 182
141 0 177
146 0 171
154 0 162
160 0 148
23 205 17
1 255 0
1 255 0
1 255 0
1 255 0
1 255 0
1 255 0
1 255 0
1 255 0
1 255 0
1 255 0
2 255 0
2 255 0
2 255 0
2 255 0
2 255 0
2 255 0
2 255 0
2 255 0
2 255 0
2 255 0
2 255 0
2 255 0
2 255 0
2 255 0
2 255 0
2 255 0
2 255 0
2 255 0
2 255 0
2 255 0
2 255 0
2 255 0
2 255 0
2 255 0
2 255 0
2 255 0
2 255 0
2 255 0
2 255 0
2 255 0
3 255 0
3 255 0
3 255 0
3 255 0
3 255 0
3 255 0
3 255 0
3 255 0
3 255 0
3 255 0
3 255 0
3 255 0
3 255 0
3 255 0
3 255 0
3 255 0
3 255 0
3 255 0
3 255 0
3 255 0
3 255 0
3 255 0
3 255 0
3 255 0
3 255 0
3 255 0
3 255 0
3 255 0
3 255 0
3 255 0
4 255 0
4 255 0
4 255 0
4 255 0
4 255 0
4 255 0
4 255 0
4 255 0
4 255 0
4 255 0
4 255 0
4 255 0
4 255 0
4 255 0
4 255 0
4 255 0
4 255 0
4 255 0
4 255 0
4 255 0
4 255 0
4 255 0
4 255 0
4 255 0
4 255 0
4 255 0
4 255 0
4 255 0
5 255 0
5 255 0
5 255 0
5 255 0
5 255 0
5 255 0
5 255 0
5 255 0
5 255 0
5 255 0
5 255 0
5 255 0
5 255 0
5 255 0
5 255 0
5 255 0
5 255 0
5 255 0
5 255 0
5 255 0
5 255 0
5 255 0
5 255 0
5 255 0
5 255 0
5 255 0
5 255 0
5 255 0
6 255 0
6 255 0
6 255 0
6 255 0
6 255 0
6 255 0
6 255 0
6 255 0
6 255 0
6 255 0
6 255 0
6 255 0
6 255 0
6 255 0
6 255 0
6 255 0
6 255 0
6 255 0
6 255 0
6 255 0
6 255 0
6 255 0
0 255 0
0 255 0
0 255 0
0 255 0
0 255 0
0 255 0
0 255 0
0 255 0
0 255 0
0 255 0
0 255 0
0 255 0
0 255 0
0 255 0
0 255 0
0 255 0
0 255 0
0 255 0
0 255 0
0 255 0
0 255 0
0 255 0
0 255 0
0 255 0
0 255 0
0 255 0
0 255 0
0 255 0
0 255 0
0 255 0
0 255 0
0 255 0
0 255 0
0 255 0
0 255 0
0 255 0
0 255 0
0 255 0
0 255 0
0 255 0
0 255 0
0 255 0
0 255 0
0 255 0
0 255 0
0 255 0
0 255 0
0 255 0
0 255 0
0 255 0
0 255 0
0 255 0
0 255 0
0 255 0
0 255 0
0 255 0
0 255 0
0 255 0
0 255 0
0 255 0
0 255 0
0 255 0
0 255 0
0 255 0
0 255 0
0 255 0
0 255 0
0 255 0
0 255 0
0 255 0
0 255 0
0 255 0
0 255 0
0 255 0
0 255 0
0 255 0
0 255 0
0 255 0
0 255 0
0 255 0
0 255 0
0 255 0
0 255 0
0 255 0
0 255 0
0 255 0
0 255 0
0 255 0
0 255 0
0 255 0
0 255 0
0 255 0
0 255 0
0 255 0
0 255 0
0 255 0
0 255 0
0 255 0
0 255 0
0 255 0
0 255 0
0 255 0
0 255 0
0 255 0
0 255 0
0 255 0
0 255 0
0 255 0
0 255 0
0 255 0
0 255 0
0 255 0
0 255 0
0 255 0
0 255 0
0 255 0
0 255 0
0 255 0
0 255 0
0 255 0
0 255 0
0 255 0
0 255 0
0 255 0
0 255 0
0 255 0
0 255 0
0 255 0
0 255 0
0 255 0
0 255 0
0 255 0
0 255 0
0 255 0
0 255 0
0 255 0
0 255 0
0 255 0
0 255 0
0 255 0
0 255 0
0 255 0
0 255 0
0 255 0
0 255 0
0 255 0
0 255 0
0 255 0
0 255 0
0 107 53
0 0 152
0 0 163
0 0 171
0 0 178
0 0 182
0 0 186
0 0 190
0 0 194
0 0 197
0 0 199
0 0 202
0 0 204
0 0 206
0 0 208
0 0 210
0 0 212
0 0 214
0 0 215
0 0 217
0 0 218
0 0 219
0 0 221
0 0 222
0 0 223
0 0 224
0 0 225
0 0 226
0 0 226
0 0 227
0 0 228
0 0 229
0 0 229
0 0 230
0 0 230
0 0 231
0 0 232
0 0 232
0 0 232
0 0 233
0 0 233
0 0 233
0 0 234
0 0 234
0 0 234
0 0 234
0 0 235
0 0 235
0 0 235
0 0 235
0 0 235
1 0 235
3 0 235
6 0 235
8 0 235
11 0 235
13 0 234
15 0 234
18 0 234
20 0 234
23 0 233
26 0 233
28 0 233
31 0 232
33 0 232
36 0 232
38 0 231
41 0 230
43 0 230
46 0 229
48 0 229
51 0 228
54 0 227
57 0 226
59 0 225
62 0 225
65 0 224
68 0 223
70 0 222
73 0 220
76 0 219
79 0 218
82 0 217
85 0 215
88 0 214
91 0 212
95 0 210
98 0 208
101 0 207
105 0 204
108 0 202
112 0 200
116 0 197
120 0 194
124 0 190
128 0 186
133 0 182
138 0 177
143 0 172
149 0 164
158 0 152
57 123 47
1 255 0
1 255 0
1 255 0
1 255 0
1 255 0
1 255 0
1 255 0
1 255 0
1 255 0
1 255 0
1 255 0
1 255 0
1 255 0
2 255 0
2 255 0
2 255 0
2 255 0
2 255 0
2 255 0
2 255 0
2 255 0
2 255 0
2 255 0
2 255 0
2 255 0
2 255 0
2 255 0
2 255 0
2 255 0
2 255 0
2 255 0
2 255 0
2 255 0
2 255 0
2 255 0
2 255 0
2 255 0
2 255 0
2 255 0
2 255 0
2 255 0
2 255 0
2 255 0
2 255 0
3 255 0
3 255 0
3 255 0
3 255 0
3 255 0
3 255 0
3 255 0
3 255 0
3 255 0
3 255 0
3 255 0
3 255 0
3 255 0
3 255 0
3 255 0
3 255 0
3 255 0
3 255 0
3 255 0
3 255 0
3 255 0
3 255 0
3 255 0
3 255 0
3 255 0
3 255 0
3 255 0
3 255 0
3 255 0
3 255 0
4 255 0
4 255 0
4 255 0
4 255 0
4 255 0
4 255 0
4 255 0
4 255 0
4 255 0
4 255 0
4 255 0
4 255 0
4 255 0
4 255 0
4 255 0
4 255 0
4 255 0
4 255 0
4 255 0
4 255 0
4 255 0
4 255 0
4 255 0
4 255 0
4 255 0
4 255 0
4 255 0
4 255 0
4 255 0
5 255 0
5 255 0
5 255 0
5 255 0
5 255 0
5 255 0
5 255 0
5 255 0
5 255 0
5 255 0
5 255 0
5 255 0
5 255 0
5 255 0
5 255 0
5 255 0
5 255 0
5 255 0
5 255 0
5 255 0
5 255 0
5 255 0
5 255 0
5 255 0
5 255 0
5 255 0
5 255 0
5 255 0
6 255 0
6 255 0
6 255 0
6 255 0
6 255 0
6 255 0
6 255 0
6 255 0
6 255 0
6 255 0
6 255 0
6 255 0
6 255 0
6 255 0
6 255 0
6 255 0
6 255 0
6 255 0
0 255 0
0 255 0
0 255 0
0 255 0
0 255 0
0 255 0
0 255 0
0 255 0
0 255 0
0 255 0
0 255 0
0 255 0
0 255 0
0 255 0
0 255 0
0 255 0
0 255 0
0 255 0
0 255 0
0 255 0
0 255 0
0 255 0
0 255 0
0 255 0
0 255 0
0 255 0
0 255 0
0 255 0
0 255 0
0 255 0
0 255 0
0 255 0
0 255 0
0 255 0
0 255 0
0 255 0
0 255 0
0 255 0
0 255 0
0 255 0
0 255 0
0 255 0
0 255 0
0 255 0
0 255 0
0 255 0
0 255 0
0 255 0
0 255 0
0 255 0
0 255 0
0 255 0
0 255 0
0 255 0
0 255 0
0 255 0
0 255 0
0 255 0
0 255 0
0 255 0
0 255 0
0 255 0
0 255 0
0 255 0
0 255 0
0 255 0
0 255 0
0 255 0
0 255 0
0 255 0
0 255 0
0 255 0
0 255 0
0 255 0
0 255 0
0 255 0
0 255 0
0 255 0
0 255 0
0 255 0
0 255 0
0 255 0
0 255 0
0 255 0
0 255 0
0 255 0
0 255 0
0 255 0
0 255 0
0 255 0
0 255 0
0 255 0
0 255 0
0 255 0
0 255 0
0 255 0
0 255 0
0 255 0
0 255 0
0 255 0
0 255 0
0 255 0
0 255 0
0 255 0
0 255 0
0 255 0
0 255 0
0 255 0
0 255 0
0 255 0
0 255 0
0 255 0
0 255 0
0 255 0
0 255 0
0 255 0
0 255 0
0 255 0
0 255 0
0 255 0
0 255 0
0 255 0
0 255 0
0 255 0
0 255 0
0 255 0
0 255 0
0 255 0
0 255 0
0 255 0
0 255 0
0 255 0
0 255 0
0 255 0
0 255 0
0 255 0
0 255 0
0 255 0
0 255 0
0 255 0
0 255 0
0 255 0
0 255 0
0 255 0
0 255 0
0 255 0
0 255 0
0 255 0
0 255 0
0 255 0
0 0 92
0 0 155
0 0 164
0 0 172
0 0 178
0 0 182
0 0 187
0 0 191
0 0 194
0 0 197
0 0 199
0 0 202
0 0 204
0 0 206
0 0 208
0 0 210
0 0 212
0 0 213
0 0 215
0 0 216
0 0 218
0 0 219
0 0 220
0 0 221
0 0 222
0 0 223
0 0 224
0 0 225
0 0 226
0 0 226
0 0 227
0 0 228
0 0 228
0 0 229
0 0 230
0 0 230
0 0 231
0 0 231
0 0 231
0 0 232
0 0 232
0 0 232
0 0 233
0 0 233
0 0 233
0 0 233
0 0 233
0 0 233
0 0 233
0 0 234
1 0 233
3 0 233
6 0 233
8 0 233
11 0 233
13 0 233
16 0 233
18 0 233
21 0 232
23 0 232
26 0 232
28 0 231
31 0 231
33 0 231
36 0 230
38 0 230
41 0 229
43 0 229
46 0 228
49 0 227
51 0 227
54 0 226
57 0 225
60 0 224
62 0 223
65 0 222
68 0 221
71 0 220
74 0 219
77 0 217
79 0 216
83 0 215
86 0 213
89 0 212
92 0 210
95 0 208
99 0 206
102 0 204
105 0 202
109 0 199
113 0 196
117 0 194
121 0 191
125 0 187
129 0 183
135 0 177
140 0 172
146 0 165
153 0 155
86 47 76
1 255 0
1 255 0
1 255 0
1 255 0
1 255 0
1 255 0
1 255 0
1 255 0
1 255 0
1 255 0
1 255 0
1 255 0
1 255 0
1 255 0
1 255 0
2 255 0
2 255 0
2 255 0
2 255 0
2 255 0
2 255 0
2 255 0
2 255 0
2 255 0
2 255 0
2 255 0
2 255 0
2 255 0
2 255 0
2 255 0
2 255 0
2 255 0
2 255 0
2 255 0
2 255 0
2 255 0
2 255 0
2 255 0
2 255 0
2 255 0
2 255 0
2 255 0
2 255 0
2 255 0
2 255 0
2 255 0
2 255 0
3 255 0
3 255 0
3 255 0
3 255 0
3 255 0
3 255 0
3 255 0
3 255 0
3 255 0
3 255 0
3 255 0
3 255 0
3 255 0
3 255 0
3 255 0
3 255 0
3 255 0
3 255 0
3 255 0
3 255 0
3 255 0
3 255 0
3 255 0
3 255 0
3 255 0
3 255 0
3 255 0
3 255 0
3 255 0
3 255 0
3 255 0
4 255 0
4 255 0
4 255 0
4 255 0
4 255 0
4 255 0
4 255 0
4 255 0
4 255 0
4 255 0
4 255 0
4 255 0
4 255 0
4 255 0
4 255 0
4 255 0
4 255 0
4 255 0
4 255 0
4 255 0
4 255 0
4 255 0
4 255 0
4 255 0
4 255 0
4 255 0
4 255 0
4 255 0
4 255 0
4 255 0
5 255 0
5 255 0
5 255 0
5 255 0
5 255 0
5 255 0
5 255 0
5 255 0
5 255 0
5 255 0
5 255 0
5 255 0
5 255 0
5 255 0
5 255 0
5 255 0
5 255 0
5 255 0
5 255 0
5 255 0
5 255 0
5 255 0
5 255 0
5 255 0
5 255 0
5 255 0
5 255 0
5 255 0
6 255 0
6 255 0
6 255 0
6 255 0
6 255 0
6 255 0
6 255 0
6 255 0
6 255 0
6 255 0
6 255 0
6 255 0
6 255 0
6 255 0
0 255 0
0 255 0
0 255 0
0 255 0
0 255 0
0 255 0
0 255 0
0 255 0
0 255 0
0 255 0
0 255 0
0 255 0
0 255 0
0 255 0
0 255 0
0 255 0
0 255 0
0 255 0
0 255 0
0 255 0
0 255 0
0 255 0
0 255 0
0 255 0
0 255 0
0 255 0
0 255 0
0 255 0
0 255 0
0 255 0
0 255 0
0 255 0
0 255 0
0 255 0
0 255 0
0 255 0
0 255 0
0 255 0
0 255 0
0 255 0
0 255 0
0 255 0
0 255 0
0 255 0
0 255 0
0 255 0
0 255 0
0 255 0
0 255 0
0 255 0
0 255 0
0 255 0
0 255 0
0 255 0
0 255 0
0 255 0
0 255 0
0 255 0
0 255 0
0 255 0
0 255 0
0 255 0
0 255 0
0 255 0
0 255 0
0 255 0
0 255 0
0 255 0
0 255 0
0 255 0
0 255 0
0 255 0
0 255 0
0 255 0
0 255 0
0 255 0
0 255 0
0 255 0
0 255 0
0 255 0
0 255 0
0 255 0
0 255 0
0 255 0
0 255 0
0 255 0
0 255 0
0 255 0
0 255 0
0 255 0
0 255 0
0 255 0
0 255 0
0 255 0
0 255 0
0 255 0
0 255 0
0 255 0
0 255 0
0 255 0
0 255 0
0 255 0
0 255 0
0 255 0
0 255 0
0 255 0
0 255 0
0 255 0
0 255 0
0 255 0
0 255 0
0 255 0
0 255 0
0 255 0
0 255 0
0 255 0
0 255 0
0 255 0
0 255 0
0 255 0
0 255 0
0 255 0
0 255 0
0 255 0
0 255 0
0 255 0
0 255 0
0 255 0
0 255 0
0 255 0
0 255 0
0 255 0
0 255 0
0 255 0
0 255 0
0 255 0
0 255 0
0 255 0
0 255 0
0 255 0
0 255 0
0 255 0
0 255 0
0 255 0
0 255 0
0 255 0
0 255 0
0 255 0
0 255 0
0 255 0
0 255 0
0 6 89
0 0 156
0 0 165
0 0 173
0 0 178
0 0 183
0 0 187
0 0 190
0 0 193
0 0 196
0 0 199
0 0 201
0 0 204
0 0 206
0 0 208
0 0 210
0 0 211
0 0 213
0 0 214
0 0 216
0 0 217
0 0 218
0 0 219
0 0 220
0 0 221
0 0 222
0 0 223
0 0 224
0 0 225
0 0 226
0 0 226
0 0 227
0 0 228
0 0 228
0 0 229
0 0 229
0 0 230
0 0 230
0 0 230
0 0 231
0 0 231
0 0 231
0 0 232
0 0 232
0 0 232
0 0 232
0 0 232
0 0 232
0 0 232
1 0 232
3 0 232
6 0 232
8 0 232
11 0 232
13 0 232
16 0 231
18 0 231
21 0 231
23 0 231
26 0 230
28 0 230
31 0 230
33 0 229
36 0 229
39 0 228
41 0 228
44 0 227
46 0 226
49 0 226
52 0 225
54 0 224
57 0 223
60 0 222
63 0 221
65 0 220
68 0 219
71 0 218
74 0 217
77 0 216
80 0 214
83 0 213
86 0 211
90 0 210
93 0 208
96 0 206
99 0 204
103 0 202
106 0 199
110 0 197
114 0 193
118 0 190
122 0 187
126 0 183
131 0 178
137 0 172
143 0 166
150 0 156
106 0 97
3 251 0
1 255 0
1 255 0
1 255 0
1 255 0
1 255 0
1 255 0
1 255 0
1 255 0
1 255 0
1 255 0
1 255 0
1 255 0
1 255 0
1 255 0
1 255 0
1 255 0
1 255 0
2 255 0
2 255 0
2 255 0
2 255 0
2 255 0
2 255 0
2 255 0
2 255 0
2 255 0
2 255 0
2 255 0
2 255 0
2 255 0
2 255 0
2 255 0
2 255 0
2 255 0
2 255 0
2 255 0
2 255 0
2 255 0
2 255 0
2 255 0
2 255 0
2 255 0
2 255 0
2 255 0
2 255 0
2 255 0
2 255 0
2 255 0
2 255 0
3 255 0
3 255 0
3 255 0
3 255 0
3 255 0
3 255 0
3 255 0
3 255 0
3 255 0
3 255 0
3 255 0
3 255 0
3 255 0
3 255 0
3 255 0
3 255 0
3 255 0
3 255 0
3 255 0
3 255 0
3 255 0
3 255 0
3 255 0
3 255 0
3 255 0
3 255 0
3 255 0
3 255 0
3 255 0
3 255 0
3 255 0
3 255 0
4 255 0
4 255 0
4 255 0
4 255 0
4 255 0
4 255 0
4 255 0
4 255 0
4 255 0
4 255 0
4 255 0
4 255 0
4 255 0
4 255 0
4 255 0
4 255 0
4 255 0
4 255 0
4 255 0
4 255 0
4 255 0
4 255 0
4 255 0
4 255 0
4 255 0
4 255 0
4 255 0
4 255 0
4 255 0
4 255 0
4 255 0
5 255 0
5 255 0
5 255 0
5 255 0
5 255 0
5 255 0
5 255 0
5 255 0
5 255 0
5 255 0
5 255 0
5 255 0
5 255 0
5 255 0
5 255 0
5 255 0
5 255 0
5 255 0
5 255 0
5 255 0
5 255 0
5 255 0
5 255 0
5 255 0
5 255 0
5 255 0
5 255 0
5 255 0
5 255 0
6 255 0
6 255 0
6 255 0
6 255 0
6 255 0
6 255 0
6 255 0
6 255 0
6 255 0
0 255 0
0 255 0
0 255 0
0 255 0
0 255 0
0 255 0
0 255 0
0 255 0
0 255 0
0 255 0
0 255 0
0 255 0
0 255 0
0 255 0
0 255 0
0 255 0
0 255 0
0 255 0
0 255 0
0 255 0
0 255 0
0 255 0
0 255 0
0 255 0
0 255 0
0 255 0
0 255 0
0 255 0
0 255 0
0 255 0
0 255 0
0 255 0
0 255 0
0 255 0
0 255 0
0 255 0
0 255 0
0 255 0
0 255 0
0 255 0
0 255 0
0 255 0
0 255 0
0 255 0
0 255 0
0 255 0
0 255 0
0 255 0
0 255 0
0 255 0
0 255 0
0 255 0
0 255 0
0 255 0
0 255 0
0 255 0
0 255 0
0 255 0
0 255 0
0 255 0
0 255 0
0 255 0
0 255 0
0 255 0
0 255 0
0 255 0
0 255 0
0 255 0
0 255 0
0 255 0
0 255 0
0 255 0
0 255 0
0 255 0
0 255 0
0 255 0
0 255 0
0 255 0
0 255 0
0 255 0
0 255 0
0 255 0
0 255 0
0 255 0
0 255 0
0 255 0
0 255 0
0 255 0
0 255 0
0 255 0
0 255 0
0 255 0
0 255 0
0 255 0
0 255 0
0 255 0
0 255 0
0 255 0
0 255 0
0 255 0
0 255 0
0 255 0
0 255 0
0 255 0
0 255 0
0 255 0
0 255 0
0 255 0
0 255 0
0 255 0
0 255 0
0 255 0
0 255 0
0 255 0
0 255 0
0 255 0
0 255 0
0 255 0
0 255 0
0 255 0
0 255 0
0 255 0
0 255 0
0 255 0
0 255 0
0 255 0
0 255 0
0 255 0
0 255 0
0 255 0
0 255 0
0 255 0
0 255 0
0 255 0
0 255 0
0 255 0
0 255 0
0 255 0
0 255 0
0 255 0
0 255 0
0 255 0
0 255 0
0 255 0
0 255 0
0 255 0
0 255 0
0 255 0
0 255 0
0 255 0
0 255 0
0 243 3
0 0 104
0 0 156
0 0 166
0 0 173
0 0 178
0 0 183
0 0 187
0 0 190
0 0 193
0 0 196
0 0 199
0 0 201
0 0 203
0 0 205
0 0 207
0 0 209
0 0 211
0 0 212
0 0 214
0 0 215
0 0 216
0 0 218
0 0 219
0 0 220
0 0 221
0 0 222
0 0 222
0 0 223
0 0 224
0 0 225
0 0 225
0 0 226
0 0 227
0 0 227
0 0 228
0 0 228
0 0 229
0 0 229
0 0 229
0 0 230
0 0 230
0 0 230
0 0 230
0 0 230
0 0 231
0 0 231
0 0 231
0 0 231
1 0 231
3 0 231
6 0 231
8 0 231
11 0 230
13 0 230
16 0 230
18 0 230
21 0 230
23 0 229
26 0 229
28 0 229
31 0 228
33 0 228
36 0 227
39 0 227
42 0 226
44 0 225
47 0 225
49 0 224
52 0 223
55 0 222
57 0 221
60 0 221
63 0 220
66 0 219
69 0 217
72 0 216
74 0 215
78 0 214
81 0 212
84 0 211
87 0 209
90 0 207
93 0 205
97 0 203
100 0 201
104 0 199
107 0 196
111 0 193
115 0 190
119 0 187
124 0 183
128 0 178
133 0 173
139 0 166
146 0 157
108 0 100
3 251 0
1 255 0
1 255 0
1 255 0
1 255 0
1 255 0
1 255 0
1 255 0
1 255 0
1 255 0
1 255 0
1 255 0
1 255 0
1 255 0
1 255 0
1 255 0
1 255 0
1 255 0
1 255 0
1 255 0
2 255 0
2 255 0
2 255 0
2 255 0
2 255 0
2 255 0
2 255 0
2 255 0
2 255 0
2 255 0
2 255 0
2 255 0
2 255 0
2 255 0
2 255 0
2 255 0
2 255 0
2 255 0
2 255 0
2 255 0
2 255 0
2 255 0
2 255 0
2 255 0
2 255 0
2 255 0
2 255 0
2 255 0
2 255 0
2 255 0
2 255 0
2 255 0
2 255 0
2 255 0
3 255 0
3 255 0
3 255 0
3 255 0
3 255 0
3 255 0
3 255 0
3 255 0
3 255 0
3 255 0
3 255 0
3 255 0
3 255 0
3 255 0
3 255 0
3 255 0
3 255 0
3 255 0
3 255 0
3 255 0
3 255 0
3 255 0
3 255 0
3 255 0
3 255 0
3 255 0
3 255 0
3 255 0
3 255 0
3 255 0
3 255 0
3 255 0
4 255 0
4 255 0
4 255 0
4 255 0
4 255 0
4 255 0
4 255 0
4 255 0
4 255 0
4 255 0
4 255 0
4 255 0
4 255 0
4 255 0
4 255 0
4 255 0
4 255 0
4 255 0
4 255 0
4 255 0
4 255 0
4 255 0
4 255 0
4 255 0
4 255 0
4 255 0
4 255 0
4 255 0
4 255 0
4 255 0
4 255 0
5 255 0
5 255 0
5 255 0
5 255 0
5 255 0
5 255 0
5 255 0
5 255 0
5 255 0
5 255 0
5 255 0
5 255 0
5 255 0
5 255 0
5 255 0
5 255 0
5 255 0
5 255 0
5 255 0
5 255 0
5 255 0
5 255 0
5 255 0
5 255 0
5 255 0
5 255 0
5 255 0
5 255 0
5 255 0
5 255 0
6 255 0
6 255 0
6 255 0
6 255 0
6 255 0
0 255 0
0 255 0
0 255 0
0 255 0
0 255 0
0 255 0
0 255 0
0 255 0
0 255 0
0 255 0
0 255 0
0 255 0
0 255 0
0 255 0
0 255 0
0 255 0
0 255 0
0 255 0
0 255 0
0 255 0
0 255 0
0 255 0
0 255 0
0 255 0
0 255 0
0 255 0
0 255 0
0 255 0
0 255 0
0 255 0
0 255 0
0 255 0
0 255 0
0 255 0
0 255 0
0 255 0
0 255 0
0 255 0
0 255 0
0 255 0
0 255 0
0 255 0
0 255 0
0 255 0
0 255 0
0 255 0
0 255 0
0 255 0
0 255 0
0 255 0
0 255 0
0 255 0
0 255 0
0 255 0
0 255 0
0 255 0
0 255 0
0 255 0
0 255 0
0 255 0
0 255 0
0 255 0
0 255 0
0 255 0
0 255 0
0 255 0
0 255 0
0 255 0
0 255 0
0 255 0
0 255 0
0 255 0
0 255 0
0 255 0
0 255 0
0 255 0
0 255 0
0 255 0
0 255 0
0 255 0
0 255 0
0 255 0
0 255 0
0 255 0
0 255 0
0 255 0
0 255 0
0 255 0
0 255 0
0 255 0
0 255 0
0 255 0
0 255 0
0 255 0
0 255 0
0 255 0
0 255 0
0 255 0
0 255 0
0 255 0
0 255 0
0 255 0
0 255 0
0 255 0
0 255 0
0 255 0
0 255 0
0 255 0
0 255 0
0 255 0
0 255 0
0 255 0
0 255 0
0 255 0
0 255 0
0 255 0
0 255 0
0 255 0
0 255 0
0 255 0
0 255 0
0 255 0
0 255 0
0 255 0
0 255 0
0 255 0
0 255 0
0 255 0
0 255 0
0 255 0
0 255 0
0 255 0
0 255 0
0 255 0
0 255 0
0 255 0
0 255 0
0 255 0
0 255 0
0 255 0
0 255 0
0 255 0
0 255 0
0 255 0
0 255 0
0 255 0
0 255 0
0 255 0
0 255 0
0 255 0
0 255 0
0 255 0
0 231 7
0 0 112
0 0 157
0 0 167
0 0 173
0 0 178
0 0 183
0 0 186
0 0 190
0 0 193
0 0 196
0 0 198
0 0 201
0 0 203
0 0 205
0 0 207
0 0 209
0 0 210
0 0 211
0 0 213
0 0 214
0 0 216
0 0 217
0 0 218
0 0 219
0 0 220
0 0 221
0 0 222
0 0 222
0 0 223
0 0 224
0 0 224
0 0 225
0 0 226
0 0 226
0 0 226
0 0 227
0 0 227
0 0 228
0 0 228
0 0 228
0 0 229
0 0 229
0 0 229
0 0 229
0 0 229
0 0 229
0 0 229
1 0 229
3 0 229
6 0 229
8 0 229
11 0 229
13 0 229
16 0 228
18 0 228
21 0 228
24 0 228
26 0 227
29 0 227
31 0 227
34 0 226
36 0 226
39 0 225
42 0 224
44 0 224
47 0 223
50 0 222
52 0 221
55 0 221
58 0 220
61 0 219
63 0 218
66 0 217
69 0 216
72 0 214
75 0 213
78 0 211
81 0 210
84 0 208
87 0 207
91 0 205
94 0 203
98 0 200
101 0 198
105 0 196
109 0 193
113 0 190
117 0 186
121 0 182
125 0 178
130 0 173
136 0 166
142 0 158
107 0 103
9 235 6
1 255 0
1 255 0
1 255 0
1 255 0
1 255 0
1 255 0
1 255 0
1 255 0
1 255 0
1 255 0
1 255 0
1 255 0
1 255 0
1 255 0
1 255 0
1 255 0
1 255 0
1 255 0
1 255 0
1 255 0
1 255 0
1 255 0
2 255 0
2 255 0
2 255 0
2 255 0
2 255 0
2 255 0
2 255 0
2 255 0
2 255 0
2 255 0
2 255 0
2 255 0
2 255 0
2 255 0
2 255 0
2 255 0
2 255 0
2 255 0
2 255 0
2 255 0
2 255 0
2 255 0
2 255 0
2 255 0
2 255 0
2 255 0
2 255 0
2 255 0
2 255 0
2 255 0
2 255 0
2 255 0
2 255 0
2 255 0
3 255 0
3 255 0
3 255 0
3 255 0
3 255 0
3 255 0
3 255 0
3 255 0
3 255 0
3 255 0
3 255 0
3 255 0
3 255 0
3 255 0
3 255 0
3 255 0
3 255 0
3 255 0
3 255 0
3 255 0
3 255 0
3 255 0
3 255 0
3 255 0
3 255 0
3 255 0
3 255 0
3 255 0
3 255 0
3 255 0
3 255 0
3 255 0
3 255 0
4 255 0
4 255 0
4 255 0
4 255 0
4 255 0
4 255 0
4 255 0
4 255 0
4 255 0
4 255 0
4 255 0
4 255 0
4 255 0
4 255 0
4 255 0
4 255 0
4 255 0
4 255 0
4 255 0
4 255 0
4 255 0
4 255 0
4 255 0
4 255 0
4 255 0
4 255 0
4 255 0
4 255 0
4 255 0
4 255 0
4 255 0
4 255 0
5 255 0
5 255 0
5 255 0
5 255 0
5 255 0
5 255 0
5 255 0
5 255 0
5 255 0
5 255 0
5 255 0
5 255 0
5 255 0
5 255 0
5 255 0
5 255 0
5 255 0
5 255 0
5 255 0
5 255 0
5 255 0
5 255 0
5 255 0
5 255 0
5 255 0
5 255 0
5 255 0
5 255 0
5 255 0
5 255 0
5 255 0
0 255 0
0 255 0
0 255 0
0 255 0
0 255 0
0 255 0
0 255 0
0 255 0
0 255 0
0 255 0
0 255 0
0 255 0
0 255 0
0 255 0
0 255 0
0 255 0
0 255 0
0 255 0
0 255 0
0 255 0
0 255 0
0 255 0
0 255 0
0 255 0
0 255 0
0 255 0
0 255 0
0 255 0
0 255 0
0 255 0
0 255 0
0 255 0
0 255 0
0 255 0
0 255 0
0 255 0
0 255 0
0 255 0
0 255 0
0 255 0
0 255 0
0 255 0
0 255 0
0 255 0
0 255 0
0 255 0
0 255 0
0 255 0
0 255 0
0 255 0
0 255 0
0 255 0
0 255 0
0 255 0
0 255 0
0 255 0
0 255 0
0 255 0
0 255 0
0 255 0
0 255 0
0 255 0
0 255 0
0 255 0
0 255 0
0 255 0
0 255 0
0 255 0
0 255 0
0 255 0
0 255 0
0 255 0
0 255 0
0 255 0
0 255 0
0 255 0
0 255 0
0 255 0
0 255 0
0 255 0
0 255 0
0 255 0
0 255 0
0 255 0
0 255 0
0 255 0
0 255 0
0 255 0
0 255 0
0 255 0
0 255 0
0 255 0
0 255 0
0 255 0
0 255 0
0 255 0
0 255 0
0 255 0
0 255 0
0 255 0
0 255 0
0 255 0
0 255 0
0 255 0
0 255 0
0 255 0
0 255 0
0 255 0
0 255 0
0 255 0
0 255 0
0 255 0
0 255 0
0 255 0
0 255 0
0 255 0
0 255 0
0 255 0
0 255 0
0 255 0
0 255 0
0 255 0
0 255 0
0 255 0
0 255 0
0 255 0
0 255 0
0 255 0
0 255 0
0 255 0
0 255 0
0 255 0
0 255 0
0 255 0
0 255 0
0 255 0
0 255 0
0 255 0
0 255 0
0 255 0
0 255 0
0 255 0
0 255 0
0 255 0
0 255 0
0 255 0
0 255 0
0 255 0
0 255 0
0 255 0
0 255 0
0 255 0
0 255 0
0 231 7
0 0 117
0 0 157
0 0 166
0 0 173
0 0 177
0 0 182
0 0 186
0 0 189
0 0 192
0 0 195
0 0 198
0 0 200
0 0 202
0 0 204
0 0 206
0 0 207
0 0 209
0 0 211
0 0 212
0 0 213
0 0 215
0 0 216
0 0 217
0 0 218
0 0 219
0 0 220
0 0 221
0 0 221
0 0 222
0 0 223
0 0 223
0 0 224
0 0 224
0 0 225
0 0 225
0 0 226
0 0 226
0 0 226
0 0 227
0 0 227
0 0 227
0 0 227
0 0 227
0 0 228
0 0 228
0 0 228
1 0 228
3 0 228
6 0 228
8 0 227
11 0 227
13 0 227
16 0 227
19 0 227
21 0 226
24 0 226
26 0 226
29 0 225
31 0 225
34 0 224
36 0 224
39 0 223
42 0 223
45 0 222
47 0 221
50 0 220
53 0 220
55 0 219
58 0 218
61 0 217
64 0 216
67 0 215
70 0 213
73 0 212
76 0 211
79 0 209
82 0 208
85 0 206
88 0 204
92 0 202
95 0 200
99 0 198
102 0 195
106 0 192
110 0 189
114 0 186
118 0 182
123 0 177
128 0 172
133 0 166
140 0 157
122 0 121
8 235 6
1 255 0
1 255 0
1 255 0
1 255 0
1 255 0
1 255 0
1 255 0
1 255 0
1 255 0
1 255 0
1 255 0
1 255 0
1 255 0
1 255 0
1 255 0
1 255 0
1 255 0
1 255 0
1 255 0
1 255 0
1 255 0
1 255 0
1 255 0
1 255 0
2 255 0
2 255 0
2 255 0
2 255 0
2 255 0
2 255 0
2 255 0
2 255 0
2 255 0
2 255 0
2 255 0
2 255 0
2 255 0
2 255 0
2 255 0
2 255 0
2 255 0
2 255 0
2 255 0
2 255 0
2 255 0
2 255 0
2 255 0
2 255 0
2 255 0
2 255 0
2 255 0
2 255 0
2 255 0
2 255 0
2 255 0
2 255 0
2 255 0
2 255 0
2 255 0
3 255 0
3 255 0
3 255 0
3 255 0
3 255 0
3 255 0
3 255 0
3 255 0
3 255 0
3 255 0
3 255 0
3 255 0
3 255 0
3 255 0
3 255 0
3 255 0
3 255 0
3 255 0
3 255 0
3 255 0
3 255 0
3 255 0
3 255 0
3 255 0
3 255 0
3 255 0
3 255 0
3 255 0
3 255 0
3 255 0
3 255 0
3 255 0
3 255 0
3 255 0
4 255 0
4 255 0
4 255 0
4 255 0
4 255 0
4 255 0
4 255 0
4 255 0
4 255 0
4 255 0
4 255 0
4 255 0
4 255 0
4 255 0
4 255 0
4 255 0
4 255 0
4 255 0
4 255 0
4 255 0
4 255 0
4 255 0
4 255 0
4 255 0
4 255 0
4 255 0
4 255 0
4 255 0
4 255 0
4 255 0
4 255 0
4 255 0
4 255 0
5 255 0
5 255 0
5 255 0
5 255 0
5 255 0
5 255 0
5 255 0
5 255 0
5 255 0
5 255 0
5 255 0
5 255 0
5 255 0
5 255 0
5 255 0
5 255 0
5 255 0
5 255 0
5 255 0
5 255 0
5 255 0
5 255 0
5 255 0
5 255 0
5 255 0
5 255 0
5 255 0
0 255 0
0 255 0
0 255 0
0 255 0
0 255 0
0 255 0
0 255 0
0 255 0
0 255 0
0 255 0
0 255 0
0 255 0
0 255 0
0 255 0
0 255 0
0 255 0
0 255 0
0 255 0
0 255 0
0 255 0
0 255 0
0 255 0
0 255 0
0 255 0
0 255 0
0 255 0
0 255 0
0 255 0
0 255 0
0 255 0
0 255 0
0 255 0
0 255 0
0 255 0
0 255 0
0 255 0
0 255 0
0 255 0
0 255 0
0 255 0
0 255 0
0 255 0
0 255 0
0 255 0
0 255 0
0 255 0
0 255 0
0 255 0
0 255 0
0 255 0
0 255 0
0 255 0
0 255 0
0 255 0
0 255 0
0 255 0
0 255 0
0 255 0
0 255 0
0 255 0
0 255 0
0 255 0
0 255 0
0 255 0
0 255 0
0 255 0
0 255 0
0 255 0
0 255 0
0 255 0
0 255 0
0 255 0
0 255 0
0 255 0
0 255 0
0 255 0
0 255 0
0 255 0
0 255 0
0 255 0
0 255 0
0 255 0
0 255 0
0 255 0
0 255 0
0 255 0
0 255 0
0 255 0
0 255 0
0 255 0
0 255 0
0 255 0
0 255 0
0 255 0
0 255 0
0 255 0
0 255 0
0 255 0
0 255 0
0 255 0
0 255 0
0 255 0
0 255 0
0 255 0
0 255 0
0 255 0
0 255 0
0 255 0
0 255 0
0 255 0
0 255 0
0 255 0
0 255 0
0 255 0
0 255 0
0 255 0
0 255 0
0 255 0
0 255 0
0 255 0
0 255 0
0 255 0
0 255 0
0 255 0
0 255 0
0 255 0
0 255 0
0 255 0
0 255 0
0 255 0
0 255 0
0 255 0
0 255 0
0 255 0
0 255 0
0 255 0
0 255 0
0 255 0
0 255 0
0 255 0
0 255 0
0 255 0
0 255 0
0 255 0
0 255 0
0 255 0
0 255 0
0 255 0
0 255 0
0 255 0
0 255 0
0 255 0
0 255 0
0 255 0
0 239 4
0 0 113
0 0 157
0 0 165
0 0 172
0 0 177
0 0 181
0 0 185
0 0 189
0 0 191
0 0 194
0 0 197
0 0 199
0 0 201
0 0 203
0 0 205
0 0 207
0 0 208
0 0 210
0 0 211
0 0 212
0 0 214
0 0 215
0 0 216
0 0 217
0 0 218
0 0 219
0 0 219
0 0 220
0 0 221
0 0 221
0 0 222
0 0 223
0 0 223
0 0 224
0 0 224
0 0 224
0 0 225
0 0 225
0 0 225
0 0 225
0 0 226
0 0 226
0 0 226
0 0 226
0 0 226
1 0 226
3 0 226
6 0 226
8 0 226
11 0 226
14 0 225
16 0 225
18 0 225
21 0 225
24 0 224
26 0 224
29 0 224
32 0 223
34 0 223
37 0 222
39 0 221
42 0 221
45 0 220
47 0 219
50 0 218
53 0 218
56 0 217
59 0 216
61 0 215
64 0 214
67 0 212
70 0 211
73 0 210
76 0 208
79 0 207
83 0 205
86 0 203
89 0 201
92 0 199
96 0 197
99 0 195
103 0 191
107 0 188
111 0 185
115 0 181
120 0 177
125 0 172
130 0 166
137 0 157
123 0 123
7 239 4
1 255 0
1 255 0
1 255 0
1 255 0
1 255 0
1 255 0
1 255 0
1 255 0
1 255 0
1 255 0
1 255 0
1 255 0
1 255 0
1 255 0
1 255 0
1 255 0
1 255 0
1 255 0
1 255 0
1 255 0
1 255 0
1 255 0
1 255 0
1 255 0
1 255 0
1 255 0
1 255 0
2 255 0
2 255 0
2 255 0
2 255 0
2 255 0
2 255 0
2 255 0
2 255 0
2 255 0
2 255 0
2 255 0
2 255 0
2 255 0
2 255 0
2 255 0
2 255 0
2 255 0
2 255 0
2 255 0
2 255 0
2 255 0
2 255 0
2 255 0
2 255 0
2 255 0
2 255 0
2 255 0
2 255 0
2 255 0
2 255 0
2 255 0
2 255 0
2 255 0
2 255 0
2 255 0
2 255 0
3 255 0
3 255 0
3 255 0
3 255 0
3 255 0
3 255 0
3 255 0
3 255 0
3 255 0
3 255 0
3 255 0
3 255 0
3 255 0
3 255 0
3 255 0
3 255 0
3 255 0
3 255 0
3 255 0
3 255 0
3 255 0
3 255 0
3 255 0
3 255 0
3 255 0
3 255 0
3 255 0
3 255 0
3 255 0
3 255 0
3 255 0
3 255 0
3 255 0
3 255 0
4 255 0
4 255 0
4 255 0
4 255 0
4 255 0
4 255 0
4 255 0
4 255 0
4 255 0
4 255 0
4 255 0
4 255 0
4 255 0
4 255 0
4 255 0
4 255 0
4 255 0
4 255 0
4 255 0
4 255 0
4 255 0
4 255 0
4 255 0
4 255 0
4 255 0
4 255 0
4 255 0
4 255 0
4 255 0
4 255 0
4 255 0
4 255 0
4 255 0
4 255 0
5 255 0
5 255 0
5 255 0
5 255 0
5 255 0
5 255 0
5 255 0
5 255 0
5 255 0
5 255 0
5 255 0
5 255 0
5 255 0
5 255 0
5 255 0
5 255 0
5 255 0
5 255 0
5 255 0
5 255 0
5 255 0
5 255 0
5 255 0
0 255 0
0 255 0
0 255 0
0 255 0
0 255 0
0 255 0
0 255 0
0 255 0
0 255 0
0 255 0
0 255 0
0 255 0
0 255 0
0 255 0
0 255 0
0 255 0
0 255 0
0 255 0
0 255 0
0 255 0
0 255 0
0 255 0
0 255 0
0 255 0
0 255 0
0 255 0
0 255 0
0 255 0
0 255 0
0 255 0
0 255 0
0 255 0
0 255 0
0 255 0
0 255 0
0 255 0
0 255 0
0 255 0
0 255 0
0 255 0
0 255 0
0 255 0
0 255 0
0 255 0
0 255 0
0 255 0
0 255 0
0 255 0
0 255 0
0 255 0
0 255 0
0 255 0
0 255 0
0 255 0
0 255 0
0 255 0
0 255 0
0 255 0
0 255 0
0 255 0
0 255 0
0 255 0
0 255 0
0 255 0
0 255 0
0 255 0
0 255 0
0 255 0
0 255 0
0 255 0
0 255 0
0 255 0
0 255 0
0 255 0
0 255 0
0 255 0
0 255 0
0 255 0
0 255 0
0 255 0
0 255 0
0 255 0
0 255 0
0 255 0
0 255 0
0 255 0
0 255 0
0 255 0
0 255 0
0 255 0
0 255 0
0 255 0
0 255 0
0 255 0
0 255 0
0 255 0
0 255 0
0 255 0
0 255 0
0 255 0
0 255 0
0 255 0
0 255 0
0 255 0
0 255 0
0 255 0
0 255 0
0 255 0
0 255 0
0 255 0
0 255 0
0 255 0
0 255 0
0 255 0
0 255 0
0 255 0
0 255 0
0 255 0
0 255 0
0 255 0
0 255 0
0 255 0
0 255 0
0 255 0
0 255 0
0 255 0
0 255 0
0 255 0
0 255 0
0 255 0
0 255 0
0 255 0
0 255 0
0 255 0
0 255 0
0 255 0
0 255 0
0 255 0
0 255 0
0 255 0
0 255 0
0 255 0
0 255 0
0 255 0
0 255 0
0 255 0
0 255 0
0 255 0
0 255 0
0 255 0
0 255 0
0 255 0
0 255 0
0 255 0
0 255 0
0 243 3
0 0 103
0 0 155
0 0 165
0 0 171
0 0 176
0 0 181
0 0 184
0 0 188
0 0 191
0 0 193
0 0 196
0 0 198
0 0 200
0 0 202
0 0 204
0 0 206
0 0 207
0 0 209
0 0 210
0 0 211
0 0 212
0 0 214
0 0 215
0 0 216
0 0 216
0 0 217
0 0 218
0 0 219
0 0 220
0 0 220
0 0 221
0 0 221
0 0 222
0 0 222
0 0 223
0 0 223
0 0 223
0 0 223
0 0 224
0 0 224
0 0 224
0 0 224
0 0 224
0 0 224
1 0 224
3 0 224
6 0 224
8 0 224
11 0 224
14 0 224
16 0 223
19 0 223
21 0 223
24 0 223
27 0 222
29 0 222
32 0 221
34 0 221
37 0 220
40 0 220
42 0 219
45 0 218
48 0 217
51 0 216
53 0 216
56 0 215
59 0 214
62 0 212
65 0 211
68 0 210
71 0 209
74 0 207
77 0 206
80 0 204
83 0 202
87 0 200
90 0 198
93 0 196
97 0 193
101 0 191
105 0 187
109 0 184
113 0 181
117 0 176
122 0 171
127 0 165
134 0 155
106 0 108
8 235 6
1 255 0
1 255 0
1 255 0
1 255 0
1 255 0
1 255 0
1 255 0
1 255 0
1 255 0
1 255 0
1 255 0
1 255 0
1 255 0
1 255 0
1 255 0
1 255 0
1 255 0
1 255 0
1 255 0
1 255 0
1 255 0
1 255 0
1 255 0
1 255 0
1 255 0
1 255 0
1 255 0
1 255 0
1 255 0
1 255 0
2 255 0
2 255 0
2 255 0
2 255 0
2 255 0
2 255 0
2 255 0
2 255 0
2 255 0
2 255 0
2 255 0
2 255 0
2 255 0
2 255 0
2 255 0
2 255 0
2 255 0
2 255 0
2 255 0
2 255 0
2 255 0
2 255 0
2 255 0
2 255 0
2 255 0
2 255 0
2 255 0
2 255 0
2 255 0
2 255 0
2 255 0
2 255 0
2 255 0
2 255 0
2 255 0
2 255 0
3 255 0
3 255 0
3 255 0
3 255 0
3 255 0
3 255 0
3 255 0
3 255 0
3 255 0
3 255 0
3 255 0
3 255 0
3 255 0
3 255 0
3 255 0
3 255 0
3 255 0
3 255 0
3 255 0
3 255 0
3 255 0
3 255 0
3 255 0
3 255 0
3 255 0
3 255 0
3 255 0
3 255 0
3 255 0
3 255 0
3 255 0
3 255 0
3 255 0
3 255 0
3 255 0
4 255 0
4 255 0
4 255 0
4 255 0
4 255 0
4 255 0
4 255 0
4 255 0
4 255 0
4 255 0
4 255 0
4 255 0
4 255 0
4 255 0
4 255 0
4 255 0
4 255 0
4 255 0
4 255 0
4 255 0
4 255 0
4 255 0
4 255 0
4 255 0
4 255 0
4 255 0
4 255 0
4 255 0
4 255 0
4 255 0
4 255 0
4 255 0
4 255 0
4 255 0
5 255 0
5 255 0
5 255 0
5 255 0
5 255 0
5 255 0
5 255 0
5 255 0
5 255 0
5 255 0
5 255 0
5 255 0
5 255 0
5 255 0
5 255 0
5 255 0
5 255 0
5 255 0
5 255 0
5 255 0
0 255 0
0 255 0
0 255 0
0 255 0
0 255 0
0 255 0
0 255 0
0 255 0
0 255 0
0 255 0
0 255 0
0 255 0
0 255 0
0 255 0
0 255 0
0 255 0
0 255 0
0 255 0
0 255 0
0 255 0
0 255 0
0 255 0
0 255 0
0 255 0
0 255 0
0 255 0
0 255 0
0 255 0
0 255 0
0 255 0
0 255 0
0 255 0
0 255 0
0 255 0
0 255 0
0 255 0
0 255 0
0 255 0
0 255 0
0 255 0
0 255 0
0 255 0
0 255 0
0 255 0
0 255 0
0 255 0
0 255 0
0 255 0
0 255 0
0 255 0
0 255 0
0 255 0
0 255 0
0 255 0
0 255 0
0 255 0
0 255 0
0 255 0
0 255 0
0 255 0
0 255 0
0 255 0
0 255 0
0 255 0
0 255 0
0 255 0
0 255 0
0 255 0
0 255 0
0 255 0
0 255 0
0 255 0
0 255 0
0 255 0
0 255 0
0 255 0
0 255 0
0 255 0
0 255 0
0 255 0
0 255 0
0 255 0
0 255 0
0 255 0
0 255 0
0 255 0
0 255 0
0 255 0
0 255 0
0 255 0
0 255 0
0 255 0
0 255 0
0 255 0
0 255 0
0 255 0
0 255 0
0 255 0
0 255 0
0 255 0
0 255 0
0 255 0
0 255 0
0 255 0
0 255 0
0 255 0
0 255 0
0 255 0
0 255 0
0 255 0
0 255 0
0 255 0
0 255 0
0 255 0
0 255 0
0 255 0
0 255 0
0 255 0
0 255 0
0 255 0
0 255 0
0 255 0
0 255 0
0 255 0
0 255 0
0 255 0
0 255 0
0 255 0
0 255 0
0 255 0
0 255 0
0 255 0
0 255 0
0 255 0
0 255 0
0 255 0
0 255 0
0 255 0
0 255 0
0 255 0
0 255 0
0 255 0
0 255 0
0 255 0
0 255 0
0 255 0
0 255 0
0 255 0
0 255 0
0 255 0
0 255 0
0 255 0
0 255 0
0 255 0
0 255 0
0 255 0
0 243 3
0 0 88
0 0 154
0 0 163
0 0 170
0 0 175
0 0 179
0 0 183
0 0 186
0 0 190
0 0 192
0 0 195
0 0 197
0 0 199
0 0 201
0 0 203
0 0 205
0 0 206
0 0 207
0 0 209
0 0 210
0 0 211
0 0 212
0 0 213
0 0 214
0 0 215
0 0 216
0 0 217
0 0 217
0 0 218
0 0 219
0 0 219
0 0 220
0 0 220
0 0 220
0 0 221
0 0 221
0 0 222
0 0 222
0 0 222
0 0 222
0 0 222
0 0 222
0 0 222
1 0 222
3 0 222
6 0 222
8 0 222
11 0 222
14 0 222
16 0 222
19 0 221
21 0 221
24 0 221
27 0 220
29 0 220
32 0 219
35 0 219
37 0 218
40 0 217
43 0 217
46 0 216
48 0 215
51 0 214
54 0 213
57 0 212
60 0 211
63 0 210
65 0 209
68 0 207
72 0 206
74 0 205
78 0 203
81 0 201
84 0 199
88 0 197
91 0 195
95 0 192
98 0 190
102 0 186
106 0 183
110 0 179
115 0 175
120 0 169
125 0 163
131 0 154
76 27 78
1 255 0
1 255 0
1 255 0
1 255 0
1 255 0
1 255 0
1 255 0
1 255 0
1 255 0
1 255 0
1 255 0
1 255 0
1 255 0
1 255 0
1 255 0
1 255 0
1 255 0
1 255 0
1 255 0
1 255 0
1 255 0
1 255 0
1 255 0
1 255 0
1 255 0
1 255 0
1 255 0
1 255 0
1 255 0
1 255 0
1 255 0
1 255 0
1 255 0
2 255 0
2 255 0
2 255 0
2 255 0
2 255 0
2 255 0
2 255 0
2 255 0
2 255 0
2 255 0
2 255 0
2 255 0
2 255 0
2 255 0
2 255 0
2 255 0
2 255 0
2 255 0
2 255 0
2 255 0
2 255 0
2 255 0
2 255 0
2 255 0
2 255 0
2 255 0
2 255 0
2 255 0
2 255 0
2 255 0
2 255 0
2 255 0
2 255 0
2 255 0
2 255 0
2 255 0
2 255 0
3 255 0
3 255 0
3 255 0
3 255 0
3 255 0
3 255 0
3 255 0
3 255 0
3 255 0
3 255 0
3 255 0
3 255 0
3 255 0
3 255 0
3 255 0
3 255 0
3 255 0
3 255 0
3 255 0
3 255 0
3 255 0
3 255 0
3 255 0
3 255 0
3 255 0
3 255 0
3 255 0
3 255 0
3 255 0
3 255 0
3 255 0
3 255 0
3 255 0
3 255 0
3 255 0
3 255 0
3 255 0
4 255 0
4 255 0
4 255 0
4 255 0
4 255 0
4 255 0
4 255 0
4 255 0
4 255 0
4 255 0
4 255 0
4 255 0
4 255 0
4 255 0
4 255 0
4 255 0
4 255 0
4 255 0
4 255 0
4 255 0
4 255 0
4 255 0
4 255 0
4 255 0
4 255 0
4 255 0
4 255 0
4 255 0
4 255 0
4 255 0
4 255 0
4 255 0
4 255 0
4 255 0
5 255 0
5 255 0
5 255 0
5 255 0
5 255 0
5 255 0
5 255 0
5 255 0
5 255 0
5 255 0
5 255 0
5 255 0
5 255 0
5 255 0
5 255 0
5 255 0
0 255 0
0 255 0
0 255 0
0 255 0
0 255 0
0 255 0
0 255 0
0 255 0
0 255 0
0 255 0
0 255 0
0 255 0
0 255 0
0 255 0
0 255 0
0 255 0
0 255 0
0 255 0
0 255 0
0 255 0
0 255 0
0 255 0
0 255 0
0 255 0
0 255 0
0 255 0
0 255 0
0 255 0
0 255 0
0 255 0
0 255 0
0 255 0
0 255 0
0 255 0
0 255 0
0 255 0
0 255 0
0 255 0
0 255 0
0 255 0
0 255 0
0 255 0
0 255 0
0 255 0
0 255 0
0 255 0
0 255 0
0 255 0
0 255 0
0 255 0
0 255 0
0 255 0
0 255 0
0 255 0
0 255 0
0 255 0
0 255 0
0 255 0
0 255 0
0 255 0
0 255 0
0 255 0
0 255 0
0 255 0
0 255 0
0 255 0
0 255 0
0 255 0
0 255 0
0 255 0
0 255 0
0 255 0
0 255 0
0 255 0
0 255 0
0 255 0
0 255 0
0 255 0
0 255 0
0 255 0
0 255 0
0 255 0
0 255 0
0 255 0
0 255 0
0 255 0
0 255 0
0 255 0
0 255 0
0 255 0
0 255 0
0 255 0
0 255 0
0 255 0
0 255 0
0 255 0
0 255 0
0 255 0
0 255 0
0 255 0
0 255 0
0 255 0
0 255 0
0 255 0
0 255 0
0 255 0
0 255 0
0 255 0
0 255 0
0 255 0
0 255 0
0 255 0
0 255 0
0 255 0
0 255 0
0 255 0
0 255 0
0 255 0
0 255 0
0 255 0
0 255 0
0 255 0
0 255 0
0 255 0
0 255 0
0 255 0
0 255 0
0 255 0
0 255 0
0 255 0
0 255 0
0 255 0
0 255 0
0 255 0
0 255 0
0 255 0
0 255 0
0 255 0
0 255 0
0 255 0
0 255 0
0 255 0
0 255 0
0 255 0
0 255 0
0 255 0
0 255 0
0 255 0
0 255 0
0 255 0
0 255 0
0 255 0
0 255 0
0 255 0
0 255 0
0 255 0
0 255 0
0 255 0
0 50 69
0 0 149
0 0 161
0 0 168
0 0 173
0 0 178
0 0 182
0 0 185
0 0 188
0 0 191
0 0 193
0 0 196
0 0 198
0 0 200
0 0 202
0 0 203
0 0 205
0 0 206
0 0 207
0 0 209
0 0 210
0 0 211
0 0 212
0 0 213
0 0 214
0 0 214
0 0 215
0 0 216
0 0 217
0 0 217
0 0 218
0 0 218
0 0 218
0 0 219
0 0 219
0 0 219
0 0 220
0 0 220
0 0 220
0 0 220
0 0 220
0 0 220
1 0 220
3 0 220
6 0 220
9 0 220
11 0 220
14 0 220
16 0 219
19 0 219
22 0 219
24 0 219
27 0 218
30 0 218
32 0 217
35 0 216
38 0 216
40 0 215
43 0 214
46 0 213
49 0 213
51 0 212
54 0 211
57 0 210
60 0 209
63 0 207
66 0 206
69 0 205
72 0 203
75 0 202
78 0 200
82 0 198
85 0 196
89 0 193
92 0 191
96 0 188
100 0 185
103 0 182
108 0 178
112 0 173
117 0 168
122 0 161
130 0 151
74 29 76
1 255 0
1 255 0
1 255 0
1 255 0
1 255 0
1 255 0
1 255 0
1 255 0
1 255 0
1 255 0
1 255 0
1 255 0
1 255 0
1 255 0
1 255 0
1 255 0
1 255 0
1 255 0
1 255 0
1 255 0
1 255 0
1 255 0
1 255 0
1 255 0
1 255 0
1 255 0
1 255 0
1 255 0
1 255 0
1 255 0
1 255 0
1 255 0
1 255 0
1 255 0
1 255 0
1 255 0
2 255 0
2 255 0
2 255 0
2 255 0
2 255 0
2 255 0
2 255 0
2 255 0
2 255 0
2 255 0
2 255 0
2 255 0
2 255 0
2 255 0
2 255 0
2 255 0
2 255 0
2 255 0
2 255 0
2 255 0
2 255 0
2 255 0
2 255 0
2 255 0
2 255 0
2 255 0
2 255 0
2 255 0
2 255 0
2 255 0
2 255 0
2 255 0
2 255 0
2 255 0
2 255 0
2 255 0
2 255 0
2 255 0
3 255 0
3 255 0
3 255 0
3 255 0
3 255 0
3 255 0
3 255 0
3 255 0
3 255 0
3 255 0
3 255 0
3 255 0
3 255 0
3 255 0
3 255 0
3 255 0
3 255 0
3 255 0
3 255 0
3 255 0
3 255 0
3 255 0
3 255 0
3 255 0
3 255 0
3 255 0
3 255 0
3 255 0
3 255 0
3 255 0
3 255 0
3 255 0
3 255 0
3 255 0
3 255 0
3 255 0
3 255 0
4 255 0
4 255 0
4 255 0
4 255 0
4 255 0
4 255 0
4 255 0
4 255 0
4 255 0
4 255 0
4 255 0
4 255 0
4 255 0
4 255 0
4 255 0
4 255 0
4 255 0
4 255 0
4 255 0
4 255 0
4 255 0
4 255 0
4 255 0
4 255 0
4 255 0
4 255 0
4 255 0
4 255 0
4 255 0
4 255 0
4 255 0
4 255 0
4 255 0
4 255 0
4 255 0
5 255 0
5 255 0
5 255 0
5 255 0
5 255 0
5 255 0
5 255 0
5 255 0
5 255 0
5 255 0
5 255 0
5 255 0
0 255 0
0 255 0
0 255 0
0 255 0
0 255 0
0 255 0
0 255 0
0 255 0
0 255 0
0 255 0
0 255 0
0 255 0
0 255 0
0 255 0
0 255 0
0 255 0
0 255 0
0 255 0
0 255 0
0 255 0
0 255 0
0 255 0
0 255 0
0 255 0
0 255 0
0 255 0
0 255 0
0 255 0
0 255 0
0 255 0
0 255 0
0 255 0
0 255 0
0 255 0
0 255 0
0 255 0
0 255 0
0 255 0
0 255 0
0 255 0
0 255 0
0 255 0
0 255 0
0 255 0
0 255 0
0 255 0
0 255 0
0 255 0
0 255 0
0 255 0
0 255 0
0 255 0
0 255 0
0 255 0
0 255 0
0 255 0
0 255 0
0 255 0
0 255 0
0 255 0
0 255 0
0 255 0
0 255 0
0 255 0
0 255 0
0 255 0
0 255 0
0 255 0
0 255 0
0 255 0
0 255 0
0 255 0
0 255 0
0 255 0
0 255 0
0 255 0
0 255 0
0 255 0
0 255 0
0 255 0
0 255 0
0 255 0
0 255 0
0 255 0
0 255 0
0 255 0
0 255 0
0 255 0
0 255 0
0 255 0
0 255 0
0 255 0
0 255 0
0 255 0
0 255 0
0 255 0
0 255 0
0 255 0
0 255 0
0 255 0
0 255 0
0 255 0
0 255 0
0 255 0
0 255 0
0 255 0
0 255 0
0 255 0
0 255 0
0 255 0
0 255 0
0 255 0
0 255 0
0 255 0
0 255 0
0 255 0
0 255 0
0 255 0
0 255 0
0 255 0
0 255 0
0 255 0
0 255 0
0 255 0
0 255 0
0 255 0
0 255 0
0 255 0
0 255 0
0 255 0
0 255 0
0 255 0
0 255 0
0 255 0
0 255 0
0 255 0
0 255 0
0 255 0
0 255 0
0 255 0
0 255 0
0 255 0
0 255 0
0 255 0
0 255 0
0 255 0
0 255 0
0 255 0
0 255 0
0 255 0
0 255 0
0 255 0
0 255 0
0 255 0
0 255 0
0 255 0
0 255 0
0 255 0
0 255 0
0 120 44
0 0 131
0 0 159
0 0 166
0 0 172
0 0 176
0 0 180
0 0 183
0 0 186
0 0 189
0 0 192
0 0 194
0 0 196
0 0 198
0 0 200
0 0 202
0 0 203
0 0 205
0 0 206
0 0 207
0 0 208
0 0 210
0 0 210
0 0 211
0 0 212
0 0 213
0 0 213
0 0 214
0 0 215
0 0 215
0 0 216
0 0 216
0 0 217
0 0 217
0 0 217
0 0 218
0 0 218
0 0 218
0 0 218
0 0 218
0 0 218
1 0 218
3 0 218
6 0 218
9 0 218
11 0 218
14 0 218
17 0 217
19 0 217
22 0 217
24 0 216
27 0 216
30 0 215
32 0 215
35 0 214
38 0 214
41 0 213
43 0 212
46 0 211
49 0 210
52 0 209
55 0 208
58 0 207
61 0 206
64 0 205
67 0 203
70 0 202
73 0 200
76 0 198
79 0 196
83 0 194
86 0 192
90 0 189
93 0 187
97 0 184
101 0 180
105 0 176
110 0 172
114 0 167
121 0 158
116 0 135
28 166 29
1 255 0
1 255 0
1 255 0
1 255 0
1 255 0
1 255 0
1 255 0
1 255 0
1 255 0
1 255 0
1 255 0
1 255 0
1 255 0
1 255 0
1 255 0
1 255 0
1 255 0
1 255 0
1 255 0
1 255 0
1 255 0
1 255 0
1 255 0
1 255 0
1 255 0
1 255 0
1 255 0
1 255 0
1 255 0
1 255 0
1 255 0
1 255 0
1 255 0
1 255 0
1 255 0
1 255 0
1 255 0
1 255 0
2 255 0
2 255 0
2 255 0
2 255 0
2 255 0
2 255 0
2 255 0
2 255 0
2 255 0
2 255 0
2 255 0
2 255 0
2 255 0
2 255 0
2 255 0
2 255 0
2 255 0
2 255 0
2 255 0
2 255 0
2 255 0
2 255 0
2 255 0
2 255 0
2 255 0
2 255 0
2 255 0
2 255 0
2 255 0
2 255 0
2 255 0
2 255 0
2 255 0
2 255 0
2 255 0
2 255 0
2 255 0
2 255 0
2 255 0
3 255 0
3 255 0
3 255 0
3 255 0
3 255 0
3 255 0
3 255 0
3 255 0
3 255 0
3 255 0
3 255 0
3 255 0
3 255 0
3 255 0
3 255 0
3 255 0
3 255 0
3 255 0
3 255 0
3 255 0
3 255 0
3 255 0
3 255 0
3 255 0
3 255 0
3 255 0
3 255 0
3 255 0
3 255 0
3 255 0
3 255 0
3 255 0
3 255 0
3 255 0
3 255 0
3 255 0
3 255 0
4 255 0
4 255 0
4 255 0
4 255 0
4 255 0
4 255 0
4 255 0
4 255 0
4 255 0
4 255 0
4 255 0
4 255 0
4 255 0
4 255 0
4 255 0
4 255 0
4 255 0
4 255 0
4 255 0
4 255 0
4 255 0
4 255 0
4 255 0
4 255 0
4 255 0
4 255 0
4 255 0
4 255 0
4 255 0
4 255 0
4 255 0
4 255 0
4 255 0
4 255 0
4 255 0
4 255 0
4 255 0
5 255 0
5 255 0
5 255 0
5 255 0
5 255 0
5 255 0
5 255 0
5 255 0
0 255 0
0 255 0
0 255 0
0 255 0
0 255 0
0 255 0
0 255 0
0 255 0
0 255 0
0 255 0
0 255 0
0 255 0
0 255 0
0 255 0
0 255 0
0 255 0
0 255 0
0 255 0
0 255 0
0 255 0
0 255 0
0 255 0
0 255 0
0 255 0
0 255 0
0 255 0
0 255 0
0 255 0
0 255 0
0 255 0
0 255 0
0 255 0
0 255 0
0 255 0
0 255 0
0 255 0
0 255 0
0 255 0
0 255 0
0 255 0
0 255 0
0 255 0
0 255 0
0 255 0
0 255 0
0 255 0
0 255 0
0 255 0
0 255 0
0 255 0
0 255 0
0 255 0
0 255 0
0 255 0
0 255 0
0 255 0
0 255 0
0 255 0
0 255 0
0 255 0
0 255 0
0 255 0
0 255 0
0 255 0
0 255 0
0 255 0
0 255 0
0 255 0
0 255 0
0 255 0
0 255 0
0 255 0
0 255 0
0 255 0
0 255 0
0 255 0
0 255 0
0 255 0
0 255 0
0 255 0
0 255 0
0 255 0
0 255 0
0 255 0
0 255 0
0 255 0
0 255 0
0 255 0
0 255 0
0 255 0
0 255 0
0 255 0
0 255 0
0 255 0
0 255 0
0 255 0
0 255 0
0 255 0
0 255 0
0 255 0
0 255 0
0 255 0
0 255 0
0 255 0
0 255 0
0 255 0
0 255 0
0 255 0
0 255 0
0 255 0
0 255 0
0 255 0
0 255 0
0 255 0
0 255 0
0 255 0
0 255 0
0 255 0
0 255 0
0 255 0
0 255 0
0 255 0
0 255 0
0 255 0
0 255 0
0 255 0
0 255 0
0 255 0
0 255 0
0 255 0
0 255 0
0 255 0
0 255 0
0 255 0
0 255 0
0 255 0
0 255 0
0 255 0
0 255 0
0 255 0
0 255 0
0 255 0
0 255 0
0 255 0
0 255 0
0 255 0
0 255 0
0 255 0
0 255 0
0 255 0
0 255 0
0 255 0
0 255 0
0 255 0
0 255 0
0 255 0
0 255 0
0 255 0
0 255 0
0 255 0
0 196 19
0 0 112
0 0 156
0 0 164
0 0 169
0 0 175
0 0 178
0 0 182
0 0 185
0 0 187
0 0 190
0 0 193
0 0 195
0 0 197
0 0 198
0 0 200
0 0 202
0 0 203
0 0 204
0 0 206
0 0 206
0 0 208
0 0 209
0 0 209
0 0 210
0 0 211
0 0 212
0 0 212
0 0 213
0 0 213
0 0 214
0 0 214
0 0 215
0 0 215
0 0 215
0 0 216
0 0 216
0 0 216
0 0 216
0 0 216
1 0 216
3 0 216
6 0 216
9 0 216
11 0 216
14 0 215
17 0 215
19 0 215
22 0 214
25 0 214
27 0 213
30 0 213
33 0 212
36 0 212
38 0 211
41 0 210
44 0 209
47 0 208
49 0 208
52 0 207
55 0 205
58 0 204
61 0 203
64 0 202
67 0 200
70 0 198
74 0 197
77 0 195
80 0 193
84 0 190
87 0 188
91 0 185
95 0 182
99 0 178
103 0 174
107 0 169
112 0 163
118 0 155
98 0 115
12 217 12
0 255 0
1 255 0
1 255 0
1 255 0
1 255 0
1 255 0
1 255 0
1 255 0
1 255 0
1 255 0
1 255 0
1 255 0
1 255 0
1 255 0
1 255 0
1 255 0
1 255 0
1 255 0
1 255 0
1 255 0
1 255 0
1 255 0
1 255 0
1 255 0
1 255 0
1 255 0
1 255 0
1 255 0
1 255 0
1 255 0
1 255 0
1 255 0
1 255 0
1 255 0
1 255 0
1 255 0
1 255 0
1 255 0
1 255 0
1 255 0
1 255 0
2 255 0
2 255 0
2 255 0
2 255 0
2 255 0
2 255 0
2 255 0
2 255 0
2 255 0
2 255 0
2 255 0
2 255 0
2 255 0
2 255 0
2 255 0
2 255 0
2 255 0
2 255 0
2 255 0
2 255 0
2 255 0
2 255 0
2 255 0
2 255 0
2 255 0
2 255 0
2 255 0
2 255 0
2 255 0
2 255 0
2 255 0
2 255 0
2 255 0
2 255 0
2 255 0
2 255 0
2 255 0
2 255 0
2 255 0
3 255 0
3 255 0
3 255 0
3 255 0
3 255 0
3 255 0
3 255 0
3 255 0
3 255 0
3 255 0
3 255 0
3 255 0
3 255 0
3 255 0
3 255 0
3 255 0
3 255 0
3 255 0
3 255 0
3 255 0
3 255 0
3 255 0
3 255 0
3 255 0
3 255 0
3 255 0
3 255 0
3 255 0
3 255 0
3 255 0
3 255 0
3 255 0
3 255 0
3 255 0
3 255 0
3 255 0
3 255 0
3 255 0
3 255 0
4 255 0
4 255 0
4 255 0
4 255 0
4 255 0
4 255 0
4 255 0
4 255 0
4 255 0
4 255 0
4 255 0
4 255 0
4 255 0
4 255 0
4 255 0
4 255 0
4 255 0
4 255 0
4 255 0
4 255 0
4 255 0
4 255 0
4 255 0
4 255 0
4 255 0
4 255 0
4 255 0
4 255 0
4 255 0
4 255 0
4 255 0
4 255 0
4 255 0
4 255 0
4 255 0
4 255 0
4 255 0
5 255 0
5 255 0
5 255 0
5 255 0
0 255 0
0 255 0
0 255 0
0 255 0
0 255 0
0 255 0
0 255 0
0 255 0
0 255 0
0 255 0
0 255 0
0 255 0
0 255 0
0 255 0
0 255 0
0 255 0
0 255 0
0 255 0
0 255 0
0 255 0
0 255 0
0 255 0
0 255 0
0 255 0
0 255 0
0 255 0
0 255 0
0 255 0
0 255 0
0 255 0
0 255 0
0 255 0
0 255 0
0 255 0
0 255 0
0 255 0
0 255 0
0 255 0
0 255 0
0 255 0
0 255 0
0 255 0
0 255 0
0 255 0
0 255 0
0 255 0
0 255 0
0 255 0
0 255 0
0 255 0
0 255 0
0 255 0
0 255 0
0 255 0
0 255 0
0 255 0
0 255 0
0 255 0
0 255 0
0 255 0
0 255 0
0 255 0
0 255 0
0 255 0
0 255 0
0 255 0
0 255 0
0 255 0
0 255 0
0 255 0
0 255 0
0 255 0
0 255 0
0 255 0
0 255 0
0 255 0
0 255 0
0 255 0
0 255 0
0 255 0
0 255 0
0 255 0
0 255 0
0 255 0
0 255 0
0 255 0
0 255 0
0 255 0
0 255 0
0 255 0
0 255 0
0 255 0
0 255 0
0 255 0
0 255 0
0 255 0
0 255 0
0 255 0
0 255 0
0 255 0
0 255 0
0 255 0
0 255 0
0 255 0
0 255 0
0 255 0
0 255 0
0 255 0
0 255 0
0 255 0
0 255 0
0 255 0
0 255 0
0 255 0
0 255 0
0 255 0
0 255 0
0 255 0
0 255 0
0 255 0
0 255 0
0 255 0
0 255 0
0 255 0
0 255 0
0 255 0
0 255 0
0 255 0
0 255 0
0 255 0
0 255 0
0 255 0
0 255 0
0 255 0
0 255 0
0 255 0
0 255 0
0 255 0
0 255 0
0 255 0
0 255 0
0 255 0
0 255 0
0 255 0
0 255 0
0 255 0
0 255 0
0 255 0
0 255 0
0 255 0
0 255 0
0 255 0
0 255 0
0 255 0
0 255 0
0 255 0
0 255 0
0 255 0
0 255 0
0 255 0
0 255 0
0 243 3
0 0 87
0 0 151
0 0 160
0 0 167
0 0 171
0 0 176
0 0 180
0 0 183
0 0 185
0 0 188
0 0 191
0 0 193
0 0 195
0 0 196
0 0 198
0 0 199
0 0 201
0 0 202
0 0 204
0 0 205
0 0 206
0 0 207
0 0 207
0 0 208
0 0 209
0 0 210
0 0 210
0 0 211
0 0 211
0 0 212
0 0 212
0 0 213
0 0 213
0 0 213
0 0 213
0 0 213
0 0 214
0 0 214
1 0 214
4 0 214
6 0 214
9 0 213
11 0 213
14 0 213
17 0 213
20 0 212
22 0 212
25 0 211
28 0 211
30 0 210
33 0 210
36 0 209
39 0 208
41 0 208
44 0 207
47 0 206
50 0 205
53 0 203
56 0 202
59 0 201
62 0 200
65 0 198
68 0 196
71 0 195
74 0 193
78 0 191
81 0 188
85 0 186
89 0 183
92 0 180
97 0 176
101 0 172
105 0 166
110 0 160
114 0 149
73 0 86
3 247 2
0 255 0
0 255 0
1 255 0
1 255 0
1 255 0
1 255 0
1 255 0
1 255 0
1 255 0
1 255 0
1 255 0
1 255 0
1 255 0
1 255 0
1 255 0
1 255 0
1 255 0
1 255 0
1 255 0
1 255 0
1 255 0
1 255 0
1 255 0
1 255 0
1 255 0
1 255 0
1 255 0
1 255 0
1 255 0
1 255 0
1 255 0
1 255 0
1 255 0
1 255 0
1 255 0
1 255 0
1 255 0
1 255 0
1 255 0
1 255 0
1 255 0
1 255 0
1 255 0
2 255 0
2 255 0
2 255 0
2 255 0
2 255 0
2 255 0
2 255 0
2 255 0
2 255 0
2 255 0
2 255 0
2 255 0
2 255 0
2 255 0
2 255 0
2 255 0
2 255 0
2 255 0
2 255 0
2 255 0
2 255 0
2 255 0
2 255 0
2 255 0
2 255 0
2 255 0
2 255 0
2 255 0
2 255 0
2 255 0
2 255 0
2 255 0
2 255 0
2 255 0
2 255 0
2 255 0
2 255 0
2 255 0
2 255 0
2 255 0
2 255 0
3 255 0
3 255 0
3 255 0
3 255 0
3 255 0
3 255 0
3 255 0
3 255 0
3 255 0
3 255 0
3 255 0
3 255 0
3 255 0
3 255 0
3 255 0
3 255 0
3 255 0
3 255 0
3 255 0
3 255 0
3 255 0
3 255 0
3 255 0
3 255 0
3 255 0
3 255 0
3 255 0
3 255 0
3 255 0
3 255 0
3 255 0
3 255 0
3 255 0
3 255 0
3 255 0
3 255 0
3 255 0
3 255 0
3 255 0
4 255 0
4 255 0
4 255 0
4 255 0
4 255 0
4 255 0
4 255 0
4 255 0
4 255 0
4 255 0
4 255 0
4 255 0
4 255 0
4 255 0
4 255 0
4 255 0
4 255 0
4 255 0
4 255 0
4 255 0
4 255 0
4 255 0
4 255 0
4 255 0
4 255 0
4 255 0
4 255 0
4 255 0
4 255 0
4 255 0
4 255 0
4 255 0
4 255 0
4 255 0
4 255 0
4 255 0
4 255 0
4 255 0
0 255 0
0 255 0
0 255 0
0 255 0
0 255 0
0 255 0
0 255 0
0 255 0
0 255 0
0 255 0
0 255 0
0 255 0
0 255 0
0 255 0
0 255 0
0 255 0
0 255 0
0 255 0
0 255 0
0 255 0
0 255 0
0 255 0
0 255 0
0 255 0
0 255 0
0 255 0
0 255 0
0 255 0
0 255 0
0 255 0
0 255 0
0 255 0
0 255 0
0 255 0
0 255 0
0 255 0
0 255 0
0 255 0
0 255 0
0 255 0
0 255 0
0 255 0
0 255 0
0 255 0
0 255 0
0 255 0
0 255 0
0 255 0
0 255 0
0 255 0
0 255 0
0 255 0
0 255 0
0 255 0
0 255 0
0 255 0
0 255 0
0 255 0
0 255 0
0 255 0
0 255 0
0 255 0
0 255 0
0 255 0
0 255 0
0 255 0
0 255 0
0 255 0
0 255 0
0 255 0
0 255 0
0 255 0
0 255 0
0 255 0
0 255 0
0 255 0
0 255 0
0 255 0
0 255 0
0 255 0
0 255 0
0 255 0
0 255 0
0 255 0
0 255 0
0 255 0
0 255 0
0 255 0
0 255 0
0 255 0
0 255 0
0 255 0
0 255 0
0 255 0
0 255 0
0 255 0
0 255 0
0 255 0
0 255 0
0 255 0
0 255 0
0 255 0
0 255 0
0 255 0
0 255 0
0 255 0
0 255 0
0 255 0
0 255 0
0 255 0
0 255 0
0 255 0
0 255 0
0 255 0
0 255 0
0 255 0
0 255 0
0 255 0
0 255 0
0 255 0
0 255 0
0 255 0
0 255 0
0 255 0
0 255 0
0 255 0
0 255 0
0 255 0
0 255 0
0 255 0
0 255 0
0 255 0
0 255 0
0 255 0
0 255 0
0 255 0
0 255 0
0 255 0
0 255 0
0 255 0
0 255 0
0 255 0
0 255 0
0 255 0
0 255 0
0 255 0
0 255 0
0 255 0
0 255 0
0 255 0
0 255 0
0 255 0
0 255 0
0 255 0
0 255 0
0 255 0
0 255 0
0 255 0
0 255 0
0 255 0
0 255 0
0 255 0
0 255 0
0 130 40
0 0 127
0 0 156
0 0 163
0 0 168
0 0 173
0 0 177
0 0 180
0 0 184
0 0 186
0 0 188
0 0 191
0 0 192
0 0 194
0 0 196
0 0 197
0 0 199
0 0 200
0 0 201
0 0 202
0 0 204
0 0 204
0 0 205
0 0 206
0 0 207
0 0 208
0 0 208
0 0 209
0 0 209
0 0 210
0 0 210
0 0 210
0 0 211
0 0 211
0 0 211
0 0 211
0 0 211
1 0 211
4 0 211
6 0 211
9 0 211
12 0 210
14 0 210
17 0 210
20 0 210
22 0 209
25 0 209
28 0 208
31 0 207
33 0 207
36 0 206
39 0 205
42 0 205
45 0 204
48 0 203
51 0 202
53 0 200
56 0 199
60 0 198
63 0 196
66 0 194
69 0 192
72 0 190
76 0 188
79 0 186
83 0 184
86 0 180
90 0 177
94 0 173
98 0 169
103 0 163
109 0 155
102 0 131
17 195 19
0 255 0
0 255 0
0 255 0
0 255 0
0 255 0
1 255 0
1 255 0
1 255 0
1 255 0
1 255 0
1 255 0
1 255 0
1 255 0
1 255 0
1 255 0
1 255 0
1 255 0
1 255 0
1 255 0
1 255 0
1 255 0
1 255 0
1 255 0
1 255 0
1 255 0
1 255 0
1 255 0
1 255 0
1 255 0
1 255 0
1 255 0
1 255 0
1 255 0
1 255 0
1 255 0
1 255 0
1 255 0
1 255 0
1 255 0
1 255 0
1 255 0
1 255 0
1 255 0
1 255 0
1 255 0
1 255 0
1 255 0
2 255 0
2 255 0
2 255 0
2 255 0
2 255 0
2 255 0
2 255 0
2 255 0
2 255 0
2 255 0
2 255 0
2 255 0
2 255 0
2 255 0
2 255 0
2 255 0
2 255 0
2 255 0
2 255 0
2 255 0
2 255 0
2 255 0
2 255 0
2 255 0
2 255 0
2 255 0
2 255 0
2 255 0
2 255 0
2 255 0
2 255 0
2 255 0
2 255 0
2 255 0
2 255 0
2 255 0
2 255 0
2 255 0
2 255 0
2 255 0
2 255 0
3 255 0
3 255 0
3 255 0
3 255 0
3 255 0
3 255 0
3 255 0
3 255 0
3 255 0
3 255 0
3 255 0
3 255 0
3 255 0
3 255 0
3 255 0
3 255 0
3 255 0
3 255 0
3 255 0
3 255 0
3 255 0
3 255 0
3 255 0
3 255 0
3 255 0
3 255 0
3 255 0
3 255 0
3 255 0
3 255 0
3 255 0
3 255 0
3 255 0
3 255 0
3 255 0
3 255 0
3 255 0
3 255 0
3 255 0
3 255 0
4 255 0
4 255 0
4 255 0
4 255 0
4 255 0
4 255 0
4 255 0
4 255 0
4 255 0
4 255 0
4 255 0
4 255 0
4 255 0
4 255 0
4 255 0
4 255 0
4 255 0
4 255 0
4 255 0
4 255 0
4 255 0
4 255 0
4 255 0
4 255 0
4 255 0
4 255 0
4 255 0
4 255 0
4 255 0
4 255 0
4 255 0
4 255 0
4 255 0
4 255 0
4 255 0
0 255 0
0 255 0
0 255 0
0 255 0
0 255 0
0 255 0
0 255 0
0 255 0
0 255 0
0 255 0
0 255 0
0 255 0
0 255 0
0 255 0
0 255 0
0 255 0
0 255 0
0 255 0
0 255 0
0 255 0
0 255 0
0 255 0
0 255 0
0 255 0
0 255 0
0 255 0
0 255 0
0 255 0
0 255 0
0 255 0
0 255 0
0 255 0
0 255 0
0 255 0
0 255 0
0 255 0
0 255 0
0 255 0
0 255 0
0 255 0
0 255 0
0 255 0
0 255 0
0 255 0
0 255 0
0 255 0
0 255 0
0 255 0
0 255 0
0 255 0
0 255 0
0 255 0
0 255 0
0 255 0
0 255 0
0 255 0
0 255 0
0 255 0
0 255 0
0 255 0
0 255 0
0 255 0
0 255 0
0 255 0
0 255 0
0 255 0
0 255 0
0 255 0
0 255 0
0 255 0
0 255 0
0 255 0
0 255 0
0 255 0
0 255 0
0 255 0
0 255 0
0 255 0
0 255 0
0 255 0
0 255 0
0 255 0
0 255 0
0 255 0
0 255 0
0 255 0
0 255 0
0 255 0
0 255 0
0 255 0
0 255 0
0 255 0
0 255 0
0 255 0
0 255 0
0 255 0
0 255 0
0 255 0
0 255 0
0 255 0
0 255 0
0 255 0
0 255 0
0 255 0
0 255 0
0 255 0
0 255 0
0 255 0
0 255 0
0 255 0
0 255 0
0 255 0
0 255 0
0 255 0
0 255 0
0 255 0
0 255 0
0 255 0
0 255 0
0 255 0
0 255 0
0 255 0
0 255 0
0 255 0
0 255 0
0 255 0
0 255 0
0 255 0
0 255 0
0 255 0
0 255 0
0 255 0
0 255 0
0 255 0
0 255 0
0 255 0
0 255 0
0 255 0
0 255 0
0 255 0
0 255 0
0 255 0
0 255 0
0 255 0
0 255 0
0 255 0
0 255 0
0 255 0
0 255 0
0 255 0
0 255 0
0 255 0
0 255 0
0 255 0
0 255 0
0 255 0
0 255 0
0 255 0
0 255 0
0 255 0
0 255 0
0 255 0
0 255 0
0 255 0
0 234 6
0 0 88
0 0 145
0 0 158
0 0 165
0 0 170
0 0 174
0 0 178
0 0 181
0 0 183
0 0 186
0 0 188
0 0 190
0 0 192
0 0 193
0 0 195
0 0 197
0 0 198
0 0 199
0 0 200
0 0 201
0 0 202
0 0 203
0 0 204
0 0 205
0 0 205
0 0 206
0 0 206
0 0 207
0 0 207
0 0 207
0 0 208
0 0 208
0 0 208
0 0 208
0 0 208
1 0 208
4 0 208
6 0 208
9 0 208
12 0 208
14 0 207
17 0 207
20 0 207
23 0 206
25 0 206
28 0 205
31 0 204
34 0 204
37 0 203
39 0 202
42 0 201
45 0 200
48 0 199
51 0 198
54 0 196
57 0 195
60 0 194
63 0 192
67 0 190
70 0 188
73 0 186
77 0 183
80 0 181
84 0 178
88 0 174
92 0 171
97 0 165
101 0 159
105 0 148
54 46 67
1 251 1
0 255 0
0 255 0
0 255 0
0 255 0
0 255 0
0 255 0
0 255 0
1 255 0
1 255 0
1 255 0
1 255 0
1 255 0
1 255 0
1 255 0
1 255 0
1 255 0
1 255 0
1 255 0
1 255 0
1 255 0
1 255 0
1 255 0
1 255 0
1 255 0
1 255 0
1 255 0
1 255 0
1 255 0
1 255 0
1 255 0
1 255 0
1 255 0
1 255 0
1 255 0
1 255 0
1 255 0
1 255 0
1 255 0
1 255 0
1 255 0
1 255 0
1 255 0
1 255 0
1 255 0
1 255 0
1 255 0
1 255 0
1 255 0
1 255 0
2 255 0
2 255 0
2 255 0
2 255 0
2 255 0
2 255 0
2 255 0
2 255 0
2 255 0
2 255 0
2 255 0
2 255 0
2 255 0
2 255 0
2 255 0
2 255 0
2 255 0
2 255 0
2 255 0
2 255 0
2 255 0
2 255 0
2 255 0
2 255 0
2 255 0
2 255 0
2 255 0
2 255 0
2 255 0
2 255 0
2 255 0
2 255 0
2 255 0
2 255 0
2 255 0
2 255 0
2 255 0
2 255 0
2 255 0
2 255 0
2 255 0
2 255 0
3 255 0
3 255 0
3 255 0
3 255 0
3 255 0
3 255 0
3 255 0
3 255 0
3 255 0
3 255 0
3 255 0
3 255 0
3 255 0
3 255 0
3 255 0
3 255 0
3 255 0
3 255 0
3 255 0
3 255 0
3 255 0
3 255 0
3 255 0
3 255 0
3 255 0
3 255 0
3 255 0
3 255 0
3 255 0
3 255 0
3 255 0
3 255 0
3 255 0
3 255 0
3 255 0
3 255 0
3 255 0
3 255 0
3 255 0
3 255 0
3 255 0
4 255 0
4 255 0
4 255 0
4 255 0
4 255 0
4 255 0
4 255 0
4 255 0
4 255 0
4 255 0
4 255 0
4 255 0
4 255 0
4 255 0
4 255 0
4 255 0
4 255 0
4 255 0
4 255 0
4 255 0
4 255 0
4 255 0
4 255 0
4 255 0
4 255 0
4 255 0
4 255 0
4 255 0
4 255 0
4 255 0
4 255 0
4 255 0
0 255 0
0 255 0
0 255 0
0 255 0
0 255 0
0 255 0
0 255 0
0 255 0
0 255 0
0 255 0
0 255 0
0 255 0
0 255 0
0 255 0
0 255 0
0 255 0
0 255 0
0 255 0
0 255 0
0 255 0
0 255 0
0 255 0
0 255 0
0 255 0
0 255 0
0 255 0
0 255 0
0 255 0
0 255 0
0 255 0
0 255 0
0 255 0
0 255 0
0 255 0
0 255 0
0 255 0
0 255 0
0 255 0
0 255 0
0 255 0
0 255 0
0 255 0
0 255 0
0 255 0
0 255 0
0 255 0
0 255 0
0 255 0
0 255 0
0 255 0
0 255 0
0 255 0
0 255 0
0 255 0
0 255 0
0 255 0
0 255 0
0 255 0
0 255 0
0 255 0
0 255 0
0 255 0
0 255 0
0 255 0
0 255 0
0 255 0
0 255 0
0 255 0
0 255 0
0 255 0
0 255 0
0 255 0
0 255 0
0 255 0
0 255 0
0 255 0
0 255 0
0 255 0
0 255 0
0 255 0
0 255 0
0 255 0
0 255 0
0 255 0
0 255 0
0 255 0
0 255 0
0 255 0
0 255 0
0 255 0
0 255 0
0 255 0
0 255 0
0 255 0
0 255 0
0 255 0
0 255 0
0 255 0
0 255 0
0 255 0
0 255 0
0 255 0
0 255 0
0 255 0
0 255 0
0 255 0
0 255 0
0 255 0
0 255 0
0 255 0
0 255 0
0 255 0
0 255 0
0 255 0
0 255 0
0 255 0
0 255 0
0 255 0
0 255 0
0 255 0
0 255 0
0 255 0
0 255 0
0 255 0
0 255 0
0 255 0
0 255 0
0 255 0
0 255 0
0 255 0
0 255 0
0 255 0
0 255 0
0 255 0
0 255 0
0 255 0
0 255 0
0 255 0
0 255 0
0 255 0
0 255 0
0 255 0
0 255 0
0 255 0
0 255 0
0 255 0
0 255 0
0 255 0
0 255 0
0 255 0
0 255 0
0 255 0
0 255 0
0 255 0
0 255 0
0 255 0
0 255 0
0 255 0
0 255 0
0 255 0
0 255 0
0 255 0
0 255 0
0 255 0
0 255 0
0 255 0
0 167 27
0 0 112
0 0 153
0 0 161
0 0 166
0 0 171
0 0 174
0 0 178
0 0 180
0 0 183
0 0 185
0 0 187
0 0 189
0 0 191
0 0 192
0 0 194
0 0 195
0 0 197
0 0 197
0 0 199
0 0 199
0 0 201
0 0 201
0 0 202
0 0 202
0 0 203
0 0 204
0 0 204
0 0 204
0 0 205
0 0 205
0 0 205
0 0 205
0 0 205
1 0 205
4 0 205
6 0 205
9 0 205
12 0 204
14 0 204
17 0 204
20 0 204
23 0 203
26 0 202
28 0 202
31 0 201
34 0 200
37 0 200
40 0 199
43 0 198
46 0 196
49 0 195
52 0 194
55 0 192
58 0 191
61 0 189
64 0 188
67 0 186
71 0 183
74 0 181
78 0 177
82 0 174
86 0 170
90 0 166
94 0 162
100 0 153
80 0 110
20 176 25
0 255 0
0 255 0
0 255 0
0 255 0
0 255 0
0 255 0
0 255 0
0 255 0
0 255 0
0 255 0
1 255 0
1 255 0
1 255 0
1 255 0
1 255 0
1 255 0
1 255 0
1 255 0
1 255 0
1 255 0
1 255 0
1 255 0
1 255 0
1 255 0
1 255 0
1 255 0
1 255 0
1 255 0
1 255 0
1 255 0
1 255 0
1 255 0
1 255 0
1 255 0
1 255 0
1 255 0
1 255 0
1 255 0
1 255 0
1 255 0
1 255 0
1 255 0
1 255 0
1 255 0
1 255 0
1 255 0
1 255 0
1 255 0
1 255 0
1 255 0
1 255 0
1 255 0
1 255 0
2 255 0
2 255 0
2 255 0
2 255 0
2 255 0
2 255 0
2 255 0
2 255 0
2 255 0
2 255 0
2 255 0
2 255 0
2 255 0
2 255 0
2 255 0
2 255 0
2 255 0
2 255 0
2 255 0
2 255 0
2 255 0
2 255 0
2 255 0
2 255 0
2 255 0
2 255 0
2 255 0
2 255 0
2 255 0
2 255 0
2 255 0
2 255 0
2 255 0
2 255 0
2 255 0
2 255 0
2 255 0
2 255 0
2 255 0
2 255 0
2 255 0
2 255 0
3 255 0
3 255 0
3 255 0
3 255 0
3 255 0
3 255 0
3 255 0
3 255 0
3 255 0
3 255 0
3 255 0
3 255 0
3 255 0
3 255 0
3 255 0
3 255 0
3 255 0
3 255 0
3 255 0
3 255 0
3 255 0
3 255 0
3 255 0
3 255 0
3 255 0
3 255 0
3 255 0
3 255 0
3 255 0
3 255 0
3 255 0
3 255 0
3 255 0
3 255 0
3 255 0
3 255 0
3 255 0
3 255 0
3 255 0
3 255 0
3 255 0
3 255 0
4 255 0
4 255 0
4 255 0
4 255 0
4 255 0
4 255 0
4 255 0
4 255 0
4 255 0
4 255 0
4 255 0
4 255 0
4 255 0
4 255 0
4 255 0
4 255 0
4 255 0
4 255 0
4 255 0
4 255 0
4 255 0
4 255 0
4 255 0
4 255 0
4 255 0
4 255 0
4 255 0
4 255 0
4 255 0
0 255 0
0 255 0
0 255 0
0 255 0
0 255 0
0 255 0
0 255 0
0 255 0
0 255 0
0 255 0
0 255 0
0 255 0
0 255 0
0 255 0
0 255 0
0 255 0
0 255 0
0 255 0
0 255 0
0 255 0
0 255 0
0 255 0
0 255 0
0 255 0
0 255 0
0 255 0
0 255 0
0 255 0
0 255 0
0 255 0
0 255 0
0 255 0
0 255 0
0 255 0
0 255 0
0 255 0
0 255 0
0 255 0
0 255 0
0 255 0
0 255 0
0 255 0
0 255 0
0 255 0
0 255 0
0 255 0
0 255 0
0 255 0
0 255 0
0 255 0
0 255 0
0 255 0
0 255 0
0 255 0
0 255 0
0 255 0
0 255 0
0 255 0
0 255 0
0 255 0
0 255 0
0 255 0
0 255 0
0 255 0
0 255 0
0 255 0
0 255 0
0 255 0
0 255 0
0 255 0
0 255 0
0 255 0
0 255 0
0 255 0
0 255 0
0 255 0
0 255 0
0 255 0
0 255 0
0 255 0
0 255 0
0 255 0
0 255 0
0 255 0
0 255 0
0 255 0
0 255 0
0 255 0
0 255 0
0 255 0
0 255 0
0 255 0
0 255 0
0 255 0
0 255 0
0 255 0
0 255 0
0 255 0
0 255 0
0 255 0
0 255 0
0 255 0
0 255 0
0 255 0
0 255 0
0 255 0
0 255 0
0 255 0
0 255 0
0 255 0
0 255 0
0 255 0
0 255 0
0 255 0
0 255 0
0 255 0
0 255 0
0 255 0
0 255 0
0 255 0
0 255 0
0 255 0
0 255 0
0 255 0
0 255 0
0 255 0
0 255 0
0 255 0
0 255 0
0 255 0
0 255 0
0 255 0
0 255 0
0 255 0
0 255 0
0 255 0
0 255 0
0 255 0
0 255 0
0 255 0
0 255 0
0 255 0
0 255 0
0 255 0
0 255 0
0 255 0
0 255 0
0 255 0
0 255 0
0 255 0
0 255 0
0 255 0
0 255 0
0 255 0
0 255 0
0 255 0
0 255 0
0 255 0
0 255 0
0 255 0
0 255 0
0 255 0
0 255 0
0 255 0
0 255 0
0 255 0
0 255 0
0 255 0
0 140 36
0 0 123
0 0 154
0 0 161
0 0 166
0 0 170
0 0 174
0 0 177
0 0 179
0 0 182
0 0 184
0 0 186
0 0 188
0 0 189
0 0 191
0 0 193
0 0 193
0 0 195
0 0 195
0 0 197
0 0 197
0 0 198
0 0 199
0 0 200
0 0 200
0 0 200
0 0 201
0 0 201
0 0 201
0 0 202
0 0 202
0 0 202
1 0 202
4 0 202
6 0 201
9 0 201
12 0 201
15 0 201
17 0 201
20 0 200
23 0 199
26 0 199
29 0 198
31 0 198
34 0 196
37 0 196
40 0 195
43 0 194
46 0 192
49 0 191
52 0 189
56 0 188
59 0 186
62 0 184
65 0 182
69 0 180
72 0 177
76 0 174
80 0 170
84 0 166
88 0 161
94 0 154
84 0 124
34 109 46
0 255 0
0 255 0
0 255 0
0 255 0
0 255 0
0 255 0
0 255 0
0 255 0
0 255 0
0 255 0
0 255 0
0 255 0
0 255 0
1 255 0
1 255 0
1 255 0
1 255 0
1 255 0
1 255 0
1 255 0
1 255 0
1 255 0
1 255 0
1 255 0
1 255 0
1 255 0
1 255 0
1 255 0
1 255 0
1 255 0
1 255 0
1 255 0
1 255 0
1 255 0
1 255 0
1 255 0
1 255 0
1 255 0
1 255 0
1 255 0
1 255 0
1 255 0
1 255 0
1 255 0
1 255 0
1 255 0
1 255 0
1 255 0
1 255 0
1 255 0
1 255 0
1 255 0
1 255 0
1 255 0
1 255 0
1 255 0
1 255 0
2 255 0
2 255 0
2 255 0
2 255 0
2 255 0
2 255 0
2 255 0
2 255 0
2 255 0
2 255 0
2 255 0
2 255 0
2 255 0
2 255 0
2 255 0
2 255 0
2 255 0
2 255 0
2 255 0
2 255 0
2 255 0
2 255 0
2 255 0
2 255 0
2 255 0
2 255 0
2 255 0
2 255 0
2 255 0
2 255 0
2 255 0
2 255 0
2 255 0
2 255 0
2 255 0
2 255 0
2 255 0
2 255 0
2 255 0
2 255 0
2 255 0
2 255 0
2 255 0
3 255 0
3 255 0
3 255 0
3 255 0
3 255 0
3 255 0
3 255 0
3 255 0
3 255 0
3 255 0
3 255 0
3 255 0
3 255 0
3 255 0
3 255 0
3 255 0
3 255 0
3 255 0
3 255 0
3 255 0
3 255 0
3 255 0
3 255 0
3 255 0
3 255 0
3 255 0
3 255 0
3 255 0
3 255 0
3 255 0
3 255 0
3 255 0
3 255 0
3 255 0
3 255 0
3 255 0
3 255 0
3 255 0
3 255 0
3 255 0
3 255 0
3 255 0
4 255 0
4 255 0
4 255 0
4 255 0
4 255 0
4 255 0
4 255 0
4 255 0
4 255 0
4 255 0
4 255 0
4 255 0
4 255 0
4 255 0
4 255 0
4 255 0
4 255 0
4 255 0
4 255 0
4 255 0
4 255 0
4 255 0
4 255 0
4 255 0
4 255 0
4 255 0
0 255 0
0 255 0
0 255 0
0 255 0
0 255 0
0 255 0
0 255 0
0 255 0
0 255 0
0 255 0
0 255 0
0 255 0
0 255 0
0 255 0
0 255 0
0 255 0
0 255 0
0 255 0
0 255 0
0 255 0
0 255 0
0 255 0
0 255 0
0 255 0
0 255 0
0 255 0
0 255 0
0 255 0
0 255 0
0 255 0
0 255 0
0 255 0
0 255 0
0 255 0
0 255 0
0 255 0
0 255 0
0 255 0
0 255 0
0 255 0
0 255 0
0 255 0
0 255 0
0 255 0
0 255 0
0 255 0
0 255 0
0 255 0
0 255 0
0 255 0
0 255 0
0 255 0
0 255 0
0 255 0
0 255 0
0 255 0
0 255 0
0 255 0
0 255 0
0 255 0
0 255 0
0 255 0
0 255 0
0 255 0
0 255 0
0 255 0
0 255 0
0 255 0
0 255 0
0 255 0
0 255 0
0 255 0
0 255 0
0 255 0
0 255 0
0 255 0
0 255 0
0 255 0
0 255 0
0 255 0
0 255 0
0 255 0
0 255 0
0 255 0
0 255 0
0 255 0
0 255 0
0 255 0
0 255 0
0 255 0
0 255 0
0 255 0
0 255 0
0 255 0
0 255 0
0 255 0
0 255 0
0 255 0
0 255 0
0 255 0
0 255 0
0 255 0
0 255 0
0 255 0
0 255 0
0 255 0
0 255 0
0 255 0
0 255 0
0 255 0
0 255 0
0 255 0
0 255 0
0 255 0
0 255 0
0 255 0
0 255 0
0 255 0
0 255 0
0 255 0
0 255 0
0 255 0
0 255 0
0 255 0
0 255 0
0 255 0
0 255 0
0 255 0
0 255 0
0 255 0
0 255 0
0 255 0
0 255 0
0 255 0
0 255 0
0 255 0
0 255 0
0 255 0
0 255 0
0 255 0
0 255 0
0 255 0
0 255 0
0 255 0
0 255 0
0 255 0
0 255 0
0 255 0
0 255 0
0 255 0
0 255 0
0 255 0
0 255 0
0 255 0
0 255 0
0 255 0
0 255 0
0 255 0
0 255 0
0 255 0
0 255 0
0 255 0
0 255 0
0 255 0
0 255 0
0 255 0
0 255 0
0 255 0
0 255 0
0 246 2
0 72 57
0 0 131
0 0 155
0 0 161
0 0 166
0 0 169
0 0 173
0 0 175
0 0 178
0 0 181
0 0 182
0 0 184
0 0 186
0 0 188
0 0 189
0 0 190
0 0 191
0 0 192
0 0 193
0 0 194
0 0 195
0 0 196
0 0 196
0 0 197
0 0 197
0 0 197
0 0 198
0 0 198
0 0 198
0 0 198
1 0 198
4 0 198
7 0 198
9 0 198
12 0 197
15 0 197
18 0 197
21 0 196
23 0 195
26 0 195
29 0 194
32 0 193
35 0 192
38 0 191
41 0 190
44 0 189
47 0 188
50 0 186
53 0 184
56 0 183
60 0 181
63 0 178
67 0 176
70 0 173
74 0 170
78 0 166
82 0 160
87 0 154
74 0 117
38 81 55
1 251 1
0 255 0
0 255 0
0 255 0
0 255 0
0 255 0
0 255 0
0 255 0
0 255 0
0 255 0
0 255 0
0 255 0
0 255 0
0 255 0
0 255 0
1 255 0
1 255 0
1 255 0
1 255 0
1 255 0
1 255 0
1 255 0
1 255 0
1 255 0
1 255 0
1 255 0
1 255 0
1 255 0
1 255 0
1 255 0
1 255 0
1 255 0
1 255 0
1 255 0
1 255 0
1 255 0
1 255 0
1 255 0
1 255 0
1 255 0
1 255 0
1 255 0
1 255 0
1 255 0
1 255 0
1 255 0
1 255 0
1 255 0
1 255 0
1 255 0
1 255 0
1 255 0
1 255 0
1 255 0
1 255 0
1 255 0
1 255 0
1 255 0
1 255 0
1 255 0
2 255 0
2 255 0
2 255 0
2 255 0
2 255 0
2 255 0
2 255 0
2 255 0
2 255 0
2 255 0
2 255 0
2 255 0
2 255 0
2 255 0
2 255 0
2 255 0
2 255 0
2 255 0
2 255 0
2 255 0
2 255 0
2 255 0
2 255 0
2 255 0
2 255 0
2 255 0
2 255 0
2 255 0
2 255 0
2 255 0
2 255 0
2 255 0
2 255 0
2 255 0
2 255 0
2 255 0
2 255 0
2 255 0
2 255 0
2 255 0
2 255 0
2 255 0
2 255 0
2 255 0
3 255 0
3 255 0
3 255 0
3 255 0
3 255 0
3 255 0
3 255 0
3 255 0
3 255 0
3 255 0
3 255 0
3 255 0
3 255 0
3 255 0
3 255 0
3 255 0
3 255 0
3 255 0
3 255 0
3 255 0
3 255 0
3 255 0
3 255 0
3 255 0
3 255 0
3 255 0
3 255 0
3 255 0
3 255 0
3 255 0
3 255 0
3 255 0
3 255 0
3 255 0
3 255 0
3 255 0
3 255 0
3 255 0
3 255 0
3 255 0
3 255 0
3 255 0
3 255 0
4 255 0
4 255 0
4 255 0
4 255 0
4 255 0
4 255 0
4 255 0
4 255 0
4 255 0
4 255 0
4 255 0
4 255 0
4 255 0
4 255 0
4 255 0
4 255 0
4 255 0
4 255 0
4 255 0
4 255 0
4 255 0
4 255 0
4 255 0
0 255 0
0 255 0
0 255 0
0 255 0
0 255 0
0 255 0
0 255 0
0 255 0
0 255 0
0 255 0
0 255 0
0 255 0
0 255 0
0 255 0
0 255 0
0 255 0
0 255 0
0 255 0
0 255 0
0 255 0
0 255 0
0 255 0
0 255 0
0 255 0
0 255 0
0 255 0
0 255 0
0 255 0
0 255 0
0 255 0
0 255 0
0 255 0
0 255 0
0 255 0
0 255 0
0 255 0
0 255 0
0 255 0
0 255 0
0 255 0
0 255 0
0 255 0
0 255 0
0 255 0
0 255 0
0 255 0
0 255 0
0 255 0
0 255 0
0 255 0
0 255 0
0 255 0
0 255 0
0 255 0
0 255 0
0 255 0
0 255 0
0 255 0
0 255 0
0 255 0
0 255 0
0 255 0
0 255 0
0 255 0
0 255 0
0 255 0
0 255 0
0 255 0
0 255 0
0 255 0
0 255 0
0 255 0
0 255 0
0 255 0
0 255 0
0 255 0
0 255 0
0 255 0
0 255 0
0 255 0
0 255 0
0 255 0
0 255 0
0 255 0
0 255 0
0 255 0
0 255 0
0 255 0
0 255 0
0 255 0
0 255 0
0 255 0
0 255 0
0 255 0
0 255 0
0 255 0
0 255 0
0 255 0
0 255 0
0 255 0
0 255 0
0 255 0
0 255 0
0 255 0
0 255 0
0 255 0
0 255 0
0 255 0
0 255 0
0 255 0
0 255 0
0 255 0
0 255 0
0 255 0
0 255 0
0 255 0
0 255 0
0 255 0
0 255 0
0 255 0
0 255 0
0 255 0
0 255 0
0 255 0
0 255 0
0 255 0
0 255 0
0 255 0
0 255 0
0 255 0
0 255 0
0 255 0
0 255 0
0 255 0
0 255 0
0 255 0
0 255 0
0 255 0
0 255 0
0 255 0
0 255 0
0 255 0
0 255 0
0 255 0
0 255 0
0 255 0
0 255 0
0 255 0
0 255 0
0 255 0
0 255 0
0 255 0
0 255 0
0 255 0
0 255 0
0 255 0
0 255 0
0 255 0
0 255 0
0 255 0
0 255 0
0 255 0
0 255 0
0 255 0
0 255 0
0 255 0
0 255 0
0 255 0
0 255 0
0 255 0
0 255 0
0 255 0
0 121 42
0 0 112
0 0 152
0 0 159
0 0 163
0 0 168
0 0 171
0 0 173
0 0 176
0 0 179
0 0 180
0 0 182
0 0 184
0 0 185
0 0 187
0 0 188
0 0 189
0 0 189
0 0 190
0 0 191
0 0 192
0 0 192
0 0 193
0 0 193
0 0 193
0 0 194
0 0 194
0 0 194
1 0 194
4 0 194
7 0 194
9 0 193
12 0 193
15 0 193
18 0 192
21 0 192
24 0 191
27 0 191
30 0 190
33 0 189
36 0 187
39 0 186
42 0 185
45 0 184
48 0 182
51 0 180
54 0 179
58 0 176
61 0 174
65 0 170
68 0 167
72 0 163
76 0 159
81 0 153
73 0 123
31 102 47
0 255 0
0 255 0
0 255 0
0 255 0
0 255 0
0 255 0
0 255 0
0 255 0
0 255 0
0 255 0
0 255 0
0 255 0
0 255 0
0 255 0
0 255 0
0 255 0
0 255 0
0 255 0
1 255 0
1 255 0
1 255 0
1 255 0
1 255 0
1 255 0
1 255 0
1 255 0
1 255 0
1 255 0
1 255 0
1 255 0
1 255 0
1 255 0
1 255 0
1 255 0
1 255 0
1 255 0
1 255 0
1 255 0
1 255 0
1 255 0
1 255 0
1 255 0
1 255 0
1 255 0
1 255 0
1 255 0
1 255 0
1 255 0
1 255 0
1 255 0
1 255 0
1 255 0
1 255 0
1 255 0
1 255 0
1 255 0
1 255 0
1 255 0
1 255 0
1 255 0
1 255 0
1 255 0
1 255 0
1 255 0
2 255 0
2 255 0
2 255 0
2 255 0
2 255 0
2 255 0
2 255 0
2 255 0
2 255 0
2 255 0
2 255 0
2 255 0
2 255 0
2 255 0
2 255 0
2 255 0
2 255 0
2 255 0
2 255 0
2 255 0
2 255 0
2 255 0
2 255 0
2 255 0
2 255 0
2 255 0
2 255 0
2 255 0
2 255 0
2 255 0
2 255 0
2 255 0
2 255 0
2 255 0
2 255 0
2 255 0
2 255 0
2 255 0
2 255 0
2 255 0
2 255 0
2 255 0
2 255 0
2 255 0
3 255 0
3 255 0
3 255 0
3 255 0
3 255 0
3 255 0
3 255 0
3 255 0
3 255 0
3 255 0
3 255 0
3 255 0
3 255 0
3 255 0
3 255 0
3 255 0
3 255 0
3 255 0
3 255 0
3 255 0
3 255 0
3 255 0
3 255 0
3 255 0
3 255 0
3 255 0
3 255 0
3 255 0
3 255 0
3 255 0
3 255 0
3 255 0
3 255 0
3 255 0
3 255 0
3 255 0
3 255 0
3 255 0
3 255 0
3 255 0
3 255 0
3 255 0
3 255 0
3 255 0
4 255 0
4 255 0
4 255 0
4 255 0
4 255 0
4 255 0
4 255 0
4 255 0
4 255 0
4 255 0
4 255 0
4 255 0
4 255 0
4 255 0
4 255 0
4 255 0
4 255 0
4 255 0
4 255 0
4 255 0
0 255 0
0 255 0
0 255 0
0 255 0
0 255 0
0 255 0
0 255 0
0 255 0
0 255 0
0 255 0
0 255 0
0 255 0
0 255 0
0 255 0
0 255 0
0 255 0
0 255 0
0 255 0
0 255 0
0 255 0
0 255 0
0 255 0
0 255 0
0 255 0
0 255 0
0 255 0
0 255 0
0 255 0
0 255 0
0 255 0
0 255 0
0 255 0
0 255 0
0 255 0
0 255 0
0 255 0
0 255 0
0 255 0
0 255 0
0 255 0
0 255 0
0 255 0
0 255 0
0 255 0
0 255 0
0 255 0
0 255 0
0 255 0
0 255 0
0 255 0
0 255 0
0 255 0
0 255 0
0 255 0
0 255 0
0 255 0
0 255 0
0 255 0
0 255 0
0 255 0
0 255 0
0 255 0
0 255 0
0 255 0
0 255 0
0 255 0
0 255 0
0 255 0
0 255 0
0 255 0
0 255 0
0 255 0
0 255 0
0 255 0
0 255 0
0 255 0
0 255 0
0 255 0
0 255 0
0 255 0
0 255 0
0 255 0
0 255 0
0 255 0
0 255 0
0 255 0
0 255 0
0 255 0
0 255 0
0 255 0
0 255 0
0 255 0
0 255 0
0 255 0
0 255 0
0 255 0
0 255 0
0 255 0
0 255 0
0 255 0
0 255 0
0 255 0
0 255 0
0 255 0
0 255 0
0 255 0
0 255 0
0 255 0
0 255 0
0 255 0
0 255 0
0 255 0
0 255 0
0 255 0
0 255 0
0 255 0
0 255 0
0 255 0
0 255 0
0 255 0
0 255 0
0 255 0
0 255 0
0 255 0
0 255 0
0 255 0
0 255 0
0 255 0
0 255 0
0 255 0
0 255 0
0 255 0
0 255 0
0 255 0
0 255 0
0 255 0
0 255 0
0 255 0
0 255 0
0 255 0
0 255 0
0 255 0
0 255 0
0 255 0
0 255 0
0 255 0
0 255 0
0 255 0
0 255 0
0 255 0
0 255 0
0 255 0
0 255 0
0 255 0
0 255 0
0 255 0
0 255 0
0 255 0
0 255 0
0 255 0
0 255 0
0 255 0
0 255 0
0 255 0
0 255 0
0 255 0
0 255 0
0 255 0
0 255 0
0 255 0
0 255 0
0 255 0
0 255 0
0 255 0
0 147 33
0 0 85
0 0 148
0 0 155
0 0 161
0 0 165
0 0 169
0 0 171
0 0 173
0 0 175
0 0 178
0 0 179
0 0 181
0 0 182
0 0 183
0 0 185
0 0 185
0 0 186
0 0 187
0 0 187
0 0 188
0 0 188
0 0 189
0 0 189
0 0 189
0 0 189
1 0 189
4 0 189
7 0 189
10 0 189
12 0 188
15 0 188
18 0 187
21 0 187
24 0 186
27 0 185
30 0 184
33 0 183
36 0 182
39 0 181
42 0 179
46 0 177
49 0 176
52 0 174
56 0 171
59 0 168
63 0 165
66 0 161
71 0 156
72 0 143
49 0 90
19 151 32
0 255 0
0 255 0
0 255 0
0 255 0
0 255 0
0 255 0
0 255 0
0 255 0
0 255 0
0 255 0
0 255 0
0 255 0
0 255 0
0 255 0
0 255 0
0 255 0
0 255 0
0 255 0
0 255 0
0 255 0
0 255 0
1 255 0
1 255 0
1 255 0
1 255 0
1 255 0
1 255 0
1 255 0
1 255 0
1 255 0
1 255 0
1 255 0
1 255 0
1 255 0
1 255 0
1 255 0
1 255 0
1 255 0
1 255 0
1 255 0
1 255 0
1 255 0
1 255 0
1 255 0
1 255 0
1 255 0
1 255 0
1 255 0
1 255 0
1 255 0
1 255 0
1 255 0
1 255 0
1 255 0
1 255 0
1 255 0
1 255 0
1 255 0
1 255 0
1 255 0
1 255 0
1 255 0
1 255 0
1 255 0
1 255 0
1 255 0
1 255 0
2 255 0
2 255 0
2 255 0
2 255 0
2 255 0
2 255 0
2 255 0
2 255 0
2 255 0
2 255 0
2 255 0
2 255 0
2 255 0
2 255 0
2 255 0
2 255 0
2 255 0
2 255 0
2 255 0
2 255 0
2 255 0
2 255 0
2 255 0
2 255 0
2 255 0
2 255 0
2 255 0
2 255 0
2 255 0
2 255 0
2 255 0
2 255 0
2 255 0
2 255 0
2 255 0
2 255 0
2 255 0
2 255 0
2 255 0
2 255 0
2 255 0
2 255 0
2 255 0
2 255 0
2 255 0
2 255 0
3 255 0
3 255 0
3 255 0
3 255 0
3 255 0
3 255 0
3 255 0
3 255 0
3 255 0
3 255 0
3 255 0
3 255 0
3 255 0
3 255 0
3 255 0
3 255 0
3 255 0
3 255 0
3 255 0
3 255 0
3 255 0
3 255 0
3 255 0
3 255 0
3 255 0
3 255 0
3 255 0
3 255 0
3 255 0
3 255 0
3 255 0
3 255 0
3 255 0
3 255 0
3 255 0
3 255 0
3 255 0
3 255 0
3 255 0
3 255 0
3 255 0
3 255 0
3 255 0
3 255 0
4 255 0
4 255 0
4 255 0
4 255 0
4 255 0
4 255 0
4 255 0
4 255 0
4 255 0
4 255 0
4 255 0
4 255 0
4 255 0
4 255 0
4 255 0
4 255 0
4 255 0
0 255 0
0 255 0
0 255 0
0 255 0
0 255 0
0 255 0
0 255 0
0 255 0
0 255 0
0 255 0
0 255 0
0 255 0
0 255 0
0 255 0
0 255 0
0 255 0
0 255 0
0 255 0
0 255 0
0 255 0
0 255 0
0 255 0
0 255 0
0 255 0
0 255 0
0 255 0
0 255 0
0 255 0
0 255 0
0 255 0
0 255 0
0 255 0
0 255 0
0 255 0
0 255 0
0 255 0
0 255 0
0 255 0
0 255 0
0 255 0
0 255 0
0 255 0
0 255 0
0 255 0
0 255 0
0 255 0
0 255 0
0 255 0
0 255 0
0 255 0
0 255 0
0 255 0
0 255 0
0 255 0
0 255 0
0 255 0
0 255 0
0 255 0
0 255 0
0 255 0
0 255 0
0 255 0
0 255 0
0 255 0
0 255 0
0 255 0
0 255 0
0 255 0
0 255 0
0 255 0
0 255 0
0 255 0
0 255 0
0 255 0
0 255 0
0 255 0
0 255 0
0 255 0
0 255 0
0 255 0
0 255 0
0 255 0
0 255 0
0 255 0
0 255 0
0 255 0
0 255 0
0 255 0
0 255 0
0 255 0
0 255 0
0 255 0
0 255 0
0 255 0
0 255 0
0 255 0
0 255 0
0 255 0
0 255 0
0 255 0
0 255 0
0 255 0
0 255 0
0 255 0
0 255 0
0 255 0
0 255 0
0 255 0
0 255 0
0 255 0
0 255 0
0 255 0
0 255 0
0 255 0
0 255 0
0 255 0
0 255 0
0 255 0
0 255 0
0 255 0
0 255 0
0 255 0
0 255 0
0 255 0
0 255 0
0 255 0
0 255 0
0 255 0
0 255 0
0 255 0
0 255 0
0 255 0
0 255 0
0 255 0
0 255 0
0 255 0
0 255 0
0 255 0
0 255 0
0 255 0
0 255 0
0 255 0
0 255 0
0 255 0
0 255 0
0 255 0
0 255 0
0 255 0
0 255 0
0 255 0
0 255 0
0 255 0
0 255 0
0 255 0
0 255 0
0 255 0
0 255 0
0 255 0
0 255 0
0 255 0
0 255 0
0 255 0
0 255 0
0 255 0
0 255 0
0 255 0
0 255 0
0 255 0
0 255 0
0 255 0
0 255 0
0 255 0
0 255 0
0 255 0
0 255 0
0 255 0
0 214 12
0 50 63
0 0 120
0 0 151
0 0 157
0 0 161
0 0 165
0 0 167
0 0 169
0 0 171
0 0 174
0 0 175
0 0 176
0 0 178
0 0 179
0 0 180
0 0 181
0 0 181
0 0 182
0 0 183
0 0 183
0 0 183
0 0 184
0 0 184
1 0 184
4 0 184
7 0 184
10 0 183
13 0 183
16 0 182
19 0 182
21 0 181
24 0 180
28 0 179
31 0 178
34 0 177
37 0 175
40 0 174
43 0 171
47 0 169
50 0 167
54 0 164
57 0 162
61 0 157
65 0 151
53 0 112
34 41 66
13 178 23
0 255 0
0 255 0
0 255 0
0 255 0
0 255 0
0 255 0
0 255 0
0 255 0
0 255 0
0 255 0
0 255 0
0 255 0
0 255 0
0 255 0
0 255 0
0 255 0
0 255 0
0 255 0
0 255 0
0 255 0
0 255 0
0 255 0
0 255 0
0 255 0
1 255 0
1 255 0
1 255 0
1 255 0
1 255 0
1 255 0
1 255 0
1 255 0
1 255 0
1 255 0
1 255 0
1 255 0
1 255 0
1 255 0
1 255 0
1 255 0
1 255 0
1 255 0
1 255 0
1 255 0
1 255 0
1 255 0
1 255 0
1 255 0
1 255 0
1 255 0
1 255 0
1 255 0
1 255 0
1 255 0
1 255 0
1 255 0
1 255 0
1 255 0
1 255 0
1 255 0
1 255 0
1 255 0
1 255 0
1 255 0
1 255 0
1 255 0
1 255 0
1 255 0
1 255 0
1 255 0
1 255 0
2 255 0
2 255 0
2 255 0
2 255 0
2 255 0
2 255 0
2 255 0
2 255 0
2 255 0
2 255 0
2 255 0
2 255 0
2 255 0
2 255 0
2 255 0
2 255 0
2 255 0
2 255 0
2 255 0
2 255 0
2 255 0
2 255 0
2 255 0
2 255 0
2 255 0
2 255 0
2 255 0
2 255 0
2 255 0
2 255 0
2 255 0
2 255 0
2 255 0
2 255 0
2 255 0
2 255 0
2 255 0
2 255 0
2 255 0
2 255 0
2 255 0
2 255 0
2 255 0
2 255 0
2 255 0
2 255 0
3 255 0
3 255 0
3 255 0
3 255 0
3 255 0
3 255 0
3 255 0
3 255 0
3 255 0
3 255 0
3 255 0
3 255 0
3 255 0
3 255 0
3 255 0
3 255 0
3 255 0
3 255 0
3 255 0
3 255 0
3 255 0
3 255 0
3 255 0
3 255 0
3 255 0
3 255 0
3 255 0
3 255 0
3 255 0
3 255 0
3 255 0
3 255 0
3 255 0
3 255 0
3 255 0
3 255 0
3 255 0
3 255 0
3 255 0
3 255 0
3 255 0
3 255 0
3 255 0
3 255 0
3 255 0
4 255 0
4 255 0
4 255 0
4 255 0
4 255 0
4 255 0
4 255 0
4 255 0
4 255 0
4 255 0
4 255 0
4 255 0
4 255 0
4 255 0
0 255 0
0 255 0
0 255 0
0 255 0
0 255 0
0 255 0
0 255 0
0 255 0
0 255 0
0 255 0
0 255 0
0 255 0
0 255 0
0 255 0
0 255 0
0 255 0
0 255 0
0 255 0
0 255 0
0 255 0
0 255 0
0 255 0
0 255 0
0 255 0
0 255 0
0 255 0
0 255 0
0 255 0
0 255 0
0 255 0
0 255 0
0 255 0
0 255 0
0 255 0
0 255 0
0 255 0
0 255 0
0 255 0
0 255 0
0 255 0
0 255 0
0 255 0
0 255 0
0 255 0
0 255 0
0 255 0
0 255 0
0 255 0
0 255 0
0 255 0
0 255 0
0 255 0
0 255 0
0 255 0
0 255 0
0 255 0
0 255 0
0 255 0
0 255 0
0 255 0
0 255 0
0 255 0
0 255 0
0 255 0
0 255 0
0 255 0
0 255 0
0 255 0
0 255 0
0 255 0
0 255 0
0 255 0
0 255 0
0 255 0
0 255 0
0 255 0
0 255 0
0 255 0
0 255 0
0 255 0
0 255 0
0 255 0
0 255 0
0 255 0
0 255 0
0 255 0
0 255 0
0 255 0
0 255 0
0 255 0
0 255 0
0 255 0
0 255 0
0 255 0
0 255 0
0 255 0
0 255 0
0 255 0
0 255 0
0 255 0
0 255 0
0 255 0
0 255 0
0 255 0
0 255 0
0 255 0
0 255 0
0 255 0
0 255 0
0 255 0
0 255 0
0 255 0
0 255 0
0 255 0
0 255 0
0 255 0
0 255 0
0 255 0
0 255 0
0 255 0
0 255 0
0 255 0
0 255 0
0 255 0
0 255 0
0 255 0
0 255 0
0 255 0
0 255 0
0 255 0
0 255 0
0 255 0
0 255 0
0 255 0
0 255 0
0 255 0
0 255 0
0 255 0
0 255 0
0 255 0
0 255 0
0 255 0
0 255 0
0 255 0
0 255 0
0 255 0
0 255 0
0 255 0
0 255 0
0 255 0
0 255 0
0 255 0
0 255 0
0 255 0
0 255 0
0 255 0
0 255 0
0 255 0
0 255 0
0 255 0
0 255 0
0 255 0
0 255 0
0 255 0
0 255 0
0 255 0
0 255 0
0 255 0
0 255 0
0 255 0
0 255 0
0 255 0
0 255 0
0 255 0
0 255 0
0 255 0
0 255 0
0 255 0
0 255 0
0 196 18
0 63 59
0 0 107
0 0 148
0 0 155
0 0 158
0 0 161
0 0 164
0 0 167
0 0 169
0 0 170
0 0 171
0 0 173
0 0 174
0 0 175
0 0 176
0 0 176
0 0 177
0 0 177
0 0 177
0 0 177
1 0 177
4 0 177
7 0 177
10 0 176
13 0 176
16 0 176
19 0 174
22 0 174
25 0 173
28 0 172
31 0 170
35 0 168
38 0 166
41 0 165
44 0 162
48 0 159
52 0 156
55 0 147
41 0 101
24 81 54
9 195 17
0 255 0
0 255 0
0 255 0
0 255 0
0 255 0
0 255 0
0 255 0
0 255 0
0 255 0
0 255 0
0 255 0
0 255 0
0 255 0
0 255 0
0 255 0
0 255 0
0 255 0
0 255 0
0 255 0
0 255 0
0 255 0
0 255 0
0 255 0
0 255 0
0 255 0
0 255 0
0 255 0
1 255 0
1 255 0
1 255 0
1 255 0
1 255 0
1 255 0
1 255 0
1 255 0
1 255 0
1 255 0
1 255 0
1 255 0
1 255 0
1 255 0
1 255 0
1 255 0
1 255 0
1 255 0
1 255 0
1 255 0
1 255 0
1 255 0
1 255 0
1 255 0
1 255 0
1 255 0
1 255 0
1 255 0
1 255 0
1 255 0
1 255 0
1 255 0
1 255 0
1 255 0
1 255 0
1 255 0
1 255 0
1 255 0
1 255 0
1 255 0
1 255 0
1 255 0
1 255 0
1 255 0
1 255 0
1 255 0
1 255 0
1 255 0
2 255 0
2 255 0
2 255 0
2 255 0
2 255 0
2 255 0
2 255 0
2 255 0
2 255 0
2 255 0
2 255 0
2 255 0
2 255 0
2 255 0
2 255 0
2 255 0
2 255 0
2 255 0
2 255 0
2 255 0
2 255 0
2 255 0
2 255 0
2 255 0
2 255 0
2 255 0
2 255 0
2 255 0
2 255 0
2 255 0
2 255 0
2 255 0
2 255 0
2 255 0
2 255 0
2 255 0
2 255 0
2 255 0
2 255 0
2 255 0
2 255 0
2 255 0
2 255 0
2 255 0
2 255 0
2 255 0
2 255 0
3 255 0
3 255 0
3 255 0
3 255 0
3 255 0
3 255 0
3 255 0
3 255 0
3 255 0
3 255 0
3 255 0
3 255 0
3 255 0
3 255 0
3 255 0
3 255 0
3 255 0
3 255 0
3 255 0
3 255 0
3 255 0
3 255 0
3 255 0
3 255 0
3 255 0
3 255 0
3 255 0
3 255 0
3 255 0
3 255 0
3 255 0
3 255 0
3 255 0
3 255 0
3 255 0
3 255 0
3 255 0
3 255 0
3 255 0
3 255 0
3 255 0
3 255 0
3 255 0
3 255 0
3 255 0
3 255 0
4 255 0
4 255 0
4 255 0
4 255 0
4 255 0
4 255 0
4 255 0
4 255 0
4 255 0
4 255 0
4 255 0
0 255 0
0 255 0
0 255 0
0 255 0
0 255 0
0 255 0
0 255 0
0 255 0
0 255 0
0 255 0
0 255 0
0 255 0
0 255 0
0 255 0
0 255 0
0 255 0
0 255 0
0 255 0
0 255 0
0 255 0
0 255 0
0 255 0
0 255 0
0 255 0
0 255 0
0 255 0
0 255 0
0 255 0
0 255 0
0 255 0
0 255 0
0 255 0
0 255 0
0 255 0
0 255 0
0 255 0
0 255 0
0 255 0
0 255 0
0 255 0
0 255 0
0 255 0
0 255 0
0 255 0
0 255 0
0 255 0
0 255 0
0 255 0
0 255 0
0 255 0
0 255 0
0 255 0
0 255 0
0 255 0
0 255 0
0 255 0
0 255 0
0 255 0
0 255 0
0 255 0
0 255 0
0 255 0
0 255 0
0 255 0
0 255 0
0 255 0
0 255 0
0 255 0
0 255 0
0 255 0
0 255 0
0 255 0
0 255 0
0 255 0
0 255 0
0 255 0
0 255 0
0 255 0
0 255 0
0 255 0
0 255 0
0 255 0
0 255 0
0 255 0
0 255 0
0 255 0
0 255 0
0 255 0
0 255 0
0 255 0
0 255 0
0 255 0
0 255 0
0 255 0
0 255 0
0 255 0
0 255 0
0 255 0
0 255 0
0 255 0
0 255 0
0 255 0
0 255 0
0 255 0
0 255 0
0 255 0
0 255 0
0 255 0
0 255 0
0 255 0
0 255 0
0 255 0
0 255 0
0 255 0
0 255 0
0 255 0
0 255 0
0 255 0
0 255 0
0 255 0
0 255 0
0 255 0
0 255 0
0 255 0
0 255 0
0 255 0
0 255 0
0 255 0
0 255 0
0 255 0
0 255 0
0 255 0
0 255 0
0 255 0
0 255 0
0 255 0
0 255 0
0 255 0
0 255 0
0 255 0
0 255 0
0 255 0
0 255 0
0 255 0
0 255 0
0 255 0
0 255 0
0 255 0
0 255 0
0 255 0
0 255 0
0 255 0
0 255 0
0 255 0
0 255 0
0 255 0
0 255 0
0 255 0
0 255 0
0 255 0
0 255 0
0 255 0
0 255 0
0 255 0
0 255 0
0 255 0
0 255 0
0 255 0
0 255 0
0 255 0
0 255 0
0 255 0
0 255 0
0 255 0
0 255 0
0 255 0
0 255 0
0 255 0
0 255 0
0 255 0
0 255 0
0 255 0
0 204 15
0 98 47
0 11 76
0 0 114
0 0 148
0 0 154
0 0 157
0 0 159
0 0 161
0 0 163
0 0 165
0 0 166
0 0 166
0 0 167
0 0 168
0 0 168
0 0 169
0 0 169
1 0 169
4 0 169
7 0 168
10 0 168
13 0 168
16 0 167
19 0 166
23 0 164
26 0 163
29 0 162
32 0 159
36 0 157
40 0 153
42 0 145
40 0 127
26 15 74
16 117 42
3 228 8
0 255 0
0 255 0
0 255 0
0 255 0
0 255 0
0 255 0
0 255 0
0 255 0
0 255 0
0 255 0
0 255 0
0 255 0
0 255 0
0 255 0
0 255 0
0 255 0
0 255 0
0 255 0
0 255 0
0 255 0
0 255 0
0 255 0
0 255 0
0 255 0
0 255 0
0 255 0
0 255 0
0 255 0
0 255 0
0 255 0
0 255 0
1 255 0
1 255 0
1 255 0
1 255 0
1 255 0
1 255 0
1 255 0
1 255 0
1 255 0
1 255 0
1 255 0
1 255 0
1 255 0
1 255 0
1 255 0
1 255 0
1 255 0
1 255 0
1 255 0
1 255 0
1 255 0
1 255 0
1 255 0
1 255 0
1 255 0
1 255 0
1 255 0
1 255 0
1 255 0
1 255 0
1 255 0
1 255 0
1 255 0
1 255 0
1 255 0
1 255 0
1 255 0
1 255 0
1 255 0
1 255 0
1 255 0
1 255 0
1 255 0
1 255 0
1 255 0
1 255 0
1 255 0
1 255 0
1 255 0
2 255 0
2 255 0
2 255 0
2 255 0
2 255 0
2 255 0
2 255 0
2 255 0
2 255 0
2 255 0
2 255 0
2 255 0
2 255 0
2 255 0
2 255 0
2 255 0
2 255 0
2 255 0
2 255 0
2 255 0
2 255 0
2 255 0
2 255 0
2 255 0
2 255 0
2 255 0
2 255 0
2 255 0
2 255 0
2 255 0
2 255 0
2 255 0
2 255 0
2 255 0
2 255 0
2 255 0
2 255 0
2 255 0
2 255 0
2 255 0
2 255 0
2 255 0
2 255 0
2 255 0
2 255 0
2 255 0
2 255 0
2 255 0
3 255 0
3 255 0
3 255 0
3 255 0
3 255 0
3 255 0
3 255 0
3 255 0
3 255 0
3 255 0
3 255 0
3 255 0
3 255 0
3 255 0
3 255 0
3 255 0
3 255 0
3 255 0
3 255 0
3 255 0
3 255 0
3 255 0
3 255 0
3 255 0
3 255 0
3 255 0
3 255 0
3 255 0
3 255 0
3 255 0
3 255 0
3 255 0
3 255 0
3 255 0
3 255 0
3 255 0
3 255 0
3 255 0
3 255 0
3 255 0
3 255 0
3 255 0
3 255 0
3 255 0
3 255 0
3 255 0
4 255 0
4 255 0
4 255 0
4 255 0
4 255 0
4 255 0
4 255 0
4 255 0
0 255 0
0 255 0
0 255 0
0 255 0
0 255 0
0 255 0
0 255 0
0 255 0
0 255 0
0 255 0
0 255 0
0 255 0
0 255 0
0 255 0
0 255 0
0 255 0
0 255 0
0 255 0
0 255 0
0 255 0
0 255 0
0 255 0
0 255 0
0 255 0
0 255 0
0 255 0
0 255 0
0 255 0
0 255 0
0 255 0
0 255 0
0 255 0
0 255 0
0 255 0
0 255 0
0 255 0
0 255 0
0 255 0
0 255 0
0 255 0
0 255 0
0 255 0
0 255 0
0 255 0
0 255 0
0 255 0
0 255 0
0 255 0
0 255 0
0 255 0
0 255 0
0 255 0
0 255 0
0 255 0
0 255 0
0 255 0
0 255 0
0 255 0
0 255 0
0 255 0
0 255 0
0 255 0
0 255 0
0 255 0
0 255 0
0 255 0
0 255 0
0 255 0
0 255 0
0 255 0
0 255 0
0 255 0
0 255 0
0 255 0
0 255 0
0 255 0
0 255 0
0 255 0
0 255 0
0 255 0
0 255 0
0 255 0
0 255 0
0 255 0
0 255 0
0 255 0
0 255 0
0 255 0
0 255 0
0 255 0
0 255 0
0 255 0
0 255 0
0 255 0
0 255 0
0 255 0
0 255 0
0 255 0
0 255 0
0 255 0
0 255 0
0 255 0
0 255 0
0 255 0
0 255 0
0 255 0
0 255 0
0 255 0
0 255 0
0 255 0
0 255 0
0 255 0
0 255 0
0 255 0
0 255 0
0 255 0
0 255 0
0 255 0
0 255 0
0 255 0
0 255 0
0 255 0
0 255 0
0 255 0
0 255 0
0 255 0
0 255 0
0 255 0
0 255 0
0 255 0
0 255 0
0 255 0
0 255 0
0 255 0
0 255 0
0 255 0
0 255 0
0 255 0
0 255 0
0 255 0
0 255 0
0 255 0
0 255 0
0 255 0
0 255 0
0 255 0
0 255 0
0 255 0
0 255 0
0 255 0
0 255 0
0 255 0
0 255 0
0 255 0
0 255 0
0 255 0
0 255 0
0 255 0
0 255 0
0 255 0
0 255 0
0 255 0
0 255 0
0 255 0
0 255 0
0 255 0
0 255 0
0 255 0
0 255 0
0 255 0
0 255 0
0 255 0
0 255 0
0 255 0
0 255 0
0 255 0
0 255 0
0 255 0
0 255 0
0 255 0
0 255 0
0 255 0
0 255 0
0 255 0
0 255 0
0 255 0
0 218 11
0 134 36
0 70 57
0 0 79
0 0 114
0 0 129
0 0 149
0 0 152
0 0 153
0 0 154
0 0 155
0 0 157
0 0 156
0 0 157
1 0 157
4 0 158
7 0 157
11 0 155
14 0 155
17 0 154
20 0 153
23 0 150
24 0 130
24 0 113
20 0 86
15 60 60
13 101 45
2 227 8
0 255 0
0 255 0
0 255 0
0 255 0
0 255 0
0 255 0
0 255 0
0 255 0
0 255 0
0 255 0
0 255 0
0 255 0
0 255 0
0 255 0
0 255 0
0 255 0
0 255 0
0 255 0
0 255 0
0 255 0
0 255 0
0 255 0
0 255 0
0 255 0
0 255 0
0 255 0
0 255 0
0 255 0
0 255 0
0 255 0
0 255 0
0 255 0
0 255 0
0 255 0
0 255 0
0 255 0
1 255 0
1 255 0
1 255 0
1 255 0
1 255 0
1 255 0
1 255 0
1 255 0
1 255 0
1 255 0
1 255 0
1 255 0
1 255 0
1 255 0
1 255 0
1 255 0
1 255 0
1 255 0
1 255 0
1 255 0
1 255 0
1 255 0
1 255 0
1 255 0
1 255 0
1 255 0
1 255 0
1 255 0
1 255 0
1 255 0
1 255 0
1 255 0
1 255 0
1 255 0
1 255 0
1 255 0
1 255 0
1 255 0
1 255 0
1 255 0
1 255 0
1 255 0
1 255 0
1 255 0
1 255 0
1 255 0
1 255 0
1 255 0
1 255 0
2 255 0
2 255 0
2 255 0
2 255 0
2 255 0
2 255 0
2 255 0
2 255 0
2 255 0
2 255 0
2 255 0
2 255 0
2 255 0
2 255 0
2 255 0
2 255 0
2 255 0
2 255 0
2 255 0
2 255 0
2 255 0
2 255 0
2 255 0
2 255 0
2 255 0
2 255 0
2 255 0
2 255 0
2 255 0
2 255 0
2 255 0
2 255 0
2 255 0
2 255 0
2 255 0
2 255 0
2 255 0
2 255 0
2 255 0
2 255 0
2 255 0
2 255 0
2 255 0
2 255 0
2 255 0
2 255 0
2 255 0
2 255 0
2 255 0
3 255 0
3 255 0
3 255 0
3 255 0
3 255 0
3 255 0
3 255 0
3 255 0
3 255 0
3 255 0
3 255 0
3 255 0
3 255 0
3 255 0
3 255 0
3 255 0
3 255 0
3 255 0
3 255 0
3 255 0
3 255 0
3 255 0
3 255 0
3 255 0
3 255 0
3 255 0
3 255 0
3 255 0
3 255 0
3 255 0
3 255 0
3 255 0
3 255 0
3 255 0
3 255 0
3 255 0
3 255 0
3 255 0
3 255 0
3 255 0
3 255 0
3 255 0
3 255 0
3 255 0
3 255 0
3 255 0
3 255 0
4 255 0
4 255 0
4 255 0
4 255 0
4 255 0
0 255 0
0 255 0
0 255 0
0 255 0
0 255 0
0 255 0
0 255 0
0 255 0
0 255 0
0 255 0
0 255 0
0 255 0
0 255 0
0 255 0
0 255 0
0 255 0
0 255 0
0 255 0
0 255 0
0 255 0
0 255 0
0 255 0
0 255 0
0 255 0
0 255 0
0 255 0
0 255 0
0 255 0
0 255 0
0 255 0
0 255 0
0 255 0
0 255 0
0 255 0
0 255 0
0 255 0
0 255 0
0 255 0
0 255 0
0 255 0
0 255 0
0 255 0
0 255 0
0 255 0
0 255 0
0 255 0
0 255 0
0 255 0
0 255 0
0 255 0
0 255 0
0 255 0
0 255 0
0 255 0
0 255 0
0 255 0
0 255 0
0 255 0
0 255 0
0 255 0
0 255 0
0 255 0
0 255 0
0 255 0
0 255 0
0 255 0
0 255 0
0 255 0
0 255 0
0 255 0
0 255 0
0 255 0
0 255 0
0 255 0
0 255 0
0 255 0
0 255 0
0 255 0
0 255 0
0 255 0
0 255 0
0 255 0
0 255 0
0 255 0
0 255 0
0 255 0
0 255 0
0 255 0
0 255 0
0 255 0
0 255 0
0 255 0
0 255 0
0 255 0
0 255 0
0 255 0
0 255 0
0 255 0
0 255 0
0 255 0
0 255 0
0 255 0
0 255 0
0 255 0
0 255 0
0 255 0
0 255 0
0 255 0
0 255 0
0 255 0
0 255 0
0 255 0
0 255 0
0 255 0
0 255 0
0 255 0
0 255 0
0 255 0
0 255 0
0 255 0
0 255 0
0 255 0
0 255 0
0 255 0
0 255 0
0 255 0
0 255 0
0 255 0
0 255 0
0 255 0
0 255 0
0 255 0
0 255 0
0 255 0
0 255 0
0 255 0
0 255 0
0 255 0
0 255 0
0 255 0
0 255 0
0 255 0
0 255 0
0 255 0
0 255 0
0 255 0
0 255 0
0 255 0
0 255 0
0 255 0
0 255 0
0 255 0
0 255 0
0 255 0
0 255 0
0 255 0
0 255 0
0 255 0
0 255 0
0 255 0
0 255 0
0 255 0
0 255 0
0 255 0
0 255 0
0 255 0
0 255 0
0 255 0
0 255 0
0 255 0
0 255 0
0 255 0
0 255 0
0 255 0
0 255 0
0 255 0
0 255 0
0 255 0
0 255 0
0 255 0
0 255 0
0 255 0
0 255 0
0 255 0
0 255 0
0 255 0
0 255 0
0 255 0
0 255 0
0 255 0
0 255 0
0 255 0
0 227 8
0 194 18
0 161 27
0 138 35
0 77 53
0 59 59
0 49 62
0 49 62
0 31 68
1 96 48
3 59 59
3 119 41
3 148 32
3 171 25
4 156 28
0 241 4
0 255 0
0 255 0
0 255 0
0 255 0
0 255 0
0 255 0
0 255 0
0 255 0
0 255 0
0 255 0
0 255 0
0 255 0
0 255 0
0 255 0
0 255 0
0 255 0
0 255 0
0 255 0
0 255 0
0 255 0
0 255 0
0 255 0
0 255 0
0 255 0
0 255 0
0 255 0
0 255 0
0 255 0
0 255 0
0 255 0
0 255 0
0 255 0
0 255 0
0 255 0
0 255 0
0 255 0
0 255 0
0 255 0
0 255 0
0 255 0
0 255 0
0 255 0
0 255 0
1 255 0
1 255 0
1 255 0
1 255 0
1 255 0
1 255 0
1 255 0
1 255 0
1 255 0
1 255 0
1 255 0
1 255 0
1 255 0
1 255 0
1 255 0
1 255 0
1 255 0
1 255 0
1 255 0
1 255 0
1 255 0
1 255 0
1 255 0
1 255 0
1 255 0
1 255 0
1 255 0
1 255 0
1 255 0
1 255 0
1 255 0
1 255 0
1 255 0
1 255 0
1 255 0
1 255 0
1 255 0
1 255 0
1 255 0
1 255 0
1 255 0
1 255 0
1 255 0
1 255 0
1 255 0
1 255 0
1 255 0
1 255 0
1 255 0
1 255 0
2 255 0
2 255 0
2 255 0
2 255 0
2 255 0
2 255 0
2 255 0
2 255 0
2 255 0
2 255 0
2 255 0
2 255 0
2 255 0
2 255 0
2 255 0
2 255 0
2 255 0
2 255 0
2 255 0
2 255 0
2 255 0
2 255 0
2 255 0
2 255 0
2 255 0
2 255 0
2 255 0
2 255 0
2 255 0
2 255 0
2 255 0
2 255 0
2 255 0
2 255 0
2 255 0
2 255 0
2 255 0
2 255 0
2 255 0
2 255 0
2 255 0
2 255 0
2 255 0
2 255 0
2 255 0
2 255 0
2 255 0
2 255 0
2 255 0
3 255 0
3 255 0
3 255 0
3 255 0
3 255 0
3 255 0
3 255 0
3 255 0
3 255 0
3 255 0
3 255 0
3 255 0
3 255 0
3 255 0
3 255 0
3 255 0
3 255 0
3 255 0
3 255 0
3 255 0
3 255 0
3 255 0
3 255 0
3 255 0
3 255 0
3 255 0
3 255 0
3 255 0
3 255 0
3 255 0
3 255 0
3 255 0
3 255 0
3 255 0
3 255 0
3 255 0
3 255 0
3 255 0
3 255 0
3 255 0
3 255 0
3 255 0
3 255 0
3 255 0
3 255 0
3 255 0
3 255 0
3 255 0
4 255 0
4 255 0
0 255 0
0 255 0
0 255 0
0 255 0
0 255 0
0 255 0
0 255 0
0 255 0
0 255 0
0 255 0
0 255 0
0 255 0
0 255 0
0 255 0
0 255 0
0 255 0
0 255 0
0 255 0
0 255 0
0 255 0
0 255 0
0 255 0
0 255 0
0 255 0
0 255 0
0 255 0
0 255 0
0 255 0
0 255 0
0 255 0
0 255 0
0 255 0
0 255 0
0 255 0
0 255 0
0 255 0
0 255 0
0 255 0
0 255 0
0 255 0
0 255 0
0 255 0
0 255 0
0 255 0
0 255 0
0 255 0
0 255 0
0 255 0
0 255 0
0 255 0
0 255 0
0 255 0
0 255 0
0 255 0
0 255 0
0 255 0
0 255 0
0 255 0
0 255 0
0 255 0
0 255 0
0 255 0
0 255 0
0 255 0
0 255 0
0 255 0
0 255 0
0 255 0
0 255 0
0 255 0
0 255 0
0 255 0
0 255 0
0 255 0
0 255 0
0 255 0
0 255 0
0 255 0
0 255 0
0 255 0
0 255 0
0 255 0
0 255 0
0 255 0
0 255 0
0 255 0
0 255 0
0 255 0
0 255 0
0 255 0
0 255 0
0 255 0
0 255 0
0 255 0
0 255 0
0 255 0
0 255 0
0 255 0
0 255 0
0 255 0
0 255 0
0 255 0
0 255 0
0 255 0
0 255 0
0 255 0
0 255 0
0 255 0
0 255 0
0 255 0
0 255 0
0 255 0
0 255 0
0 255 0
0 255 0
0 255 0
0 255 0
0 255 0
0 255 0
0 255 0
0 255 0
0 255 0
0 255 0
0 255 0
0 255 0
0 255 0
0 255 0
0 255 0
0 255 0
0 255 0
0 255 0
0 255 0
0 255 0
0 255 0
0 255 0
0 255 0
0 255 0
0 255 0
0 255 0
0 255 0
0 255 0
0 255 0
0 255 0
0 255 0
0 255 0
0 255 0
0 255 0
0 255 0
0 255 0
0 255 0
0 255 0
0 255 0
0 255 0
0 255 0
0 255 0
0 255 0
0 255 0
0 255 0
0 255 0
0 255 0
0 255 0
0 255 0
0 255 0
0 255 0
0 255 0
0 255 0
0 255 0
0 255 0
0 255 0
0 255 0
0 255 0
0 255 0
0 255 0
0 255 0
0 255 0
0 255 0
0 255 0
0 255 0
0 255 0
0 255 0
0 255 0
0 255 0
0 255 0
0 255 0
0 255 0
0 255 0
0 255 0
0 255 0
0 255 0
0 255 0
0 255 0
0 255 0
0 255 0
0 255 0
0 255 0
0 255 0
0 255 0
0 255 0
0 255 0
0 255 0
0 255 0
0 255 0
0 255 0
0 255 0
0 255 0
0 255 0
0 255 0
0 255 0
0 255 0
0 255 0
0 255 0
0 255 0
0 255 0
0 255 0
0 255 0
0 255 0
0 255 0
0 255 0
0 255 0
0 255 0
0 255 0
0 255 0
0 255 0
0 255 0
0 255 0
0 255 0
0 255 0
0 255 0
0 255 0
0 255 0
0 255 0
0 255 0
0 255 0
0 255 0
0 255 0
0 255 0
0 255 0
0 255 0
0 255 0
0 255 0
0 255 0
0 255 0
0 255 0
0 255 0
0 255 0
0 255 0
0 255 0
0 255 0
0 255 0
0 255 0
0 255 0
1 255 0
1 255 0
1 255 0
1 255 0
1 255 0
1 255 0
1 255 0
1 255 0
1 255 0
1 255 0
1 255 0
1 255 0
1 255 0
1 255 0
1 255 0
1 255 0
1 255 0
1 255 0
1 255 0
1 255 0
1 255 0
1 255 0
1 255 0
1 255 0
1 255 0
1 255 0
1 255 0
1 255 0
1 255 0
1 255 0
1 255 0
1 255 0
1 255 0
1 255 0
1 255 0
1 255 0
1 255 0
1 255 0
1 255 0
1 255 0
1 255 0
1 255 0
1 255 0
1 255 0
1 255 0
1 255 0
1 255 0
1 255 0
1 255 0
1 255 0
1 255 0
2 255 0
2 255 0
2 255 0
2 255 0
2 255 0
2 255 0
2 255 0
2 255 0
2 255 0
2 255 0
2 255 0
2 255 0
2 255 0
2 255 0
2 255 0
2 255 0
2 255 0
2 255 0
2 255 0
2 255 0
2 255 0
2 255 0
2 255 0
2 255 0
2 255 0
2 255 0
2 255 0
2 255 0
2 255 0
2 255 0
2 255 0
2 255 0
2 255 0
2 255 0
2 255 0
2 255 0
2 255 0
2 255 0
2 255 0
2 255 0
2 255 0
2 255 0
2 255 0
2 255 0
2 255 0
2 255 0
2 255 0
2 255 0
2 255 0
2 255 0
2 255 0
3 255 0
3 255 0
3 255 0
3 255 0
3 255 0
3 255 0
3 255 0
3 255 0
3 255 0
3 255 0
3 255 0
3 255 0
3 255 0
3 255 0
3 255 0
3 255 0
3 255 0
3 255 0
3 255 0
3 255 0
3 255 0
3 255 0
3 255 0
3 255 0
3 255 0
3 255 0
3 255 0
3 255 0
3 255 0
3 255 0
3 255 0
3 255 0
3 255 0
3 255 0
3 255 0
3 255 0
3 255 0
3 255 0
3 255 0
3 255 0
3 255 0
3 255 0
3 255 0
3 255 0
3 255 0
3 255 0
3 255 0
0 255 0
0 255 0
0 255 0
0 255 0
0 255 0
0 255 0
0 255 0
0 255 0
0 255 0
0 255 0
0 255 0
0 255 0
0 255 0
0 255 0
0 255 0
0 255 0
0 255 0
0 255 0
0 255 0
0 255 0
0 255 0
0 255 0
0 255 0
0 255 0
0 255 0
0 255 0
0 255 0
0 255 0
0 255 0
0 255 0
0 255 0
0 255 0
0 255 0
0 255 0
0 255 0
0 255 0
0 255 0
0 255 0
0 255 0
0 255 0
0 255 0
0 255 0
0 255 0
0 255 0
0 255 0
0 255 0
0 255 0
0 255 0
0 255 0
0 255 0
0 255 0
0 255 0
0 255 0
0 255 0
0 255 0
0 255 0
0 255 0
0 255 0
0 255 0
0 255 0
0 255 0
0 255 0
0 255 0
0 255 0
0 255 0
0 255 0
0 255 0
0 255 0
0 255 0
0 255 0
0 255 0
0 255 0
0 255 0
0 255 0
0 255 0
0 255 0
0 255 0
0 255 0
0 255 0
0 255 0
0 255 0
0 255 0
0 255 0
0 255 0
0 255 0
0 255 0
0 255 0
0 255 0
0 255 0
0 255 0
0 255 0
0 255 0
0 255 0
0 255 0
0 255 0
0 255 0
0 255 0
0 255 0
0 255 0
0 255 0
0 255 0
0 255 0
0 255 0
0 255 0
0 255 0
0 255 0
0 255 0
0 255 0
0 255 0
0 255 0
0 255 0
0 255 0
0 255 0
0 255 0
0 255 0
0 255 0
0 255 0
0 255 0
0 255 0
0 255 0
0 255 0
0 255 0
0 255 0
0 255 0
0 255 0
0 255 0
0 255 0
0 255 0
0 255 0
0 255 0
0 255 0
0 255 0
0 255 0
0 255 0
0 255 0
0 255 0
0 255 0
0 255 0
0 255 0
0 255 0
0 255 0
0 255 0
0 255 0
0 255 0
0 255 0
0 255 0
0 255 0
0 255 0
0 255 0
0 255 0
0 255 0
0 255 0
0 255 0
0 255 0
0 255 0
0 255 0
0 255 0
0 255 0
0 255 0
0 255 0
0 255 0
0 255 0
0 255 0
0 255 0
0 255 0
0 255 0
0 255 0
0 255 0
0 255 0
0 255 0
0 255 0
0 255 0
0 255 0
0 255 0
0 255 0
0 255 0
0 255 0
0 255 0
0 255 0
0 255 0
0 255 0
0 255 0
0 255 0
0 255 0
0 255 0
0 255 0
0 255 0
0 255 0
0 255 0
0 255 0
0 255 0
0 255 0
0 255 0
0 255 0
0 255 0
0 255 0
0 255 0
0 255 0
0 255 0
0 255 0
0 255 0
0 255 0
0 255 0
0 255 0
0 255 0
0 255 0
0 255 0
0 255 0
0 255 0
0 255 0
0 255 0
0 255 0
0 255 0
0 255 0
0 255 0
0 255 0
0 255 0
0 255 0
0 255 0
0 255 0
0 255 0
0 255 0
0 255 0
0 255 0
0 255 0
0 255 0
0 255 0
0 255 0
0 255 0
0 255 0
0 255 0
0 255 0
0 255 0
0 255 0
0 255 0
0 255 0
0 255 0
0 255 0
0 255 0
0 255 0
0 255 0
0 255 0
0 255 0
0 255 0
0 255 0
0 255 0
0 255 0
0 255 0
0 255 0
0 255 0
0 255 0
0 255 0
1 255 0
1 255 0
1 255 0
1 255 0
1 255 0
1 255 0
1 255 0
1 255 0
1 255 0
1 255 0
1 255 0
1 255 0
1 255 0
1 255 0
1 255 0
1 255 0
1 255 0
1 255 0
1 255 0
1 255 0
1 255 0
1 255 0
1 255 0
1 255 0
1 255 0
1 255 0
1 255 0
1 255 0
1 255 0
1 255 0
1 255 0
1 255 0
1 255 0
1 255 0
1 255 0
1 255 0
1 255 0
1 255 0
1 255 0
1 255 0
1 255 0
1 255 0
1 255 0
1 255 0
1 255 0
1 255 0
1 255 0
1 255 0
1 255 0
1 255 0
1 255 0
1 255 0
2 255 0
2 255 0
2 255 0
2 255 0
2 255 0
2 255 0
2 255 0
2 255 0
2 255 0
2 255 0
2 255 0
2 255 0
2 255 0
2 255 0
2 255 0
2 255 0
2 255 0
2 255 0
2 255 0
2 255 0
2 255 0
2 255 0
2 255 0
2 255 0
2 255 0
2 255 0
2 255 0
2 255 0
2 255 0
2 255 0
2 255 0
2 255 0
2 255 0
2 255 0
2 255 0
2 255 0
2 255 0
2 255 0
2 255 0
2 255 0
2 255 0
2 255 0
2 255 0
2 255 0
2 255 0
2 255 0
2 255 0
2 255 0
2 255 0
2 255 0
2 255 0
3 255 0
3 255 0
3 255 0
3 255 0
3 255 0
3 255 0
3 255 0
3 255 0
3 255 0
3 255 0
3 255 0
3 255 0
3 255 0
3 255 0
3 255 0
3 255 0
3 255 0
3 255 0
3 255 0
3 255 0
3 255 0
3 255 0
3 255 0
3 255 0
3 255 0
3 255 0
3 255 0
3 255 0
3 255 0
3 255 0
3 255 0
3 255 0
3 255 0
3 255 0
3 255 0
3 255 0
3 255 0
3 255 0
3 255 0
3 255 0
3 255 0
3 255 0
3 255 0
3 255 0
3 255 0
0 255 0
0 255 0
0 255 0
0 255 0
0 255 0
0 255 0
0 255 0
0 255 0
0 255 0
0 255 0
0 255 0
0 255 0
0 255 0
0 255 0
0 255 0
0 255 0
0 255 0
0 255 0
0 255 0
0 255 0
0 255 0
0 255 0
0 255 0
0 255 0
0 255 0
0 255 0
0 255 0
0 255 0
0 255 0
0 255 0
0 255 0
0 255 0
0 255 0
0 255 0
0 255 0
0 255 0
0 255 0
0 255 0
0 255 0
0 255 0
0 255 0
0 255 0
0 255 0
0 255 0
0 255 0
0 255 0
0 255 0
0 255 0
0 255 0
0 255 0
0 255 0
0 255 0
0 255 0
0 255 0
0 255 0
0 255 0
0 255 0
0 255 0
0 255 0
0 255 0
0 255 0
0 255 0
0 255 0
0 255 0
0 255 0
0 255 0
0 255 0
0 255 0
0 255 0
0 255 0
0 255 0
0 255 0
0 255 0
0 255 0
0 255 0
0 255 0
0 255 0
0 255 0
0 255 0
0 255 0
0 255 0
0 255 0
0 255 0
0 255 0
0 255 0
0 255 0
0 255 0
0 255 0
0 255 0
0 255 0
0 255 0
0 255 0
0 255 0
0 255 0
0 255 0
0 255 0
0 255 0
0 255 0
0 255 0
0 255 0
0 255 0
0 255 0
0 255 0
0 255 0
0 255 0
0 255 0
0 255 0
0 255 0
0 255 0
0 255 0
0 255 0
0 255 0
0 255 0
0 255 0
0 255 0
0 255 0
0 255 0
0 255 0
0 255 0
0 255 0
0 255 0
0 255 0
0 255 0
0 255 0
0 255 0
0 255 0
0 255 0
0 255 0
0 255 0
0 255 0
0 255 0
0 255 0
0 255 0
0 255 0
0 255 0
0 255 0
0 255 0
0 255 0
0 255 0
0 255 0
0 255 0
0 255 0
0 255 0
0 255 0
0 255 0
0 255 0
0 255 0
0 255 0
0 255 0
0 255 0
0 255 0
0 255 0
0 255 0
0 255 0
0 255 0
0 255 0
0 255 0
0 255 0
0 255 0
0 255 0
0 255 0
0 255 0
0 255 0
0 255 0
0 255 0
0 255 0
0 255 0
0 255 0
0 255 0
0 255 0
0 255 0
0 255 0
0 255 0
0 255 0
0 255 0
0 255 0
0 255 0
0 255 0
0 255 0
0 255 0
0 255 0
0 255 0
0 255 0
0 255 0
0 255 0
0 255 0
0 255 0
0 255 0
0 255 0
0 255 0
0 255 0
0 255 0
0 255 0
0 255 0
0 255 0
0 255 0
0 255 0
0 255 0
0 255 0
0 255 0
0 255 0
0 255 0
0 255 0
0 255 0
0 255 0
0 255 0
0 255 0
0 255 0
0 255 0
0 255 0
0 255 0
0 255 0
0 255 0
0 255 0
0 255 0
0 255 0
0 255 0
0 255 0
0 255 0
0 255 0
0 255 0
0 255 0
0 255 0
0 255 0
0 255 0
0 255 0
0 255 0
0 255 0
0 255 0
0 255 0
0 255 0
0 255 0
0 255 0
0 255 0
0 255 0
0 255 0
0 255 0
0 255 0
0 255 0
0 255 0
0 255 0
0 255 0
0 255 0
0 255 0
0 255 0
0 255 0
0 255 0
0 255 0
0 255 0
0 255 0
0 255 0
0 255 0
0 255 0
1 255 0
1 255 0
1 255 0
1 255 0
1 255 0
1 255 0
1 255 0
1 255 0
1 255 0
1 255 0
1 255 0
1 255 0
1 255 0
1 255 0
1 255 0
1 255 0
1 255 0
1 255 0
1 255 0
1 255 0
1 255 0
1 255 0
1 255 0
1 255 0
1 255 0
1 255 0
1 255 0
1 255 0
1 255 0
1 255 0
1 255 0
1 255 0
1 255 0
1 255 0
1 255 0
1 255 0
1 255 0
1 255 0
1 255 0
1 255 0
1 255 0
1 255 0
1 255 0
1 255 0
1 255 0
1 255 0
1 255 0
1 255 0
1 255 0
1 255 0
1 255 0
1 255 0
1 255 0
2 255 0
2 255 0
2 255 0
2 255 0
2 255 0
2 255 0
2 255 0
2 255 0
2 255 0
2 255 0
2 255 0
2 255 0
2 255 0
2 255 0
2 255 0
2 255 0
2 255 0
2 255 0
2 255 0
2 255 0
2 255 0
2 255 0
2 255 0
2 255 0
2 255 0
2 255 0
2 255 0
2 255 0
2 255 0
2 255 0
2 255 0
2 255 0
2 255 0
2 255 0
2 255 0
2 255 0
2 255 0
2 255 0
2 255 0
2 255 0
2 255 0
2 255 0
2 255 0
2 255 0
2 255 0
2 255 0
2 255 0
2 255 0
2 255 0
2 255 0
2 255 0
3 255 0
3 255 0
3 255 0
3 255 0
3 255 0
3 255 0
3 255 0
3 255 0
3 255 0
3 255 0
3 255 0
3 255 0
3 255 0
3 255 0
3 255 0
3 255 0
3 255 0
3 255 0
3 255 0
3 255 0
3 255 0
3 255 0
3 255 0
3 255 0
3 255 0
3 255 0
3 255 0
3 255 0
3 255 0
3 255 0
3 255 0
3 255 0
3 255 0
3 255 0
3 255 0
3 255 0
3 255 0
3 255 0
3 255 0
3 255 0
3 255 0
3 255 0
3 255 0
0 255 0
0 255 0
0 255 0
0 255 0
0 255 0
0 255 0
0 255 0
0 255 0
0 255 0
0 255 0
0 255 0
0 255 0
0 255 0
0 255 0
0 255 0
0 255 0
0 255 0
0 255 0
0 255 0
0 255 0
0 255 0
0 255 0
0 255 0
0 255 0
0 255 0
0 255 0
0 255 0
0 255 0
0 255 0
0 255 0
0 255 0
0 255 0
0 255 0
0 255 0
0 255 0
0 255 0
0 255 0
0 255 0
0 255 0
0 255 0
0 255 0
0 255 0
0 255 0
0 255 0
0 255 0
0 255 0
0 255 0
0 255 0
0 255 0
0 255 0
0 255 0
0 255 0
0 255 0
0 255 0
0 255 0
0 255 0
0 255 0
0 255 0
0 255 0
0 255 0
0 255 0
0 255 0
0 255 0
0 255 0
0 255 0
0 255 0
0 255 0
0 255 0
0 255 0
0 255 0
0 255 0
0 255 0
0 255 0
0 255 0
0 255 0
0 255 0
0 255 0
0 255 0
0 255 0
0 255 0
0 255 0
0 255 0
0 255 0
0 255 0
0 255 0
0 255 0
0 255 0
0 255 0
0 255 0
0 255 0
0 255 0
0 255 0
0 255 0
0 255 0
0 255 0
0 255 0
0 255 0
0 255 0
0 255 0
0 255 0
0 255 0
0 255 0
0 255 0
0 255 0
0 255 0
0 255 0
0 255 0
0 255 0
0 255 0
0 255 0
0 255 0
0 255 0
0 255 0
0 255 0
0 255 0
0 255 0
0 255 0
0 255 0
0 255 0
0 255 0
0 255 0
0 255 0
0 255 0
0 255 0
0 255 0
0 255 0
0 255 0
0 255 0
0 255 0
0 255 0
0 255 0
0 255 0
0 255 0
0 255 0
0 255 0
0 255 0
0 255 0
0 255 0
0 255 0
0 255 0
0 255 0
0 255 0
0 255 0
0 255 0
0 255 0
0 255 0
0 255 0
0 255 0
0 255 0
0 255 0
0 255 0
0 255 0
0 255 0
0 255 0
0 255 0
0 255 0
0 255 0
0 255 0
0 255 0
0 255 0
0 255 0
0 255 0
0 255 0
0 255 0
0 255 0
0 255 0
0 255 0
0 255 0
0 255 0
0 255 0
0 255 0
0 255 0
0 255 0
0 255 0
0 255 0
0 255 0
0 255 0
0 255 0
0 255 0
0 255 0
0 255 0
0 255 0
0 255 0
0 255 0
0 255 0
0 255 0
0 255 0
0 255 0
0 255 0
0 255 0
0 255 0
0 255 0
0 255 0
0 255 0
0 255 0
0 255 0
0 255 0
0 255 0
0 255 0
0 255 0
0 255 0
0 255 0
0 255 0
0 255 0
0 255 0
0 255 0
0 255 0
0 255 0
0 255 0
0 255 0
0 255 0
0 255 0
0 255 0
0 255 0
0 255 0
0 255 0
0 255 0
0 255 0
0 255 0
0 255 0
0 255 0
0 255 0
0 255 0
0 255 0
0 255 0
0 255 0
0 255 0
0 255 0
0 255 0
0 255 0
0 255 0
0 255 0
0 255 0
0 255 0
0 255 0
0 255 0
0 255 0
0 255 0
0 255 0
0 255 0
0 255 0
0 255 0
0 255 0
0 255 0
0 255 0
0 255 0
0 255 0
0 255 0
0 255 0
0 255 0
0 255 0
0 255 0
0 255 0
0 255 0
1 255 0
1 255 0
1 255 0
1 255 0
1 255 0
1 255 0
1 255 0
1 255 0
1 255 0
1 255 0
1 255 0
1 255 0
1 255 0
1 255 0
1 255 0
1 255 0
1 255 0
1 255 0
1 255 0
1 255 0
1 255 0
1 255 0
1 255 0
1 255 0
1 255 0
1 255 0
1 255 0
1 255 0
1 255 0
1 255 0
1 255 0
1 255 0
1 255 0
1 255 0
1 255 0
1 255 0
1 255 0
1 255 0
1 255 0
1 255 0
1 255 0
1 255 0
1 255 0
1 255 0
1 255 0
1 255 0
1 255 0
1 255 0
1 255 0
1 255 0
1 255 0
1 255 0
1 255 0
2 255 0
2 255 0
2 255 0
2 255 0
2 255 0
2 255 0
2 255 0
2 255 0
2 255 0
2 255 0
2 255 0
2 255 0
2 255 0
2 255 0
2 255 0
2 255 0
2 255 0
2 255 0
2 255 0
2 255 0
2 255 0
2 255 0
2 255 0
2 255 0
2 255 0
2 255 0
2 255 0
2 255 0
2 255 0
2 255 0
2 255 0
2 255 0
2 255 0
2 255 0
2 255 0
2 255 0
2 255 0
2 255 0
2 255 0
2 255 0
2 255 0
2 255 0
2 255 0
2 255 0
2 255 0
2 255 0
2 255 0
2 255 0
2 255 0
2 255 0
2 255 0
2 255 0
3 255 0
3 255 0
3 255 0
3 255 0
3 255 0
3 255 0
3 255 0
3 255 0
3 255 0
3 255 0
3 255 0
3 255 0
3 255 0
3 255 0
3 255 0
3 255 0
3 255 0
3 255 0
3 255 0
3 255 0
3 255 0
3 255 0
3 255 0
3 255 0
3 255 0
3 255 0
3 255 0
3 255 0
3 255 0
3 255 0
3 255 0
3 255 0
3 255 0
3 255 0
3 255 0
3 255 0
3 255 0
3 255 0
3 255 0
3 255 0
3 255 0
0 255 0
0 255 0
0 255 0
0 255 0
0 255 0
0 255 0
0 255 0
0 255 0
0 255 0
0 255 0
0 255 0
0 255 0
0 255 0
0 255 0
0 255 0
0 255 0
0 255 0
0 255 0
0 255 0
0 255 0
0 255 0
0 255 0
0 255 0
0 255 0
0 255 0
0 255 0
0 255 0
0 255 0
0 255 0
0 255 0
0 255 0
0 255 0
0 255 0
0 255 0
0 255 0
0 255 0
0 255 0
0 255 0
0 255 0
0 255 0
0 255 0
0 255 0
0 255 0
0 255 0
0 255 0
0 255 0
0 255 0
0 255 0
0 255 0
0 255 0
0 255 0
0 255 0
0 255 0
0 255 0
0 255 0
0 255 0
0 255 0
0 255 0
0 255 0
0 255 0
0 255 0
0 255 0
0 255 0
0 255 0
0 255 0
0 255 0
0 255 0
0 255 0
0 255 0
0 255 0
0 255 0
0 255 0
0 255 0
0 255 0
0 255 0
0 255 0
0 255 0
0 255 0
0 255 0
0 255 0
0 255 0
0 255 0
0 255 0
0 255 0
0 255 0
0 255 0
0 255 0
0 255 0
0 255 0
0 255 0
0 255 0
0 255 0
0 255 0
0 255 0
0 255 0
0 255 0
0 255 0
0 255 0
0 255 0
0 255 0
0 255 0
0 255 0
0 255 0
0 255 0
0 255 0
0 255 0
0 255 0
0 255 0
0 255 0
0 255 0
0 255 0
0 255 0
0 255 0
0 255 0
0 255 0
0 255 0
0 255 0
0 255 0
0 255 0
0 255 0
0 255 0
0 255 0
0 255 0
0 255 0
0 255 0
0 255 0
0 255 0
0 255 0
0 255 0
0 255 0
0 255 0
0 255 0
0 255 0
0 255 0
0 255 0
0 255 0
0 255 0
0 255 0
0 255 0
0 255 0
0 255 0
0 255 0
0 255 0
0 255 0
0 255 0
0 255 0
0 255 0
0 255 0
0 255 0
0 255 0
0 255 0
0 255 0
0 255 0
0 255 0
0 255 0
0 255 0
0 255 0
0 255 0
0 255 0
0 255 0
0 255 0
0 255 0
0 255 0
0 255 0
0 255 0
0 255 0
0 255 0
0 255 0
0 255 0
0 255 0
0 255 0
0 255 0
0 255 0
0 255 0
0 255 0
0 255 0
0 255 0
0 255 0
0 255 0
0 255 0
0 255 0
0 255 0
0 255 0
0 255 0
0 255 0
0 255 0
0 255 0
0 255 0
0 255 0
0 255 0
0 255 0
0 255 0
0 255 0
0 255 0
0 255 0
0 255 0
0 255 0
0 255 0
0 255 0
0 255 0
0 255 0
0 255 0
0 255 0
0 255 0
0 255 0
0 255 0
0 255 0
0 255 0
0 255 0
0 255 0
0 255 0
0 255 0
0 255 0
0 255 0
0 255 0
0 255 0
0 255 0
0 255 0
0 255 0
0 255 0
0 255 0
0 255 0
0 255 0
0 255 0
0 255 0
0 255 0
0 255 0
0 255 0
0 255 0
0 255 0
0 255 0
0 255 0
0 255 0
0 255 0
0 255 0
0 255 0
0 255 0
0 255 0
0 255 0
0 255 0
0 255 0
0 255 0
0 255 0
0 255 0
0 255 0
0 255 0
0 255 0
0 255 0
0 255 0
0 255 0
0 255 0
0 255 0
0 255 0
0 255 0
0 255 0
1 255 0
1 255 0
1 255 0
1 255 0
1 255 0
1 255 0
1 255 0
1 255 0
1 255 0
1 255 0
1 255 0
1 255 0
1 255 0
1 255 0
1 255 0
1 255 0
1 255 0
1 255 0
1 255 0
1 255 0
1 255 0
1 255 0
1 255 0
1 255 0
1 255 0
1 255 0
1 255 0
1 255 0
1 255 0
1 255 0
1 255 0
1 255 0
1 255 0
1 255 0
1 255 0
1 255 0
1 255 0
1 255 0
1 255 0
1 255 0
1 255 0
1 255 0
1 255 0
1 255 0
1 255 0
1 255 0
1 255 0
1 255 0
1 255 0
1 255 0
1 255 0
1 255 0
1 255 0
1 255 0
2 255 0
2 255 0
2 255 0
2 255 0
2 255 0
2 255 0
2 255 0
2 255 0
2 255 0
2 255 0
2 255 0
2 255 0
2 255 0
2 255 0
2 255 0
2 255 0
2 255 0
2 255 0
2 255 0
2 255 0
2 255 0
2 255 0
2 255 0
2 255 0
2 255 0
2 255 0
2 255 0
2 255 0
2 255 0
2 255 0
2 255 0
2 255 0
2 255 0
2 255 0
2 255 0
2 255 0
2 255 0
2 255 0
2 255 0
2 255 0
2 255 0
2 255 0
2 255 0
2 255 0
2 255 0
2 255 0
2 255 0
2 255 0
2 255 0
2 255 0
2 255 0
2 255 0
2 255 0
3 255 0
3 255 0
3 255 0
3 255 0
3 255 0
3 255 0
3 255 0
3 255 0
3 255 0
3 255 0
3 255 0
3 255 0
3 255 0
3 255 0
3 255 0
3 255 0
3 255 0
3 255 0
3 255 0
3 255 0
3 255 0
3 255 0
3 255 0
3 255 0
3 255 0
3 255 0
3 255 0
3 255 0
3 255 0
3 255 0
3 255 0
3 255 0
3 255 0
3 255 0
3 255 0
3 255 0
3 255 0
3 255 0
0 255 0
0 255 0
0 255 0
0 255 0
0 255 0
0 255 0
0 255 0
0 255 0
0 255 0
0 255 0
0 255 0
0 255 0
0 255 0
0 255 0
0 255 0
0 255 0
0 255 0
0 255 0
0 255 0
0 255 0
0 255 0
0 255 0
0 255 0
0 255 0
0 255 0
0 255 0
0 255 0
0 255 0
0 255 0
0 255 0
0 255 0
0 255 0
0 255 0
0 255 0
0 255 0
0 255 0
0 255 0
0 255 0
0 255 0
0 255 0
0 255 0
0 255 0
0 255 0
0 255 0
0 255 0
0 255 0
0 255 0
0 255 0
0 255 0
0 255 0
0 255 0
0 255 0
0 255 0
0 255 0
0 255 0
0 255 0
0 255 0
0 255 0
0 255 0
0 255 0
0 255 0
0 255 0
0 255 0
0 255 0
0 255 0
0 255 0
0 255 0
0 255 0
0 255 0
0 255 0
0 255 0
0 255 0
0 255 0
0 255 0
0 255 0
0 255 0
0 255 0
0 255 0
0 255 0
0 255 0
0 255 0
0 255 0
0 255 0
0 255 0
0 255 0
0 255 0
0 255 0
0 255 0
0 255 0
0 255 0
0 255 0
0 255 0
0 255 0
0 255 0
0 255 0
0 255 0
0 255 0
0 255 0
0 255 0
0 255 0
0 255 0
0 255 0
0 255 0
0 255 0
0 255 0
0 255 0
0 255 0
0 255 0
0 255 0
0 255 0
0 255 0
0 255 0
0 255 0
0 255 0
0 255 0
0 255 0
0 255 0
0 255 0
0 255 0
0 255 0
0 255 0
0 255 0
0 255 0
0 255 0
0 255 0
0 255 0
0 255 0
0 255 0
0 255 0
0 255 0
0 255 0
0 255 0
0 255 0
0 255 0
0 255 0
0 255 0
0 255 0
0 255 0
0 255 0
0 255 0
0 255 0
0 255 0
0 255 0
0 255 0
0 255 0
0 255 0
0 255 0
0 255 0
0 255 0
0 255 0
0 255 0
0 255 0
0 255 0
0 255 0
0 255 0
0 255 0
0 255 0
0 255 0
0 255 0
0 255 0
0 255 0
0 255 0
0 255 0
0 255 0
0 255 0
0 255 0
0 255 0
0 255 0
0 255 0
0 255 0
0 255 0
0 255 0
0 255 0
0 255 0
0 255 0
0 255 0
0 255 0
0 255 0
0 255 0
0 255 0
0 255 0
0 255 0
0 255 0
0 255 0
0 255 0
0 255 0
0 255 0
0 255 0
0 255 0
0 255 0
0 255 0
0 255 0
0 255 0
0 255 0
0 255 0
0 255 0
0 255 0
0 255 0
0 255 0
0 255 0
0 255 0
0 255 0
0 255 0
0 255 0
0 255 0
0 255 0
0 255 0
0 255 0
0 255 0
0 255 0
0 255 0
0 255 0
0 255 0
0 255 0
0 255 0
0 255 0
0 255 0
0 255 0
0 255 0
0 255 0
0 255 0
0 255 0
0 255 0
0 255 0
0 255 0
0 255 0
0 255 0
0 255 0
0 255 0
0 255 0
0 255 0
0 255 0
0 255 0
0 255 0
0 255 0
0 255 0
0 255 0
0 255 0
0 255 0
0 255 0
0 255 0
0 255 0
0 255 0
0 255 0
0 255 0
0 255 0
0 255 0
0 255 0
0 255 0
0 255 0
0 255 0
0 255 0
0 255 0
0 255 0
0 255 0
1 255 0
1 255 0
1 255 0
1 255 0
1 255 0
1 255 0
1 255 0
1 255 0
1 255 0
1 255 0
1 255 0
1 255 0
1 255 0
1 255 0
1 255 0
1 255 0
1 255 0
1 255 0
1 255 0
1 255 0
1 255 0
1 255 0
1 255 0
1 255 0
1 255 0
1 255 0
1 255 0
1 255 0
1 255 0
1 255 0
1 255 0
1 255 0
1 255 0
1 255 0
1 255 0
1 255 0
1 255 0
1 255 0
1 255 0
1 255 0
1 255 0
1 255 0
1 255 0
1 255 0
1 255 0
1 255 0
1 255 0
1 255 0
1 255 0
1 255 0
1 255 0
1 255 0
1 255 0
1 255 0
1 255 0
2 255 0
2 255 0
2 255 0
2 255 0
2 255 0
2 255 0
2 255 0
2 255 0
2 255 0
2 255 0
2 255 0
2 255 0
2 255 0
2 255 0
2 255 0
2 255 0
2 255 0
2 255 0
2 255 0
2 255 0
2 255 0
2 255 0
2 255 0
2 255 0
2 255 0
2 255 0
2 255 0
2 255 0
2 255 0
2 255 0
2 255 0
2 255 0
2 255 0
2 255 0
2 255 0
2 255 0
2 255 0
2 255 0
2 255 0
2 255 0
2 255 0
2 255 0
2 255 0
2 255 0
2 255 0
2 255 0
2 255 0
2 255 0
2 255 0
2 255 0
2 255 0
2 255 0
2 255 0
2 255 0
3 255 0
3 255 0
3 255 0
3 255 0
3 255 0
3 255 0
3 255 0
3 255 0
3 255 0
3 255 0
3 255 0
3 255 0
3 255 0
3 255 0
3 255 0
3 255 0
3 255 0
3 255 0
3 255 0
3 255 0
3 255 0
3 255 0
3 255 0
3 255 0
3 255 0
3 255 0
3 255 0
3 255 0
3 255 0
3 255 0
3 255 0
3 255 0
3 255 0
3 255 0
3 255 0
3 255 0
0 255 0
0 255 0
0 255 0
0 255 0
0 255 0
0 255 0
0 255 0
0 255 0
0 255 0
0 255 0
0 255 0
0 255 0
0 255 0
0 255 0
0 255 0
0 255 0
0 255 0
0 255 0
0 255 0
0 255 0
0 255 0
0 255 0
0 255 0
0 255 0
0 255 0
0 255 0
0 255 0
0 255 0
0 255 0
0 255 0
0 255 0
0 255 0
0 255 0
0 255 0
0 255 0
0 255 0
0 255 0
0 255 0
0 255 0
0 255 0
0 255 0
0 255 0
0 255 0
0 255 0
0 255 0
0 255 0
0 255 0
0 255 0
0 255 0
0 255 0
0 255 0
0 255 0
0 255 0
0 255 0
0 255 0
0 255 0
0 255 0
0 255 0
0 255 0
0 255 0
0 255 0
0 255 0
0 255 0
0 255 0
0 255 0
0 255 0
0 255 0
0 255 0
0 255 0
0 255 0
0 255 0
0 255 0
0 255 0
0 255 0
0 255 0
0 255 0
0 255 0
0 255 0
0 255 0
0 255 0
0 255 0
0 255 0
0 255 0
0 255 0
0 255 0
0 255 0
0 255 0
0 255 0
0 255 0
0 255 0
0 255 0
0 255 0
0 255 0
0 255 0
0 255 0
0 255 0
0 255 0
0 255 0
0 255 0
0 255 0
0 255 0
0 255 0
0 255 0
0 255 0
0 255 0
0 255 0
0 255 0
0 255 0
0 255 0
0 255 0
0 255 0
0 255 0
0 255 0
0 255 0
0 255 0
0 255 0
0 255 0
0 255 0
0 255 0
0 255 0
0 255 0
0 255 0
0 255 0
0 255 0
0 255 0
0 255 0
0 255 0
0 255 0
0 255 0
0 255 0
0 255 0
0 255 0
0 255 0
0 255 0
0 255 0
0 255 0
0 255 0
0 255 0
0 255 0
0 255 0
0 255 0
0 255 0
0 255 0
0 255 0
0 255 0
0 255 0
0 255 0
0 255 0
0 255 0
0 255 0
0 255 0
0 255 0
0 255 0
0 255 0
0 255 0
0 255 0
0 255 0
0 255 0
0 255 0
0 255 0
0 255 0
0 255 0
0 255 0
0 255 0
0 255 0
0 255 0
0 255 0
0 255 0
0 255 0
0 255 0
0 255 0
0 255 0
0 255 0
0 255 0
0 255 0
0 255 0
0 255 0
0 255 0
0 255 0
0 255 0
0 255 0
0 255 0
0 255 0
0 255 0
0 255 0
0 255 0
0 255 0
0 255 0
0 255 0
0 255 0
0 255 0
0 255 0
0 255 0
0 255 0
0 255 0
0 255 0
0 255 0
0 255 0
0 255 0
0 255 0
0 255 0
0 255 0
0 255 0
0 255 0
0 255 0
0 255 0
0 255 0
0 255 0
0 255 0
0 255 0
0 255 0
0 255 0
0 255 0
0 255 0
0 255 0
0 255 0
0 255 0
0 255 0
0 255 0
0 255 0
0 255 0
0 255 0
0 255 0
0 255 0
0 255 0
0 255 0
0 255 0
0 255 0
0 255 0
0 255 0
0 255 0
0 255 0
0 255 0
0 255 0
0 255 0
0 255 0
0 255 0
0 255 0
0 255 0
0 255 0
0 255 0
0 255 0
0 255 0
0 255 0
0 255 0
0 255 0
0 255 0
0 255 0
0 255 0
0 255 0
0 255 0
0 255 0
0 255 0
0 255 0
0 255 0
0 255 0
1 255 0
1 255 0
1 255 0
1 255 0
1 255 0
1 255 0
1 255 0
1 255 0
1 255 0
1 255 0
1 255 0
1 255 0
1 255 0
1 255 0
1 255 0
1 255 0
1 255 0
1 255 0
1 255 0
1 255 0
1 255 0
1 255 0
1 255 0
1 255 0
1 255 0
1 255 0
1 255 0
1 255 0
1 255 0
1 255 0
1 255 0
1 255 0
1 255 0
1 255 0
1 255 0
1 255 0
1 255 0
1 255 0
1 255 0
1 255 0
1 255 0
1 255 0
1 255 0
1 255 0
1 255 0
1 255 0
1 255 0
1 255 0
1 255 0
1 255 0
1 255 0
1 255 0
1 255 0
1 255 0
1 255 0
1 255 0
2 255 0
2 255 0
2 255 0
2 255 0
2 255 0
2 255 0
2 255 0
2 255 0
2 255 0
2 255 0
2 255 0
2 255 0
2 255 0
2 255 0
2 255 0
2 255 0
2 255 0
2 255 0
2 255 0
2 255 0
2 255 0
2 255 0
2 255 0
2 255 0
2 255 0
2 255 0
2 255 0
2 255 0
2 255 0
2 255 0
2 255 0
2 255 0
2 255 0
2 255 0
2 255 0
2 255 0
2 255 0
2 255 0
2 255 0
2 255 0
2 255 0
2 255 0
2 255 0
2 255 0
2 255 0
2 255 0
2 255 0
2 255 0
2 255 0
2 255 0
2 255 0
2 255 0
2 255 0
2 255 0
3 255 0
3 255 0
3 255 0
3 255 0
3 255 0
3 255 0
3 255 0
3 255 0
3 255 0
3 255 0
3 255 0
3 255 0
3 255 0
3 255 0
3 255 0
3 255 0
3 255 0
3 255 0
3 255 0
3 255 0
3 255 0
3 255 0
3 255 0
3 255 0
3 255 0
3 255 0
3 255 0
3 255 0
3 255 0
3 255 0
3 255 0
3 255 0
3 255 0
3 255 0
0 255 0
0 255 0
0 255 0
0 255 0
0 255 0
0 255 0
0 255 0
0 255 0
0 255 0
0 255 0
0 255 0
0 255 0
0 255 0
0 255 0
0 255 0
0 255 0
0 255 0
0 255 0
0 255 0
0 255 0
0 255 0
0 255 0
0 255 0
0 255 0
0 255 0
0 255 0
0 255 0
0 255 0
0 255 0
0 255 0
0 255 0
0 255 0
0 255 0
0 255 0
0 255 0
0 255 0
0 255 0
0 255 0
0 255 0
0 255 0
0 255 0
0 255 0
0 255 0
0 255 0
0 255 0
0 255 0
0 255 0
0 255 0
0 255 0
0 255 0
0 255 0
0 255 0
0 255 0
0 255 0
0 255 0
0 255 0
0 255 0
0 255 0
0 255 0
0 255 0
0 255 0
0 255 0
0 255 0
0 255 0
0 255 0
0 255 0
0 255 0
0 255 0
0 255 0
0 255 0
0 255 0
0 255 0
0 255 0
0 255 0
0 255 0
0 255 0
0 255 0
0 255 0
0 255 0
0 255 0
0 255 0
0 255 0
0 255 0
0 255 0
0 255 0
0 255 0
0 255 0
0 255 0
0 255 0
0 255 0
0 255 0
0 255 0
0 255 0
0 255 0
0 255 0
0 255 0
0 255 0
0 255 0
0 255 0
0 255 0
0 255 0
0 255 0
0 255 0
0 255 0
0 255 0
0 255 0
0 255 0
0 255 0
0 255 0
0 255 0
0 255 0
0 255 0
0 255 0
0 255 0
0 255 0
0 255 0
0 255 0
0 255 0
0 255 0
0 255 0
0 255 0
0 255 0
0 255 0
0 255 0
0 255 0
0 255 0
0 255 0
0 255 0
0 255 0
0 255 0
0 255 0
0 255 0
0 255 0
0 255 0
0 255 0
0 255 0
0 255 0
0 255 0
0 255 0
0 255 0
0 255 0
0 255 0
0 255 0
0 255 0
0 255 0
0 255 0
0 255 0
0 255 0
0 255 0
0 255 0
0 255 0
0 255 0
0 255 0
0 255 0
0 255 0
0 255 0
0 255 0
0 255 0
0 255 0
0 255 0
0 255 0
0 255 0
0 255 0
0 255 0
0 255 0
0 255 0
0 255 0
0 255 0
0 255 0
0 255 0
0 255 0
0 255 0
0 255 0
0 255 0
0 255 0
0 255 0
0 255 0
0 255 0
0 255 0
0 255 0
0 255 0
0 255 0
0 255 0
0 255 0
0 255 0
0 255 0
0 255 0
0 255 0
0 255 0
0 255 0
0 255 0
0 255 0
0 255 0
0 255 0
0 255 0
0 255 0
0 255 0
0 255 0
0 255 0
0 255 0
0 255 0
0 255 0
0 255 0
0 255 0
0 255 0
0 255 0
0 255 0
0 255 0
0 255 0
0 255 0
0 255 0
0 255 0
0 255 0
0 255 0
0 255 0
0 255 0
0 255 0
0 255 0
0 255 0
0 255 0
0 255 0
0 255 0
0 255 0
0 255 0
0 255 0
0 255 0
0 255 0
0 255 0
0 255 0
0 255 0
0 255 0
0 255 0
0 255 0
0 255 0
0 255 0
0 255 0
0 255 0
0 255 0
0 255 0
0 255 0
0 255 0
0 255 0
0 255 0
0 255 0
0 255 0
0 255 0
0 255 0
0 255 0
0 255 0
0 255 0
0 255 0
0 255 0
0 255 0
0 255 0
0 255 0
0 255 0
0 255 0
1 255 0
1 255 0
1 255 0
1 255 0
1 255 0
1 255 0
1 255 0
1 255 0
1 255 0
1 255 0
1 255 0
1 255 0
1 255 0
1 255 0
1 255 0
1 255 0
1 255 0
1 255 0
1 255 0
1 255 0
1 255 0
1 255 0
1 255 0
1 255 0
1 255 0
1 255 0
1 255 0
1 255 0
1 255 0
1 255 0
1 255 0
1 255 0
1 255 0
1 255 0
1 255 0
1 255 0
1 255 0
1 255 0
1 255 0
1 255 0
1 255 0
1 255 0
1 255 0
1 255 0
1 255 0
1 255 0
1 255 0
1 255 0
1 255 0
1 255 0
1 255 0
1 255 0
1 255 0
1 255 0
1 255 0
1 255 0
2 255 0
2 255 0
2 255 0
2 255 0
2 255 0
2 255 0
2 255 0
2 255 0
2 255 0
2 255 0
2 255 0
2 255 0
2 255 0
2 255 0
2 255 0
2 255 0
2 255 0
2 255 0
2 255 0
2 255 0
2 255 0
2 255 0
2 255 0
2 255 0
2 255 0
2 255 0
2 255 0
2 255 0
2 255 0
2 255 0
2 255 0
2 255 0
2 255 0
2 255 0
2 255 0
2 255 0
2 255 0
2 255 0
2 255 0
2 255 0
2 255 0
2 255 0
2 255 0
2 255 0
2 255 0
2 255 0
2 255 0
2 255 0
2 255 0
2 255 0
2 255 0
2 255 0
2 255 0
2 255 0
2 255 0
2 255 0
3 255 0
3 255 0
3 255 0
3 255 0
3 255 0
3 255 0
3 255 0
3 255 0
3 255 0
3 255 0
3 255 0
3 255 0
3 255 0
3 255 0
3 255 0
3 255 0
3 255 0
3 255 0
3 255 0
3 255 0
3 255 0
3 255 0
3 255 0
3 255 0
3 255 0
3 255 0
3 255 0
3 255 0
3 255 0
3 255 0
3 255 0
0 255 0
0 255 0
0 255 0
0 255 0
0 255 0
0 255 0
0 255 0
0 255 0
0 255 0
0 255 0
0 255 0
0 255 0
0 255 0
0 255 0
0 255 0
0 255 0
0 255 0
0 255 0
0 255 0
0 255 0
0 255 0
0 255 0
0 255 0
0 255 0
0 255 0
0 255 0
0 255 0
0 255 0
0 255 0
0 255 0
0 255 0
0 255 0
0 255 0
0 255 0
0 255 0
0 255 0
0 255 0
0 255 0
0 255 0
0 255 0
0 255 0
0 255 0
0 255 0
0 255 0
0 255 0
0 255 0
0 255 0
0 255 0
0 255 0
0 255 0
0 255 0
0 255 0
0 255 0
0 255 0
0 255 0
0 255 0
0 255 0
0 255 0
0 255 0
0 255 0
0 255 0
0 255 0
0 255 0
0 255 0
0 255 0
0 255 0
0 255 0
0 255 0
0 255 0
0 255 0
0 255 0
0 255 0
0 255 0
0 255 0
0 255 0
0 255 0
0 255 0
0 255 0
0 255 0
0 255 0
0 255 0
0 255 0
0 255 0
0 255 0
0 255 0
0 255 0
0 255 0
0 255 0
0 255 0
0 255 0
0 255 0
0 255 0
0 255 0
0 255 0
0 255 0
0 255 0
0 255 0
0 255 0
0 255 0
0 255 0
0 255 0
0 255 0
0 255 0
0 255 0
0 255 0
0 255 0
0 255 0
0 255 0
0 255 0
0 255 0
0 255 0
0 255 0
0 255 0
0 255 0
0 255 0
0 255 0
0 255 0
0 255 0
0 255 0
0 255 0
0 255 0
0 255 0
0 255 0
0 255 0
0 255 0
0 255 0
0 255 0
0 255 0
0 255 0
0 255 0
0 255 0
0 255 0
0 255 0
0 255 0
0 255 0
0 255 0
0 255 0
0 255 0
0 255 0
0 255 0
0 255 0
0 255 0
0 255 0
0 255 0
0 255 0
0 255 0
0 255 0
0 255 0
0 255 0
0 255 0
0 255 0
0 255 0
0 255 0
0 255 0
0 255 0
0 255 0
0 255 0
0 255 0
0 255 0
0 255 0
0 255 0
0 255 0
0 255 0
0 255 0
0 255 0
0 255 0
0 255 0
0 255 0
0 255 0
0 255 0
0 255 0
0 255 0
0 255 0
0 255 0
0 255 0
0 255 0
0 255 0
0 255 0
0 255 0
0 255 0
0 255 0
0 255 0
0 255 0
0 255 0
0 255 0
0 255 0
0 255 0
0 255 0
0 255 0
0 255 0
0 255 0
0 255 0
0 255 0
0 255 0
0 255 0
0 255 0
0 255 0
0 255 0
0 255 0
0 255 0
0 255 0
0 255 0
0 255 0
0 255 0
0 255 0
0 255 0
0 255 0
0 255 0
0 255 0
0 255 0
0 255 0
0 255 0
0 255 0
0 255 0
0 255 0
0 255 0
0 255 0
0 255 0
0 255 0
0 255 0
0 255 0
0 255 0
0 255 0
0 255 0
0 255 0
0 255 0
0 255 0
0 255 0
0 255 0
0 255 0
0 255 0
0 255 0
0 255 0
0 255 0
0 255 0
0 255 0
0 255 0
0 255 0
0 255 0
0 255 0
0 255 0
0 255 0
0 255 0
0 255 0
0 255 0
0 255 0
0 255 0
0 255 0
0 255 0
0 255 0
0 255 0
0 255 0
0 255 0
0 255 0
0 255 0
0 255 0
0 255 0
0 255 0
1 255 0
1 255 0
1 255 0
1 255 0
1 255 0
1 255 0
1 255 0
1 255 0
1 255 0
1 255 0
1 255 0
1 255 0
1 255 0
1 255 0
1 255 0
1 255 0
1 255 0
1 255 0
1 255 0
1 255 0
1 255 0
1 255 0
1 255 0
1 255 0
1 255 0
1 255 0
1 255 0
1 255 0
1 255 0
1 255 0
1 255 0
1 255 0
1 255 0
1 255 0
1 255 0
1 255 0
1 255 0
1 255 0
1 255 0
1 255 0
1 255 0
1 255 0
1 255 0
1 255 0
1 255 0
1 255 0
1 255 0
1 255 0
1 255 0
1 255 0
1 255 0
1 255 0
1 255 0
1 255 0
1 255 0
1 255 0
1 255 0
2 255 0
2 255 0
2 255 0
2 255 0
2 255 0
2 255 0
2 255 0
2 255 0
2 255 0
2 255 0
2 255 0
2 255 0
2 255 0
2 255 0
2 255 0
2 255 0
2 255 0
2 255 0
2 255 0
2 255 0
2 255 0
2 255 0
2 255 0
2 255 0
2 255 0
2 255 0
2 255 0
2 255 0
2 255 0
2 255 0
2 255 0
2 255 0
2 255 0
2 255 0
2 255 0
2 255 0
2 255 0
2 255 0
2 255 0
2 255 0
2 255 0
2 255 0
2 255 0
2 255 0
2 255 0
2 255 0
2 255 0
2 255 0
2 255 0
2 255 0
2 255 0
2 255 0
2 255 0
2 255 0
2 255 0
2 255 0
3 255 0
3 255 0
3 255 0
3 255 0
3 255 0
3 255 0
3 255 0
3 255 0
3 255 0
3 255 0
3 255 0
3 255 0
3 255 0
3 255 0
3 255 0
3 255 0
3 255 0
3 255 0
3 255 0
3 255 0
3 255 0
3 255 0
3 255 0
3 255 0
3 255 0
3 255 0
3 255 0
3 255 0
3 255 0
0 255 0
0 255 0
0 255 0
0 255 0
0 255 0
0 255 0
0 255 0
0 255 0
0 255 0
0 255 0
0 255 0
0 255 0
0 255 0
0 255 0
0 255 0
0 255 0
0 255 0
0 255 0
0 255 0
0 255 0
0 255 0
0 255 0
0 255 0
0 255 0
0 255 0
0 255 0
0 255 0
0 255 0
0 255 0
0 255 0
0 255 0
0 255 0
0 255 0
0 255 0
0 255 0
0 255 0
0 255 0
0 255 0
0 255 0
0 255 0
0 255 0
0 255 0
0 255 0
0 255 0
0 255 0
0 255 0
0 255 0
0 255 0
0 255 0
0 255 0
0 255 0
0 255 0
0 255 0
0 255 0
0 255 0
0 255 0
0 255 0
0 255 0
0 255 0
0 255 0
0 255 0
0 255 0
0 255 0
0 255 0
0 255 0
0 255 0
0 255 0
0 255 0
0 255 0
0 255 0
0 255 0
0 255 0
0 255 0
0 255 0
0 255 0
0 255 0
0 255 0
0 255 0
0 255 0
0 255 0
0 255 0
0 255 0
0 255 0
0 255 0
0 255 0
0 255 0
0 255 0
0 255 0
0 255 0
0 255 0
0 255 0
0 255 0
0 255 0
0 255 0
0 255 0
0 255 0
0 255 0
0 255 0
0 255 0
0 255 0
0 255 0
0 255 0
0 255 0
0 255 0
0 255 0
0 255 0
0 255 0
0 255 0
0 255 0
0 255 0
0 255 0
0 255 0
0 255 0
0 255 0
0 255 0
0 255 0
0 255 0
0 255 0
0 255 0
0 255 0
0 255 0
0 255 0
0 255 0
0 255 0
0 255 0
0 255 0
0 255 0
0 255 0
0 255 0
0 255 0
0 255 0
0 255 0
0 255 0
0 255 0
0 255 0
0 255 0
0 255 0
0 255 0
0 255 0
0 255 0
0 255 0
0 255 0
0 255 0
0 255 0
0 255 0
0 255 0
0 255 0
0 255 0
0 255 0
0 255 0
0 255 0
0 255 0
0 255 0
0 255 0
0 255 0
0 255 0
0 255 0
0 255 0
0 255 0
0 255 0
0 255 0
0 255 0
0 255 0
0 255 0
0 255 0
0 255 0
0 255 0
0 255 0
0 255 0
0 255 0
0 255 0
0 255 0
0 255 0
0 255 0
0 255 0
0 255 0
0 255 0
0 255 0
0 255 0
0 255 0
0 255 0
0 255 0
0 255 0
0 255 0
0 255 0
0 255 0
0 255 0
0 255 0
0 255 0
0 255 0
0 255 0
0 255 0
0 255 0
0 255 0
0 255 0
0 255 0
0 255 0
0 255 0
0 255 0
0 255 0
0 255 0
0 255 0
0 255 0
0 255 0
0 255 0
0 255 0
0 255 0
0 255 0
0 255 0
0 255 0
0 255 0
0 255 0
0 255 0
0 255 0
0 255 0
0 255 0
0 255 0
0 255 0
0 255 0
0 255 0
0 255 0
0 255 0
0 255 0
0 255 0
0 255 0
0 255 0
0 255 0
0 255 0
0 255 0
0 255 0
0 255 0
0 255 0
0 255 0
0 255 0
0 255 0
0 255 0
0 255 0
0 255 0
0 255 0
0 255 0
0 255 0
0 255 0
0 255 0
0 255 0
0 255 0
0 255 0
0 255 0
0 255 0
0 255 0
0 255 0
0 255 0
0 255 0
0 255 0
0 255 0
0 255 0
0 255 0
0 255 0
0 255 0
0 255 0
1 255 0
1 255 0
1 255 0
1 255 0
1 255 0
1 255 0
1 255 0
1 255 0
1 255 0
1 255 0
1 255 0
1 255 0
1 255 0
1 255 0
1 255 0
1 255 0
1 255 0
1 255 0
1 255 0
1 255 0
1 255 0
1 255 0
1 255 0
1 255 0
1 255 0
1 255 0
1 255 0
1 255 0
1 255 0
1 255 0
1 255 0
1 255 0
1 255 0
1 255 0
1 255 0
1 255 0
1 255 0
1 255 0
1 255 0
1 255 0
1 255 0
1 255 0
1 255 0
1 255 0
1 255 0
1 255 0
1 255 0
1 255 0
1 255 0
1 255 0
1 255 0
1 255 0
1 255 0
1 255 0
1 255 0
1 255 0
1 255 0
2 255 0
2 255 0
2 255 0
2 255 0
2 255 0
2 255 0
2 255 0
2 255 0
2 255 0
2 255 0
2 255 0
2 255 0
2 255 0
2 255 0
2 255 0
2 255 0
2 255 0
2 255 0
2 255 0
2 255 0
2 255 0
2 255 0
2 255 0
2 255 0
2 255 0
2 255 0
2 255 0
2 255 0
2 255 0
2 255 0
2 255 0
2 255 0
2 255 0
2 255 0
2 255 0
2 255 0
2 255 0
2 255 0
2 255 0
2 255 0
2 255 0
2 255 0
2 255 0
2 255 0
2 255 0
2 255 0
2 255 0
2 255 0
2 255 0
2 255 0
2 255 0
2 255 0
2 255 0
2 255 0
2 255 0
2 255 0
2 255 0
3 255 0
3 255 0
3 255 0
3 255 0
3 255 0
3 255 0
3 255 0
3 255 0
3 255 0
3 255 0
3 255 0
3 255 0
3 255 0
3 255 0
3 255 0
3 255 0
3 255 0
3 255 0
3 255 0
3 255 0
3 255 0
3 255 0
3 255 0
3 255 0
3 255 0
3 255 0
3 255 0
0 255 0
0 255 0
0 255 0
0 255 0
0 255 0
0 255 0
0 255 0
0 255 0
0 255 0
0 255 0
0 255 0
0 255 0
0 255 0
0 255 0
0 255 0
0 255 0
0 255 0
0 255 0
0 255 0
0 255 0
0 255 0
0 255 0
0 255 0
0 255 0
0 255 0
0 255 0
0 255 0
0 255 0
0 255 0
0 255 0
0 255 0
0 255 0
0 255 0
0 255 0
0 255 0
0 255 0
0 255 0
0 255 0
0 255 0
0 255 0
0 255 0
0 255 0
0 255 0
0 255 0
0 255 0
0 255 0
0 255 0
0 255 0
0 255 0
0 255 0
0 255 0
0 255 0
0 255 0
0 255 0
0 255 0
0 255 0
0 255 0
0 255 0
0 255 0
0 255 0
0 255 0
0 255 0
0 255 0
0 255 0
0 255 0
0 255 0
0 255 0
0 255 0
0 255 0
0 255 0
0 255 0
0 255 0
0 255 0
0 255 0
0 255 0
0 255 0
0 255 0
0 255 0
0 255 0
0 255 0
0 255 0
0 255 0
0 255 0
0 255 0
0 255 0
0 255 0
0 255 0
0 255 0
0 255 0
0 255 0
0 255 0
0 255 0
0 255 0
0 255 0
0 255 0
0 255 0
0 255 0
0 255 0
0 255 0
0 255 0
0 255 0
0 255 0
0 255 0
0 255 0
0 255 0
0 255 0
0 255 0
0 255 0
0 255 0
0 255 0
0 255 0
0 255 0
0 255 0
0 255 0
0 255 0
0 255 0
0 255 0
0 255 0
0 255 0
0 255 0
0 255 0
0 255 0
0 255 0
0 255 0
0 255 0
0 255 0
0 255 0
0 255 0
0 255 0
0 255 0
0 255 0
0 255 0
0 255 0
0 255 0
0 255 0
0 255 0
0 255 0
0 255 0
0 255 0
0 255 0
0 255 0
0 255 0
0 255 0
0 255 0
0 255 0
0 255 0
0 255 0
0 255 0
0 255 0
0 255 0
0 255 0
0 255 0
0 255 0
0 255 0
0 255 0
0 255 0
0 255 0
0 255 0
0 255 0
0 255 0
0 255 0
0 255 0
0 255 0
0 255 0
0 255 0
0 255 0
0 255 0
0 255 0
0 255 0
0 255 0
0 255 0
0 255 0
0 255 0
0 255 0
0 255 0
0 255 0
0 255 0
0 255 0
0 255 0
0 255 0
0 255 0
0 255 0
0 255 0
0 255 0
0 255 0
0 255 0
0 255 0
0 255 0
0 255 0
0 255 0
0 255 0
0 255 0
0 255 0
0 255 0
0 255 0
0 255 0
0 255 0
0 255 0
0 255 0
0 255 0
0 255 0
0 255 0
0 255 0
0 255 0
0 255 0
0 255 0
0 255 0
0 255 0
0 255 0
0 255 0
0 255 0
0 255 0
0 255 0
0 255 0
0 255 0
0 255 0
0 255 0
0 255 0
0 255 0
0 255 0
0 255 0
0 255 0
0 255 0
0 255 0
0 255 0
0 255 0
0 255 0
0 255 0
0 255 0
0 255 0
0 255 0
0 255 0
0 255 0
0 255 0
0 255 0
0 255 0
0 255 0
0 255 0
0 255 0
0 255 0
0 255 0
0 255 0
0 255 0
0 255 0
0 255 0
0 255 0
0 255 0
0 255 0
0 255 0
0 255 0
0 255 0
0 255 0
0 255 0
0 255 0
0 255 0
0 255 0
0 255 0
0 255 0
0 255 0
1 255 0
1 255 0
1 255 0
1 255 0
1 255 0
1 255 0
1 255 0
1 255 0
1 255 0
1 255 0
1 255 0
1 255 0
1 255 0
1 255 0
1 255 0
1 255 0
1 255 0
1 255 0
1 255 0
1 255 0
1 255 0
1 255 0
1 255 0
1 255 0
1 255 0
1 255 0
1 255 0
1 255 0
1 255 0
1 255 0
1 255 0
1 255 0
1 255 0
1 255 0
1 255 0
1 255 0
1 255 0
1 255 0
1 255 0
1 255 0
1 255 0
1 255 0
1 255 0
1 255 0
1 255 0
1 255 0
1 255 0
1 255 0
1 255 0
1 255 0
1 255 0
1 255 0
1 255 0
1 255 0
1 255 0
1 255 0
1 255 0
1 255 0
1 255 0
2 255 0
2 255 0
2 255 0
2 255 0
2 255 0
2 255 0
2 255 0
2 255 0
2 255 0
2 255 0
2 255 0
2 255 0
2 255 0
2 255 0
2 255 0
2 255 0
2 255 0
2 255 0
2 255 0
2 255 0
2 255 0
2 255 0
2 255 0
2 255 0
2 255 0
2 255 0
2 255 0
2 255 0
2 255 0
2 255 0
2 255 0
2 255 0
2 255 0
2 255 0
2 255 0
2 255 0
2 255 0
2 255 0
2 255 0
2 255 0
2 255 0
2 255 0
2 255 0
2 255 0
2 255 0
2 255 0
2 255 0
2 255 0
2 255 0
2 255 0
2 255 0
2 255 0
2 255 0
2 255 0
2 255 0
2 255 0
2 255 0
2 255 0
3 255 0
3 255 0
3 255 0
3 255 0
3 255 0
3 255 0
3 255 0
3 255 0
3 255 0
3 255 0
3 255 0
3 255 0
3 255 0
3 255 0
3 255 0
3 255 0
3 255 0
3 255 0
3 255 0
3 255 0
3 255 0
3 255 0
3 255 0
3 255 0
0 255 0
0 255 0
0 255 0
0 255 0
0 255 0
0 255 0
0 255 0
0 255 0
0 255 0
0 255 0
0 255 0
0 255 0
0 255 0
0 255 0
0 255 0
0 255 0
0 255 0
0 255 0
0 255 0
0 255 0
0 255 0
0 255 0
0 255 0
0 255 0
0 255 0
0 255 0
0 255 0
0 255 0
0 255 0
0 255 0
0 255 0
0 255 0
0 255 0
0 255 0
0 255 0
0 255 0
0 255 0
0 255 0
0 255 0
0 255 0
0 255 0
0 255 0
0 255 0
0 255 0
0 255 0
0 255 0
0 255 0
0 255 0
0 255 0
0 255 0
0 255 0
0 255 0
0 255 0
0 255 0
0 255 0
0 255 0
0 255 0
0 255 0
0 255 0
0 255 0
0 255 0
0 255 0
0 255 0
0 255 0
0 255 0
0 255 0
0 255 0
0 255 0
0 255 0
0 255 0
0 255 0
0 255 0
0 255 0
0 255 0
0 255 0
0 255 0
0 255 0
0 255 0
0 255 0
0 255 0
0 255 0
0 255 0
0 255 0
0 255 0
0 255 0
0 255 0
0 255 0
0 255 0
0 255 0
0 255 0
0 255 0
0 255 0
0 255 0
0 255 0
0 255 0
0 255 0
0 255 0
0 255 0
0 255 0
0 255 0
0 255 0
0 255 0
0 255 0
0 255 0
0 255 0
0 255 0
0 255 0
0 255 0
0 255 0
0 255 0
0 255 0
0 255 0
0 255 0
0 255 0
0 255 0
0 255 0
0 255 0
0 255 0
0 255 0
0 255 0
0 255 0
0 255 0
0 255 0
0 255 0
0 255 0
0 255 0
0 255 0
0 255 0
0 255 0
0 255 0
0 255 0
0 255 0
0 255 0
0 255 0
0 255 0
0 255 0
0 255 0
0 255 0
0 255 0
0 255 0
0 255 0
0 255 0
0 255 0
0 255 0
0 255 0
0 255 0
0 255 0
0 255 0
0 255 0
0 255 0
0 255 0
0 255 0
0 255 0
0 255 0
0 255 0
0 255 0
0 255 0
0 255 0
0 255 0
0 255 0
0 255 0
0 255 0
0 255 0
0 255 0
0 255 0
0 255 0
0 255 0
0 255 0
0 255 0
0 255 0
0 255 0
0 255 0
0 255 0
0 255 0
0 255 0
0 255 0
0 255 0
0 255 0
0 255 0
0 255 0
0 255 0
0 255 0
0 255 0
0 255 0
0 255 0
0 255 0
0 255 0
0 255 0
0 255 0
0 255 0
0 255 0
0 255 0
0 255 0
0 255 0
0 255 0
0 255 0
0 255 0
0 255 0
0 255 0
0 255 0
0 255 0
0 255 0
0 255 0
0 255 0
0 255 0
0 255 0
0 255 0
0 255 0
0 255 0
0 255 0
0 255 0
0 255 0
0 255 0
0 255 0
0 255 0
0 255 0
0 255 0
0 255 0
0 255 0
0 255 0
0 255 0
0 255 0
0 255 0
0 255 0
0 255 0
0 255 0
0 255 0
0 255 0
0 255 0
0 255 0
0 255 0
0 255 0
0 255 0
0 255 0
0 255 0
0 255 0
0 255 0
0 255 0
0 255 0
0 255 0
0 255 0
0 255 0
0 255 0
0 255 0
0 255 0
0 255 0
0 255 0
0 255 0
0 255 0
0 255 0
0 255 0
0 255 0
0 255 0
0 255 0
0 255 0
0 255 0
0 255 0
0 255 0
0 255 0
0 255 0
1 255 0
1 255 0
1 255 0
1 255 0
1 255 0
1 255 0
1 255 0
1 255 0
1 255 0
1 255 0
1 255 0
1 255 0
1 255 0
1 255 0
1 255 0
1 255 0
1 255 0
1 255 0
1 255 0
1 255 0
1 255 0
1 255 0
1 255 0
1 255 0
1 255 0
1 255 0
1 255 0
1 255 0
1 255 0
1 255 0
1 255 0
1 255 0
1 255 0
1 255 0
1 255 0
1 255 0
1 255 0
1 255 0
1 255 0
1 255 0
1 255 0
1 255 0
1 255 0
1 255 0
1 255 0
1 255 0
1 255 0
1 255 0
1 255 0
1 255 0
1 255 0
1 255 0
1 255 0
1 255 0
1 255 0
1 255 0
1 255 0
1 255 0
1 255 0
2 255 0
2 255 0
2 255 0
2 255 0
2 255 0
2 255 0
2 255 0
2 255 0
2 255 0
2 255 0
2 255 0
2 255 0
2 255 0
2 255 0
2 255 0
2 255 0
2 255 0
2 255 0
2 255 0
2 255 0
2 255 0
2 255 0
2 255 0
2 255 0
2 255 0
2 255 0
2 255 0
2 255 0
2 255 0
2 255 0
2 255 0
2 255 0
2 255 0
2 255 0
2 255 0
2 255 0
2 255 0
2 255 0
2 255 0
2 255 0
2 255 0
2 255 0
2 255 0
2 255 0
2 255 0
2 255 0
2 255 0
2 255 0
2 255 0
2 255 0
2 255 0
2 255 0
2 255 0
2 255 0
2 255 0
2 255 0
2 255 0
2 255 0
2 255 0
3 255 0
3 255 0
3 255 0
3 255 0
3 255 0
3 255 0
3 255 0
3 255 0
3 255 0
3 255 0
3 255 0
3 255 0
3 255 0
3 255 0
3 255 0
3 255 0
3 255 0
3 255 0
3 255 0
3 255 0
3 255 0
3 255 0
0 255 0
0 255 0
0 255 0
0 255 0
0 255 0
0 255 0
0 255 0
0 255 0
0 255 0
0 255 0
0 255 0
0 255 0
0 255 0
0 255 0
0 255 0
0 255 0
0 255 0
0 255 0
0 255 0
0 255 0
0 255 0
0 255 0
0 255 0
0 255 0
0 255 0
0 255 0
0 255 0
0 255 0
0 255 0
0 255 0
0 255 0
0 255 0
0 255 0
0 255 0
0 255 0
0 255 0
0 255 0
0 255 0
0 255 0
0 255 0
0 255 0
0 255 0
0 255 0
0 255 0
0 255 0
0 255 0
0 255 0
0 255 0
0 255 0
0 255 0
0 255 0
0 255 0
0 255 0
0 255 0
0 255 0
0 255 0
0 255 0
0 255 0
0 255 0
0 255 0
0 255 0
0 255 0
0 255 0
0 255 0
0 255 0
0 255 0
0 255 0
0 255 0
0 255 0
0 255 0
0 255 0
0 255 0
0 255 0
0 255 0
0 255 0
0 255 0
0 255 0
0 255 0
0 255 0
0 255 0
0 255 0
0 255 0
0 255 0
0 255 0
0 255 0
0 255 0
0 255 0
0 255 0
0 255 0
0 255 0
0 255 0
0 255 0
0 255 0
0 255 0
0 255 0
0 255 0
0 255 0
0 255 0
0 255 0
0 255 0
0 255 0
0 255 0
0 255 0
0 255 0
0 255 0
0 255 0
0 255 0
0 255 0
0 255 0
0 255 0
0 255 0
0 255 0
0 255 0
0 255 0
0 255 0
0 255 0
0 255 0
0 255 0
0 255 0
0 255 0
0 255 0
0 255 0
0 255 0
0 255 0
0 255 0
0 255 0
0 255 0
0 255 0
0 255 0
0 255 0
0 255 0
0 255 0
0 255 0
0 255 0
0 255 0
0 255 0
0 255 0
0 255 0
0 255 0
0 255 0
0 255 0
0 255 0
0 255 0
0 255 0
0 255 0
0 255 0
0 255 0
0 255 0
0 255 0
0 255 0
0 255 0
0 255 0
0 255 0
0 255 0
0 255 0
0 255 0
0 255 0
0 255 0
0 255 0
0 255 0
0 255 0
0 255 0
0 255 0
0 255 0
0 255 0
0 255 0
0 255 0
0 255 0
0 255 0
0 255 0
0 255 0
0 255 0
0 255 0
0 255 0
0 255 0
0 255 0
0 255 0
0 255 0
0 255 0
0 255 0
0 255 0
0 255 0
0 255 0
0 255 0
0 255 0
0 255 0
0 255 0
0 255 0
0 255 0
0 255 0
0 255 0
0 255 0
0 255 0
0 255 0
0 255 0
0 255 0
0 255 0
0 255 0
0 255 0
0 255 0
0 255 0
0 255 0
0 255 0
0 255 0
0 255 0
0 255 0
0 255 0
0 255 0
0 255 0
0 255 0
0 255 0
0 255 0
0 255 0
0 255 0
0 255 0
0 255 0
0 255 0
0 255 0
0 255 0
0 255 0
0 255 0
0 255 0
0 255 0
0 255 0
0 255 0
0 255 0
0 255 0
0 255 0
0 255 0
0 255 0
0 255 0
0 255 0
0 255 0
0 255 0
0 255 0
0 255 0
0 255 0
0 255 0
0 255 0
0 255 0
0 255 0
0 255 0
0 255 0
0 255 0
0 255 0
0 255 0
0 255 0
0 255 0
0 255 0
0 255 0
0 255 0
0 255 0
0 255 0
0 255 0
0 255 0
0 255 0
0 255 0
0 255 0
0 255 0
0 255 0
0 255 0
1 255 0
1 255 0
1 255 0
1 255 0
1 255 0
1 255 0
1 255 0
1 255 0
1 255 0
1 255 0
1 255 0
1 255 0
1 255 0
1 255 0
1 255 0
1 255 0
1 255 0
1 255 0
1 255 0
1 255 0
1 255 0
1 255 0
1 255 0
1 255 0
1 255 0
1 255 0
1 255 0
1 255 0
1 255 0
1 255 0
1 255 0
1 255 0
1 255 0
1 255 0
1 255 0
1 255 0
1 255 0
1 255 0
1 255 0
1 255 0
1 255 0
1 255 0
1 255 0
1 255 0
1 255 0
1 255 0
1 255 0
1 255 0
1 255 0
1 255 0
1 255 0
1 255 0
1 255 0
1 255 0
1 255 0
1 255 0
1 255 0
1 255 0
1 255 0
1 255 0
2 255 0
2 255 0
2 255 0
2 255 0
2 255 0
2 255 0
2 255 0
2 255 0
2 255 0
2 255 0
2 255 0
2 255 0
2 255 0
2 255 0
2 255 0
2 255 0
2 255 0
2 255 0
2 255 0
2 255 0
2 255 0
2 255 0
2 255 0
2 255 0
2 255 0
2 255 0
2 255 0
2 255 0
2 255 0
2 255 0
2 255 0
2 255 0
2 255 0
2 255 0
2 255 0
2 255 0
2 255 0
2 255 0
2 255 0
2 255 0
2 255 0
2 255 0
2 255 0
2 255 0
2 255 0
2 255 0
2 255 0
2 255 0
2 255 0
2 255 0
2 255 0
2 255 0
2 255 0
2 255 0
2 255 0
2 255 0
2 255 0
2 255 0
2 255 0
3 255 0
3 255 0
3 255 0
3 255 0
3 255 0
3 255 0
3 255 0
3 255 0
3 255 0
3 255 0
3 255 0
3 255 0
3 255 0
3 255 0
3 255 0
3 255 0
3 255 0
3 255 0
3 255 0
3 255 0
0 255 0
0 255 0
0 255 0
0 255 0
0 255 0
0 255 0
0 255 0
0 255 0
0 255 0
0 255 0
0 255 0
0 255 0
0 255 0
0 255 0
0 255 0
0 255 0
0 255 0
0 255 0
0 255 0
0 255 0
0 255 0
0 255 0
0 255 0
0 255 0
0 255 0
0 255 0
0 255 0
0 255 0
0 255 0
0 255 0
0 255 0
0 255 0
0 255 0
0 255 0
0 255 0
0 255 0
0 255 0
0 255 0
0 255 0
0 255 0
0 255 0
0 255 0
0 255 0
0 255 0
0 255 0
0 255 0
0 255 0
0 255 0
0 255 0
0 255 0
0 255 0
0 255 0
0 255 0
0 255 0
0 255 0
0 255 0
0 255 0
0 255 0
0 255 0
0 255 0
0 255 0
0 255 0
0 255 0
0 255 0
0 255 0
0 255 0
0 255 0
0 255 0
0 255 0
0 255 0
0 255 0
0 255 0
0 255 0
0 255 0
0 255 0
0 255 0
0 255 0
0 255 0
0 255 0
0 255 0
0 255 0
0 255 0
0 255 0
0 255 0
0 255 0
0 255 0
0 255 0
0 255 0
0 255 0
0 255 0
0 255 0
0 255 0
0 255 0
0 255 0
0 255 0
0 255 0
0 255 0
0 255 0
0 255 0
0 255 0
0 255 0
0 255 0
0 255 0
0 255 0
0 255 0
0 255 0
0 255 0
0 255 0
0 255 0
0 255 0
0 255 0
0 255 0
0 255 0
0 255 0
0 255 0
0 255 0
0 255 0
0 255 0
0 255 0
0 255 0
0 255 0
0 255 0
0 255 0
0 255 0
0 255 0
0 255 0
0 255 0
0 255 0
0 255 0
0 255 0
0 255 0
0 255 0
0 255 0
0 255 0
0 255 0
0 255 0
0 255 0
0 255 0
0 255 0
0 255 0
0 255 0
0 255 0
0 255 0
0 255 0
0 255 0
0 255 0
0 255 0
0 255 0
0 255 0
0 255 0
0 255 0
0 255 0
0 255 0
0 255 0
0 255 0
0 255 0
0 255 0
0 255 0
0 255 0
0 255 0
0 255 0
0 255 0
0 255 0
0 255 0
0 255 0
0 255 0
0 255 0
0 255 0
0 255 0
0 255 0
0 255 0
0 255 0
0 255 0
0 255 0
0 255 0
0 255 0
0 255 0
0 255 0
0 255 0
0 255 0
0 255 0
0 255 0
0 255 0
0 255 0
0 255 0
0 255 0
0 255 0
0 255 0
0 255 0
0 255 0
0 255 0
0 255 0
0 255 0
0 255 0
0 255 0
0 255 0
0 255 0
0 255 0
0 255 0
0 255 0
0 255 0
0 255 0
0 255 0
0 255 0
0 255 0
0 255 0
0 255 0
0 255 0
0 255 0
0 255 0
0 255 0
0 255 0
0 255 0
0 255 0
0 255 0
0 255 0
0 255 0
0 255 0
0 255 0
0 255 0
0 255 0
0 255 0
0 255 0
0 255 0
0 255 0
0 255 0
0 255 0
0 255 0
0 255 0
0 255 0
0 255 0
0 255 0
0 255 0
0 255 0
0 255 0
0 255 0
0 255 0
0 255 0
0 255 0
0 255 0
0 255 0
0 255 0
0 255 0
0 255 0
0 255 0
0 255 0
0 255 0
0 255 0
0 255 0
0 255 0
0 255 0
0 255 0
0 255 0
0 255 0
0 255 0
0 255 0
0 255 0
0 255 0
0 255 0
0 255 0
0 255 0
0 255 0
1 255 0
1 255 0
1 255 0
1 255 0
1 255 0
1 255 0
1 255 0
1 255 0
1 255 0
1 255 0
1 255 0
1 255 0
1 255 0
1 255 0
1 255 0
1 255 0
1 255 0
1 255 0
1 255 0
1 255 0
1 255 0
1 255 0
1 255 0
1 255 0
1 255 0
1 255 0
1 255 0
1 255 0
1 255 0
1 255 0
1 255 0
1 255 0
1 255 0
1 255 0
1 255 0
1 255 0
1 255 0
1 255 0
1 255 0
1 255 0
1 255 0
1 255 0
1 255 0
1 255 0
1 255 0
1 255 0
1 255 0
1 255 0
1 255 0
1 255 0
1 255 0
1 255 0
1 255 0
1 255 0
1 255 0
1 255 0
1 255 0
1 255 0
1 255 0
1 255 0
1 255 0
2 255 0
2 255 0
2 255 0
2 255 0
2 255 0
2 255 0
2 255 0
2 255 0
2 255 0
2 255 0
2 255 0
2 255 0
2 255 0
2 255 0
2 255 0
2 255 0
2 255 0
2 255 0
2 255 0
2 255 0
2 255 0
2 255 0
2 255 0
2 255 0
2 255 0
2 255 0
2 255 0
2 255 0
2 255 0
2 255 0
2 255 0
2 255 0
2 255 0
2 255 0
2 255 0
2 255 0
2 255 0
2 255 0
2 255 0
2 255 0
2 255 0
2 255 0
2 255 0
2 255 0
2 255 0
2 255 0
2 255 0
2 255 0
2 255 0
2 255 0
2 255 0
2 255 0
2 255 0
2 255 0
2 255 0
2 255 0
2 255 0
2 255 0
2 255 0
2 255 0
3 255 0
3 255 0
3 255 0
3 255 0
3 255 0
3 255 0
3 255 0
3 255 0
3 255 0
3 255 0
3 255 0
3 255 0
3 255 0
3 255 0
3 255 0
3 255 0
3 255 0
0 255 0
0 255 0
0 255 0
0 255 0
0 255 0
0 255 0
0 255 0
0 255 0
0 255 0
0 255 0
0 255 0
0 255 0
0 255 0
0 255 0
0 255 0
0 255 0
0 255 0
0 255 0
0 255 0
0 255 0
0 255 0
0 255 0
0 255 0
0 255 0
0 255 0
0 255 0
0 255 0
0 255 0
0 255 0
0 255 0
0 255 0
0 255 0
0 255 0
0 255 0
0 255 0
0 255 0
0 255 0
0 255 0
0 255 0
0 255 0
0 255 0
0 255 0
0 255 0
0 255 0
0 255 0
0 255 0
0 255 0
0 255 0
0 255 0
0 255 0
0 255 0
0 255 0
0 255 0
0 255 0
0 255 0
0 255 0
0 255 0
0 255 0
0 255 0
0 255 0
0 255 0
0 255 0
0 255 0
0 255 0
0 255 0
0 255 0
0 255 0
0 255 0
0 255 0
0 255 0
0 255 0
0 255 0
0 255 0
0 255 0
0 255 0
0 255 0
0 255 0
0 255 0
0 255 0
0 255 0
0 255 0
0 255 0
0 255 0
0 255 0
0 255 0
0 255 0
0 255 0
0 255 0
0 255 0
0 255 0
0 255 0
0 255 0
0 255 0
0 255 0
0 255 0
0 255 0
0 255 0
0 255 0
0 255 0
0 255 0
0 255 0
0 255 0
0 255 0
0 255 0
0 255 0
0 255 0
0 255 0
0 255 0
0 255 0
0 255 0
0 255 0
0 255 0
0 255 0
0 255 0
0 255 0
0 255 0
0 255 0
0 255 0
0 255 0
0 255 0
0 255 0
0 255 0
0 255 0
0 255 0
0 255 0
0 255 0
0 255 0
0 255 0
0 255 0
0 255 0
0 255 0
0 255 0
0 255 0
0 255 0
0 255 0
0 255 0
0 255 0
0 255 0
0 255 0
0 255 0
0 255 0
0 255 0
0 255 0
0 255 0
0 255 0
0 255 0
0 255 0
0 255 0
0 255 0
0 255 0
0 255 0
0 255 0
0 255 0
0 255 0
0 255 0
0 255 0
0 255 0
0 255 0
0 255 0
0 255 0
0 255 0
0 255 0
0 255 0
0 255 0
0 255 0
0 255 0
0 255 0
0 255 0
0 255 0
0 255 0
0 255 0
0 255 0
0 255 0
0 255 0
0 255 0
0 255 0
0 255 0
0 255 0
0 255 0
0 255 0
0 255 0
0 255 0
0 255 0
0 255 0
0 255 0
0 255 0
0 255 0
0 255 0
0 255 0
0 255 0
0 255 0
0 255 0
0 255 0
0 255 0
0 255 0
0 255 0
0 255 0
0 255 0
0 255 0
0 255 0
0 255 0
0 255 0
0 255 0
0 255 0
0 255 0
0 255 0
0 255 0
0 255 0
0 255 0
0 255 0
0 255 0
0 255 0
0 255 0
0 255 0
0 255 0
0 255 0
0 255 0
0 255 0
0 255 0
0 255 0
0 255 0
0 255 0
0 255 0
0 255 0
0 255 0
0 255 0
0 255 0
0 255 0
0 255 0
0 255 0
0 255 0
0 255 0
0 255 0
0 255 0
0 255 0
0 255 0
0 255 0
0 255 0
0 255 0
0 255 0
0 255 0
0 255 0
0 255 0
0 255 0
0 255 0
0 255 0
0 255 0
0 255 0
0 255 0
0 255 0
0 255 0
0 255 0
0 255 0
0 255 0
0 255 0
0 255 0
0 255 0
0 255 0
0 255 0
0 255 0
0 255 0
0 255 0
1 255 0
1 255 0
1 255 0
1 255 0
1 255 0
1 255 0
1 255 0
1 255 0
1 255 0
1 255 0
1 255 0
1 255 0
1 255 0
1 255 0
1 255 0
1 255 0
1 255 0
1 255 0
1 255 0
1 255 0
1 255 0
1 255 0
1 255 0
1 255 0
1 255 0
1 255 0
1 255 0
1 255 0
1 255 0
1 255 0
1 255 0
1 255 0
1 255 0
1 255 0
1 255 0
1 255 0
1 255 0
1 255 0
1 255 0
1 255 0
1 255 0
1 255 0
1 255 0
1 255 0
1 255 0
1 255 0
1 255 0
1 255 0
1 255 0
1 255 0
1 255 0
1 255 0
1 255 0
1 255 0
1 255 0
1 255 0
1 255 0
1 255 0
1 255 0
1 255 0
1 255 0
1 255 0
2 255 0
2 255 0
2 255 0
2 255 0
2 255 0
2 255 0
2 255 0
2 255 0
2 255 0
2 255 0
2 255 0
2 255 0
2 255 0
2 255 0
2 255 0
2 255 0
2 255 0
2 255 0
2 255 0
2 255 0
2 255 0
2 255 0
2 255 0
2 255 0
2 255 0
2 255 0
2 255 0
2 255 0
2 255 0
2 255 0
2 255 0
2 255 0
2 255 0
2 255 0
2 255 0
2 255 0
2 255 0
2 255 0
2 255 0
2 255 0
2 255 0
2 255 0
2 255 0
2 255 0
2 255 0
2 255 0
2 255 0
2 255 0
2 255 0
2 255 0
2 255 0
2 255 0
2 255 0
2 255 0
2 255 0
2 255 0
2 255 0
2 255 0
2 255 0
2 255 0
2 255 0
3 255 0
3 255 0
3 255 0
3 255 0
3 255 0
3 255 0
3 255 0
3 255 0
3 255 0
3 255 0
3 255 0
3 255 0
3 255 0
3 255 0
3 255 0
0 255 0
0 255 0
0 255 0
0 255 0
0 255 0
0 255 0
0 255 0
0 255 0
0 255 0
0 255 0
0 255 0
0 255 0
0 255 0
0 255 0
0 255 0
0 255 0
0 255 0
0 255 0
0 255 0
0 255 0
0 255 0
0 255 0
0 255 0
0 255 0
0 255 0
0 255 0
0 255 0
0 255 0
0 255 0
0 255 0
0 255 0
0 255 0
0 255 0
0 255 0
0 255 0
0 255 0
0 255 0
0 255 0
0 255 0
0 255 0
0 255 0
0 255 0
0 255 0
0 255 0
0 255 0
0 255 0
0 255 0
0 255 0
0 255 0
0 255 0
0 255 0
0 255 0
0 255 0
0 255 0
0 255 0
0 255 0
0 255 0
0 255 0
0 255 0
0 255 0
0 255 0
0 255 0
0 255 0
0 255 0
0 255 0
0 255 0
0 255 0
0 255 0
0 255 0
0 255 0
0 255 0
0 255 0
0 255 0
0 255 0
0 255 0
0 255 0
0 255 0
0 255 0
0 255 0
0 255 0
0 255 0
0 255 0
0 255 0
0 255 0
0 255 0
0 255 0
0 255 0
0 255 0
0 255 0
0 255 0
0 255 0
0 255 0
0 255 0
0 255 0
0 255 0
0 255 0
0 255 0
0 255 0
0 255 0
0 255 0
0 255 0
0 255 0
0 255 0
0 255 0
0 255 0
0 255 0
0 255 0
0 255 0
0 255 0
0 255 0
0 255 0
0 255 0
0 255 0
0 255 0
0 255 0
0 255 0
0 255 0
0 255 0
0 255 0
0 255 0
0 255 0
0 255 0
0 255 0
0 255 0
0 255 0
0 255 0
0 255 0
0 255 0
0 255 0
0 255 0
0 255 0
0 255 0
0 255 0
0 255 0
0 255 0
0 255 0
0 255 0
0 255 0
0 255 0
0 255 0
0 255 0
0 255 0
0 255 0
0 255 0
0 255 0
0 255 0
0 255 0
0 255 0
0 255 0
0 255 0
0 255 0
0 255 0
0 255 0
0 255 0
0 255 0
0 255 0
0 255 0
0 255 0
0 255 0
0 255 0
0 255 0
0 255 0
0 255 0
0 255 0
0 255 0
0 255 0
0 255 0
0 255 0
0 255 0
0 255 0
0 255 0
0 255 0
0 255 0
0 255 0
0 255 0
0 255 0
0 255 0
0 255 0
0 255 0
0 255 0
0 255 0
0 255 0
0 255 0
0 255 0
0 255 0
0 255 0
0 255 0
0 255 0
0 255 0
0 255 0
0 255 0
0 255 0
0 255 0
0 255 0
0 255 0
0 255 0
0 255 0
0 255 0
0 255 0
0 255 0
0 255 0
0 255 0
0 255 0
0 255 0
0 255 0
0 255 0
0 255 0
0 255 0
0 255 0
0 255 0
0 255 0
0 255 0
0 255 0
0 255 0
0 255 0
0 255 0
0 255 0
0 255 0
0 255 0
0 255 0
0 255 0
0 255 0
0 255 0
0 255 0
0 255 0
0 255 0
0 255 0
0 255 0
0 255 0
0 255 0
0 255 0
0 255 0
0 255 0
0 255 0
0 255 0
0 255 0
0 255 0
0 255 0
0 255 0
0 255 0
0 255 0
0 255 0
0 255 0
0 255 0
0 255 0
0 255 0
0 255 0
0 255 0
0 255 0
0 255 0
0 255 0
0 255 0
0 255 0
0 255 0
0 255 0
0 255 0
0 255 0
0 255 0
0 255 0
0 255 0
0 255 0
0 255 0
0 255 0
1 255 0
1 255 0
1 255 0
1 255 0
1 255 0
1 255 0
1 255 0
1 255 0
1 255 0
1 255 0
1 255 0
1 255 0
1 255 0
1 255 0
1 255 0
1 255 0
1 255 0
1 255 0
1 255 0
1 255 0
1 255 0
1 255 0
1 255 0
1 255 0
1 255 0
1 255 0
1 255 0
1 255 0
1 255 0
1 255 0
1 255 0
1 255 0
1 255 0
1 255 0
1 255 0
1 255 0
1 255 0
1 255 0
1 255 0
1 255 0
1 255 0
1 255 0
1 255 0
1 255 0
1 255 0
1 255 0
1 255 0
1 255 0
1 255 0
1 255 0
1 255 0
1 255 0
1 255 0
1 255 0
1 255 0
1 255 0
1 255 0
1 255 0
1 255 0
1 255 0
1 255 0
1 255 0
1 255 0
2 255 0
2 255 0
2 255 0
2 255 0
2 255 0
2 255 0
2 255 0
2 255 0
2 255 0
2 255 0
2 255 0
2 255 0
2 255 0
2 255 0
2 255 0
2 255 0
2 255 0
2 255 0
2 255 0
2 255 0
2 255 0
2 255 0
2 255 0
2 255 0
2 255 0
2 255 0
2 255 0
2 255 0
2 255 0
2 255 0
2 255 0
2 255 0
2 255 0
2 255 0
2 255 0
2 255 0
2 255 0
2 255 0
2 255 0
2 255 0
2 255 0
2 255 0
2 255 0
2 255 0
2 255 0
2 255 0
2 255 0
2 255 0
2 255 0
2 255 0
2 255 0
2 255 0
2 255 0
2 255 0
2 255 0
2 255 0
2 255 0
2 255 0
2 255 0
2 255 0
2 255 0
3 255 0
3 255 0
3 255 0
3 255 0
3 255 0
3 255 0
3 255 0
3 255 0
3 255 0
3 255 0
3 255 0
3 255 0
3 255 0
0 255 0
0 255 0
0 255 0
0 255 0
0 255 0
0 255 0
0 255 0
0 255 0
0 255 0
0 255 0
0 255 0
0 255 0
0 255 0
0 255 0
0 255 0
0 255 0
0 255 0
0 255 0
0 255 0
0 255 0
0 255 0
0 255 0
0 255 0
0 255 0
0 255 0
0 255 0
0 255 0
0 255 0
0 255 0
0 255 0
0 255 0
0 255 0
0 255 0
0 255 0
0 255 0
0 255 0
0 255 0
0 255 0
0 255 0
0 255 0
0 255 0
0 255 0
0 255 0
0 255 0
0 255 0
0 255 0
0 255 0
0 255 0
0 255 0
0 255 0
0 255 0
0 255 0
0 255 0
0 255 0
0 255 0
0 255 0
0 255 0
0 255 0
0 255 0
0 255 0
0 255 0
0 255 0
0 255 0
0 255 0
0 255 0
0 255 0
0 255 0
0 255 0
0 255 0
0 255 0
0 255 0
0 255 0
0 255 0
0 255 0
0 255 0
0 255 0
0 255 0
0 255 0
0 255 0
0 255 0
0 255 0
0 255 0
0 255 0
0 255 0
0 255 0
0 255 0
0 255 0
0 255 0
0 255 0
0 255 0
0 255 0
0 255 0
0 255 0
0 255 0
0 255 0
0 255 0
0 255 0
0 255 0
0 255 0
0 255 0
0 255 0
0 255 0
0 255 0
0 255 0
0 255 0
0 255 0
0 255 0
0 255 0
0 255 0
0 255 0
0 255 0
0 255 0
0 255 0
0 255 0
0 255 0
0 255 0
0 255 0
0 255 0
0 255 0
0 255 0
0 255 0
0 255 0
0 255 0
0 255 0
0 255 0
0 255 0
0 255 0
0 255 0
0 255 0
0 255 0
0 255 0
0 255 0
0 255 0
0 255 0
0 255 0
0 255 0
0 255 0
0 255 0
0 255 0
0 255 0
0 255 0
0 255 0
0 255 0
0 255 0
0 255 0
0 255 0
0 255 0
0 255 0
0 255 0
0 255 0
0 255 0
0 255 0
0 255 0
0 255 0
0 255 0
0 255 0
0 255 0
0 255 0
0 255 0
0 255 0
0 255 0
0 255 0
0 255 0
0 255 0
0 255 0
0 255 0
0 255 0
0 255 0
0 255 0
0 255 0
0 255 0
0 255 0
0 255 0
0 255 0
0 255 0
0 255 0
0 255 0
0 255 0
0 255 0
0 255 0
0 255 0
0 255 0
0 255 0
0 255 0
0 255 0
0 255 0
0 255 0
0 255 0
0 255 0
0 255 0
0 255 0
0 255 0
0 255 0
0 255 0
0 255 0
0 255 0
0 255 0
0 255 0
0 255 0
0 255 0
0 255 0
0 255 0
0 255 0
0 255 0
0 255 0
0 255 0
0 255 0
0 255 0
0 255 0
0 255 0
0 255 0
0 255 0
0 255 0
0 255 0
0 255 0
0 255 0
0 255 0
0 255 0
0 255 0
0 255 0
0 255 0
0 255 0
0 255 0
0 255 0
0 255 0
0 255 0
0 255 0
0 255 0
0 255 0
0 255 0
0 255 0
0 255 0
0 255 0
0 255 0
0 255 0
0 255 0
0 255 0
0 255 0
0 255 0
0 255 0
0 255 0
0 255 0
0 255 0
0 255 0
0 255 0
0 255 0
0 255 0
0 255 0
0 255 0
0 255 0
0 255 0
0 255 0
0 255 0
0 255 0
0 255 0
0 255 0
0 255 0
0 255 0
0 255 0
0 255 0
0 255 0
0 255 0
0 255 0
0 255 0
1 255 0
1 255 0
1 255 0
1 255 0
1 255 0
1 255 0
1 255 0
1 255 0
1 255 0
1 255 0
1 255 0
1 255 0
1 255 0
1 255 0
1 255 0
1 255 0
1 255 0
1 255 0
1 255 0
1 255 0
1 255 0
1 255 0
1 255 0
1 255 0
1 255 0
1 255 0
1 255 0
1 255 0
1 255 0
1 255 0
1 255 0
1 255 0
1 255 0
1 255 0
1 255 0
1 255 0
1 255 0
1 255 0
1 255 0
1 255 0
1 255 0
1 255 0
1 255 0
1 255 0
1 255 0
1 255 0
1 255 0
1 255 0
1 255 0
1 255 0
1 255 0
1 255 0
1 255 0
1 255 0
1 255 0
1 255 0
1 255 0
1 255 0
1 255 0
1 255 0
1 255 0
1 255 0
1 255 0
2 255 0
2 255 0
2 255 0
2 255 0
2 255 0
2 255 0
2 255 0
2 255 0
2 255 0
2 255 0
2 255 0
2 255 0
2 255 0
2 255 0
2 255 0
2 255 0
2 255 0
2 255 0
2 255 0
2 255 0
2 255 0
2 255 0
2 255 0
2 255 0
2 255 0
2 255 0
2 255 0
2 255 0
2 255 0
2 255 0
2 255 0
2 255 0
2 255 0
2 255 0
2 255 0
2 255 0
2 255 0
2 255 0
2 255 0
2 255 0
2 255 0
2 255 0
2 255 0
2 255 0
2 255 0
2 255 0
2 255 0
2 255 0
2 255 0
2 255 0
2 255 0
2 255 0
2 255 0
2 255 0
2 255 0
2 255 0
2 255 0
2 255 0
2 255 0
2 255 0
2 255 0
2 255 0
3 255 0
3 255 0
3 255 0
3 255 0
3 255 0
3 255 0
3 255 0
3 255 0
3 255 0
3 255 0
3 255 0
0 255 0
0 255 0
0 255 0
0 255 0
0 255 0
0 255 0
0 255 0
0 255 0
0 255 0
0 255 0
0 255 0
0 255 0
0 255 0
0 255 0
0 255 0
0 255 0
0 255 0
0 255 0
0 255 0
0 255 0
0 255 0
0 255 0
0 255 0
0 255 0
0 255 0
0 255 0
0 255 0
0 255 0
0 255 0
0 255 0
0 255 0
0 255 0
0 255 0
0 255 0
0 255 0
0 255 0
0 255 0
0 255 0
0 255 0
0 255 0
0 255 0
0 255 0
0 255 0
0 255 0
0 255 0
0 255 0
0 255 0
0 255 0
0 255 0
0 255 0
0 255 0
0 255 0
0 255 0
0 255 0
0 255 0
0 255 0
0 255 0
0 255 0
0 255 0
0 255 0
0 255 0
0 255 0
0 255 0
0 255 0
0 255 0
0 255 0
0 255 0
0 255 0
0 255 0
0 255 0
0 255 0
0 255 0
0 255 0
0 255 0
0 255 0
0 255 0
0 255 0
0 255 0
0 255 0
0 255 0
0 255 0
0 255 0
0 255 0
0 255 0
0 255 0
0 255 0
0 255 0
0 255 0
0 255 0
0 255 0
0 255 0
0 255 0
0 255 0
0 255 0
0 255 0
0 255 0
0 255 0
0 255 0
0 255 0
0 255 0
0 255 0
0 255 0
0 255 0
0 255 0
0 255 0
0 255 0
0 255 0
0 255 0
0 255 0
0 255 0
0 255 0
0 255 0
0 255 0
0 255 0
0 255 0
0 255 0
0 255 0
0 255 0
0 255 0
0 255 0
0 255 0
0 255 0
0 255 0
0 255 0
0 255 0
0 255 0
0 255 0
0 255 0
0 255 0
0 255 0
0 255 0
0 255 0
0 255 0
0 255 0
0 255 0
0 255 0
0 255 0
0 255 0
0 255 0
0 255 0
0 255 0
0 255 0
0 255 0
0 255 0
0 255 0
0 255 0
0 255 0
0 255 0
0 255 0
0 255 0
0 255 0
0 255 0
0 255 0
0 255 0
0 255 0
0 255 0
0 255 0
0 255 0
0 255 0
0 255 0
0 255 0
0 255 0
0 255 0
0 255 0
0 255 0
0 255 0
0 255 0
0 255 0
0 255 0
0 255 0
0 255 0
0 255 0
0 255 0
0 255 0
0 255 0
0 255 0
0 255 0
0 255 0
0 255 0
0 255 0
0 255 0
0 255 0
0 255 0
0 255 0
0 255 0
0 255 0
0 255 0
0 255 0
0 255 0
0 255 0
0 255 0
0 255 0
0 255 0
0 255 0
0 255 0
0 255 0
0 255 0
0 255 0
0 255 0
0 255 0
0 255 0
0 255 0
0 255 0
0 255 0
0 255 0
0 255 0
0 255 0
0 255 0
0 255 0
0 255 0
0 255 0
0 255 0
0 255 0
0 255 0
0 255 0
0 255 0
0 255 0
0 255 0
0 255 0
0 255 0
0 255 0
0 255 0
0 255 0
0 255 0
0 255 0
0 255 0
0 255 0
0 255 0
0 255 0
0 255 0
0 255 0
0 255 0
0 255 0
0 255 0
0 255 0
0 255 0
0 255 0
0 255 0
0 255 0
0 255 0
0 255 0
0 255 0
0 255 0
0 255 0
0 255 0
0 255 0
0 255 0
0 255 0
0 255 0
0 255 0
0 255 0
0 255 0
0 255 0
0 255 0
0 255 0
0 255 0
0 255 0
0 255 0
0 255 0
0 255 0
0 255 0
0 255 0
0 255 0
0 255 0
0 255 0
1 255 0
1 255 0
1 255 0
1 255 0
1 255 0
1 255 0
1 255 0
1 255 0
1 255 0
1 255 0
1 255 0
1 255 0
1 255 0
1 255 0
1 255 0
1 255 0
1 255 0
1 255 0
1 255 0
1 255 0
1 255 0
1 255 0
1 255 0
1 255 0
1 255 0
1 255 0
1 255 0
1 255 0
1 255 0
1 255 0
1 255 0
1 255 0
1 255 0
1 255 0
1 255 0
1 255 0
1 255 0
1 255 0
1 255 0
1 255 0
1 255 0
1 255 0
1 255 0
1 255 0
1 255 0
1 255 0
1 255 0
1 255 0
1 255 0
1 255 0
1 255 0
1 255 0
1 255 0
1 255 0
1 255 0
1 255 0
1 255 0
1 255 0
1 255 0
1 255 0
1 255 0
1 255 0
1 255 0
1 255 0
2 255 0
2 255 0
2 255 0
2 255 0
2 255 0
2 255 0
2 255 0
2 255 0
2 255 0
2 255 0
2 255 0
2 255 0
2 255 0
2 255 0
2 255 0
2 255 0
2 255 0
2 255 0
2 255 0
2 255 0
2 255 0
2 255 0
2 255 0
2 255 0
2 255 0
2 255 0
2 255 0
2 255 0
2 255 0
2 255 0
2 255 0
2 255 0
2 255 0
2 255 0
2 255 0
2 255 0
2 255 0
2 255 0
2 255 0
2 255 0
2 255 0
2 255 0
2 255 0
2 255 0
2 255 0
2 255 0
2 255 0
2 255 0
2 255 0
2 255 0
2 255 0
2 255 0
2 255 0
2 255 0
2 255 0
2 255 0
2 255 0
2 255 0
2 255 0
2 255 0
2 255 0
2 255 0
2 255 0
3 255 0
3 255 0
3 255 0
3 255 0
3 255 0
3 255 0
3 255 0
3 255 0
0 255 0
0 255 0
0 255 0
0 255 0
0 255 0
0 255 0
0 255 0
0 255 0
0 255 0
0 255 0
0 255 0
0 255 0
0 255 0
0 255 0
0 255 0
0 255 0
0 255 0
0 255 0
0 255 0
0 255 0
0 255 0
0 255 0
0 255 0
0 255 0
0 255 0
0 255 0
0 255 0
0 255 0
0 255 0
0 255 0
0 255 0
0 255 0
0 255 0
0 255 0
0 255 0
0 255 0
0 255 0
0 255 0
0 255 0
0 255 0
0 255 0
0 255 0
0 255 0
0 255 0
0 255 0
0 255 0
0 255 0
0 255 0
0 255 0
0 255 0
0 255 0
0 255 0
0 255 0
0 255 0
0 255 0
0 255 0
0 255 0
0 255 0
0 255 0
0 255 0
0 255 0
0 255 0
0 255 0
0 255 0
0 255 0
0 255 0
0 255 0
0 255 0
0 255 0
0 255 0
0 255 0
0 255 0
0 255 0
0 255 0
0 255 0
0 255 0
0 255 0
0 255 0
0 255 0
0 255 0
0 255 0
0 255 0
0 255 0
0 255 0
0 255 0
0 255 0
0 255 0
0 255 0
0 255 0
0 255 0
0 255 0
0 255 0
0 255 0
0 255 0
0 255 0
0 255 0
0 255 0
0 255 0
0 255 0
0 255 0
0 255 0
0 255 0
0 255 0
0 255 0
0 255 0
0 255 0
0 255 0
0 255 0
0 255 0
0 255 0
0 255 0
0 255 0
0 255 0
0 255 0
0 255 0
0 255 0
0 255 0
0 255 0
0 255 0
0 255 0
0 255 0
0 255 0
0 255 0
0 255 0
0 255 0
0 255 0
0 255 0
0 255 0
0 255 0
0 255 0
0 255 0
0 255 0
0 255 0
0 255 0
0 255 0
0 255 0
0 255 0
0 255 0
0 255 0
0 255 0
0 255 0
0 255 0
0 255 0
0 255 0
0 255 0
0 255 0
0 255 0
0 255 0
0 255 0
0 255 0
0 255 0
0 255 0
0 255 0
0 255 0
0 255 0
0 255 0
0 255 0
0 255 0
0 255 0
0 255 0
0 255 0
0 255 0
0 255 0
0 255 0
0 255 0
0 255 0
0 255 0
0 255 0
0 255 0
0 255 0
0 255 0
0 255 0
0 255 0
0 255 0
0 255 0
0 255 0
0 255 0
0 255 0
0 255 0
0 255 0
0 255 0
0 255 0
0 255 0
0 255 0
0 255 0
0 255 0
0 255 0
0 255 0
0 255 0
0 255 0
0 255 0
0 255 0
0 255 0
0 255 0
0 255 0
0 255 0
0 255 0
0 255 0
0 255 0
0 255 0
0 255 0
0 255 0
0 255 0
0 255 0
0 255 0
0 255 0
0 255 0
0 255 0
0 255 0
0 255 0
0 255 0
0 255 0
0 255 0
0 255 0
0 255 0
0 255 0
0 255 0
0 255 0
0 255 0
0 255 0
0 255 0
0 255 0
0 255 0
0 255 0
0 255 0
0 255 0
0 255 0
0 255 0
0 255 0
0 255 0
0 255 0
0 255 0
0 255 0
0 255 0
0 255 0
0 255 0
0 255 0
0 255 0
0 255 0
0 255 0
0 255 0
0 255 0
0 255 0
0 255 0
0 255 0
0 255 0
0 255 0
0 255 0
0 255 0
0 255 0
0 255 0
0 255 0
0 255 0
0 255 0
0 255 0
0 255 0
0 255 0
0 255 0
0 255 0
0 255 0
0 255 0
0 255 0
0 255 0
0 255 0
0 255 0
1 255 0
1 255 0
1 255 0
1 255 0
1 255 0
1 255 0
1 255 0
1 255 0
1 255 0
1 255 0
1 255 0
1 255 0
1 255 0
1 255 0
1 255 0
1 255 0
1 255 0
1 255 0
1 255 0
1 255 0
1 255 0
1 255 0
1 255 0
1 255 0
1 255 0
1 255 0
1 255 0
1 255 0
1 255 0
1 255 0
1 255 0
1 255 0
1 255 0
1 255 0
1 255 0
1 255 0
1 255 0
1 255 0
1 255 0
1 255 0
1 255 0
1 255 0
1 255 0
1 255 0
1 255 0
1 255 0
1 255 0
1 255 0
1 255 0
1 255 0
1 255 0
1 255 0
1 255 0
1 255 0
1 255 0
1 255 0
1 255 0
1 255 0
1 255 0
1 255 0
1 255 0
1 255 0
1 255 0
1 255 0
1 255 0
2 255 0
2 255 0
2 255 0
2 255 0
2 255 0
2 255 0
2 255 0
2 255 0
2 255 0
2 255 0
2 255 0
2 255 0
2 255 0
2 255 0
2 255 0
2 255 0
2 255 0
2 255 0
2 255 0
2 255 0
2 255 0
2 255 0
2 255 0
2 255 0
2 255 0
2 255 0
2 255 0
2 255 0
2 255 0
2 255 0
2 255 0
2 255 0
2 255 0
2 255 0
2 255 0
2 255 0
2 255 0
2 255 0
2 255 0
2 255 0
2 255 0
2 255 0
2 255 0
2 255 0
2 255 0
2 255 0
2 255 0
2 255 0
2 255 0
2 255 0
2 255 0
2 255 0
2 255 0
2 255 0
2 255 0
2 255 0
2 255 0
2 255 0
2 255 0
2 255 0
2 255 0
2 255 0
2 255 0
2 255 0
3 255 0
3 255 0
3 255 0
3 255 0
3 255 0
3 255 0
0 255 0
0 255 0
0 255 0
0 255 0
0 255 0
0 255 0
0 255 0
0 255 0
0 255 0
0 255 0
0 255 0
0 255 0
0 255 0
0 255 0
0 255 0
0 255 0
0 255 0
0 255 0
0 255 0
0 255 0
0 255 0
0 255 0
0 255 0
0 255 0
0 255 0
0 255 0
0 255 0
0 255 0
0 255 0
0 255 0
0 255 0
0 255 0
0 255 0
0 255 0
0 255 0
0 255 0
0 255 0
0 255 0
0 255 0
0 255 0
0 255 0
0 255 0
0 255 0
0 255 0
0 255 0
0 255 0
0 255 0
0 255 0
0 255 0
0 255 0
0 255 0
0 255 0
0 255 0
0 255 0
0 255 0
0 255 0
0 255 0
0 255 0
0 255 0
0 255 0
0 255 0
0 255 0
0 255 0
0 255 0
0 255 0
0 255 0
0 255 0
0 255 0
0 255 0
0 255 0
0 255 0
0 255 0
0 255 0
0 255 0
0 255 0
0 255 0
0 255 0
0 255 0
0 255 0
0 255 0
0 255 0
0 255 0
0 255 0
0 255 0
0 255 0
0 255 0
0 255 0
0 255 0
0 255 0
0 255 0
0 255 0
0 255 0
0 255 0
0 255 0
0 255 0
0 255 0
0 255 0
0 255 0
0 255 0
0 255 0
0 255 0
0 255 0
0 255 0
0 255 0
0 255 0
0 255 0
0 255 0
0 255 0
0 255 0
0 255 0
0 255 0
0 255 0
0 255 0
0 255 0
0 255 0
0 255 0
0 255 0
0 255 0
0 255 0
0 255 0
0 255 0
0 255 0
0 255 0
0 255 0
0 255 0
0 255 0
0 255 0
0 255 0
0 255 0
0 255 0
0 255 0
0 255 0
0 255 0
0 255 0
0 255 0
0 255 0
0 255 0
0 255 0
0 255 0
0 255 0
0 255 0
0 255 0
0 255 0
0 255 0
0 255 0
0 255 0
0 255 0
0 255 0
0 255 0
0 255 0
0 255 0
0 255 0
0 255 0
0 255 0
0 255 0
0 255 0
0 255 0
0 255 0
0 255 0
0 255 0
0 255 0
0 255 0
0 255 0
0 255 0
0 255 0
0 255 0
0 255 0
0 255 0
0 255 0
0 255 0
0 255 0
0 255 0
0 255 0
0 255 0
0 255 0
0 255 0
0 255 0
0 255 0
0 255 0
0 255 0
0 255 0
0 255 0
0 255 0
0 255 0
0 255 0
0 255 0
0 255 0
0 255 0
0 255 0
0 255 0
0 255 0
0 255 0
0 255 0
0 255 0
0 255 0
0 255 0
0 255 0
0 255 0
0 255 0
0 255 0
0 255 0
0 255 0
0 255 0
0 255 0
0 255 0
0 255 0
0 255 0
0 255 0
0 255 0
0 255 0
0 255 0
0 255 0
0 255 0
0 255 0
0 255 0
0 255 0
0 255 0
0 255 0
0 255 0
0 255 0
0 255 0
0 255 0
0 255 0
0 255 0
0 255 0
0 255 0
0 255 0
0 255 0
0 255 0
0 255 0
0 255 0
0 255 0
0 255 0
0 255 0
0 255 0
0 255 0
0 255 0
0 255 0
0 255 0
0 255 0
0 255 0
0 255 0
0 255 0
0 255 0
0 255 0
0 255 0
0 255 0
0 255 0
0 255 0
0 255 0
0 255 0
0 255 0
0 255 0
0 255 0
0 255 0
0 255 0
0 255 0
0 255 0
0 255 0
0 255 0
0 255 0
0 255 0
0 255 0
0 255 0
0 255 0
0 255 0
1 255 0
1 255 0
1 255 0
1 255 0
1 255 0
1 255 0
1 255 0
1 255 0
1 255 0
1 255 0
1 255 0
1 255 0
1 255 0
1 255 0
1 255 0
1 255 0
1 255 0
1 255 0
1 255 0
1 255 0
1 255 0
1 255 0
1 255 0
1 255 0
1 255 0
1 255 0
1 255 0
1 255 0
1 255 0
1 255 0
1 255 0
1 255 0
1 255 0
1 255 0
1 255 0
1 255 0
1 255 0
1 255 0
1 255 0
1 255 0
1 255 0
1 255 0
1 255 0
1 255 0
1 255 0
1 255 0
1 255 0
1 255 0
1 255 0
1 255 0
1 255 0
1 255 0
1 255 0
1 255 0
1 255 0
1 255 0
1 255 0
1 255 0
1 255 0
1 255 0
1 255 0
1 255 0
1 255 0
1 255 0
1 255 0
1 255 0
2 255 0
2 255 0
2 255 0
2 255 0
2 255 0
2 255 0
2 255 0
2 255 0
2 255 0
2 255 0
2 255 0
2 255 0
2 255 0
2 255 0
2 255 0
2 255 0
2 255 0
2 255 0
2 255 0
2 255 0
2 255 0
2 255 0
2 255 0
2 255 0
2 255 0
2 255 0
2 255 0
2 255 0
2 255 0
2 255 0
2 255 0
2 255 0
2 255 0
2 255 0
2 255 0
2 255 0
2 255 0
2 255 0
2 255 0
2 255 0
2 255 0
2 255 0
2 255 0
2 255 0
2 255 0
2 255 0
2 255 0
2 255 0
2 255 0
2 255 0
2 255 0
2 255 0
2 255 0
2 255 0
2 255 0
2 255 0
2 255 0
2 255 0
2 255 0
2 255 0
2 255 0
2 255 0
2 255 0
2 255 0
3 255 0
3 255 0
3 255 0
3 255 0
0 255 0
0 255 0
0 255 0
0 255 0
0 255 0
0 255 0
0 255 0
0 255 0
0 255 0
0 255 0
0 255 0
0 255 0
0 255 0
0 255 0
0 255 0
0 255 0
0 255 0
0 255 0
0 255 0
0 255 0
0 255 0
0 255 0
0 255 0
0 255 0
0 255 0
0 255 0
0 255 0
0 255 0
0 255 0
0 255 0
0 255 0
0 255 0
0 255 0
0 255 0
0 255 0
0 255 0
0 255 0
0 255 0
0 255 0
0 255 0
0 255 0
0 255 0
0 255 0
0 255 0
0 255 0
0 255 0
0 255 0
0 255 0
0 255 0
0 255 0
0 255 0
0 255 0
0 255 0
0 255 0
0 255 0
0 255 0
0 255 0
0 255 0
0 255 0
0 255 0
0 255 0
0 255 0
0 255 0
0 255 0
0 255 0
0 255 0
0 255 0
0 255 0
0 255 0
0 255 0
0 255 0
0 255 0
0 255 0
0 255 0
0 255 0
0 255 0
0 255 0
0 255 0
0 255 0
0 255 0
0 255 0
0 255 0
0 255 0
0 255 0
0 255 0
0 255 0
0 255 0
0 255 0
0 255 0
0 255 0
0 255 0
0 255 0
0 255 0
0 255 0
0 255 0
0 255 0
0 255 0
0 255 0
0 255 0
0 255 0
0 255 0
0 255 0
0 255 0
0 255 0
0 255 0
0 255 0
0 255 0
0 255 0
0 255 0
0 255 0
0 255 0
0 255 0
0 255 0
0 255 0
0 255 0
0 255 0
0 255 0
0 255 0
0 255 0
0 255 0
0 255 0
0 255 0
0 255 0
0 255 0
0 255 0
0 255 0
0 255 0
0 255 0
0 255 0
0 255 0
0 255 0
0 255 0
0 255 0
0 255 0
0 255 0
0 255 0
0 255 0
0 255 0
0 255 0
0 255 0
0 255 0
0 255 0
0 255 0
0 255 0
0 255 0
0 255 0
0 255 0
0 255 0
0 255 0
0 255 0
0 255 0
0 255 0
0 255 0
0 255 0
0 255 0
0 255 0
0 255 0
0 255 0
0 255 0
0 255 0
0 255 0
0 255 0
0 255 0
0 255 0
0 255 0
0 255 0
0 255 0
0 255 0
0 255 0
0 255 0
0 255 0
0 255 0
0 255 0
0 255 0
0 255 0
0 255 0
0 255 0
0 255 0
0 255 0
0 255 0
0 255 0
0 255 0
0 255 0
0 255 0
0 255 0
0 255 0
0 255 0
0 255 0
0 255 0
0 255 0
0 255 0
0 255 0
0 255 0
0 255 0
0 255 0
0 255 0
0 255 0
0 255 0
0 255 0
0 255 0
0 255 0
0 255 0
0 255 0
0 255 0
0 255 0
0 255 0
0 255 0
0 255 0
0 255 0
0 255 0
0 255 0
0 255 0
0 255 0
0 255 0
0 255 0
0 255 0
0 255 0
0 255 0
0 255 0
0 255 0
0 255 0
0 255 0
0 255 0
0 255 0
0 255 0
0 255 0
0 255 0
0 255 0
0 255 0
0 255 0
0 255 0
0 255 0
0 255 0
0 255 0
0 255 0
0 255 0
0 255 0
0 255 0
0 255 0
0 255 0
0 255 0
0 255 0
0 255 0
0 255 0
0 255 0
0 255 0
0 255 0
0 255 0
0 255 0
0 255 0
0 255 0
0 255 0
0 255 0
0 255 0
0 255 0
0 255 0
0 255 0
0 255 0
0 255 0
0 255 0
0 255 0
0 255 0
0 255 0
0 255 0
0 255 0
0 255 0
0 255 0
1 255 0
1 255 0
1 255 0
1 255 0
1 255 0
1 255 0
1 255 0
1 255 0
1 255 0
1 255 0
1 255 0
1 255 0
1 255 0
1 255 0
1 255 0
1 255 0
1 255 0
1 255 0
1 255 0
1 255 0
1 255 0
1 255 0
1 255 0
1 255 0
1 255 0
1 255 0
1 255 0
1 255 0
1 255 0
1 255 0
1 255 0
1 255 0
1 255 0
1 255 0
1 255 0
1 255 0
1 255 0
1 255 0
1 255 0
1 255 0
1 255 0
1 255 0
1 255 0
1 255 0
1 255 0
1 255 0
1 255 0
1 255 0
1 255 0
1 255 0
1 255 0
1 255 0
1 255 0
1 255 0
1 255 0
1 255 0
1 255 0
1 255 0
1 255 0
1 255 0
1 255 0
1 255 0
1 255 0
1 255 0
1 255 0
1 255 0
2 255 0
2 255 0
2 255 0
2 255 0
2 255 0
2 255 0
2 255 0
2 255 0
2 255 0
2 255 0
2 255 0
2 255 0
2 255 0
2 255 0
2 255 0
2 255 0
2 255 0
2 255 0
2 255 0
2 255 0
2 255 0
2 255 0
2 255 0
2 255 0
2 255 0
2 255 0
2 255 0
2 255 0
2 255 0
2 255 0
2 255 0
2 255 0
2 255 0
2 255 0
2 255 0
2 255 0
2 255 0
2 255 0
2 255 0
2 255 0
2 255 0
2 255 0
2 255 0
2 255 0
2 255 0
2 255 0
2 255 0
2 255 0
2 255 0
2 255 0
2 255 0
2 255 0
2 255 0
2 255 0
2 255 0
2 255 0
2 255 0
2 255 0
2 255 0
2 255 0
2 255 0
2 255 0
2 255 0
2 255 0
2 255 0
2 255 0
3 255 0
0 255 0
0 255 0
0 255 0
0 255 0
0 255 0
0 255 0
0 255 0
0 255 0
0 255 0
0 255 0
0 255 0
0 255 0
0 255 0
0 255 0
0 255 0
0 255 0
0 255 0
0 255 0
0 255 0
0 255 0
0 255 0
0 255 0
0 255 0
0 255 0
0 255 0
0 255 0
0 255 0
0 255 0
0 255 0
0 255 0
0 255 0
0 255 0
0 255 0
0 255 0
0 255 0
0 255 0
0 255 0
0 255 0
0 255 0
0 255 0
0 255 0
0 255 0
0 255 0
0 255 0
0 255 0
0 255 0
0 255 0
0 255 0
0 255 0
0 255 0
0 255 0
0 255 0
0 255 0
0 255 0
0 255 0
0 255 0
0 255 0
0 255 0
0 255 0
0 255 0
0 255 0
0 255 0
0 255 0
0 255 0
0 255 0
0 255 0
0 255 0
0 255 0
0 255 0
0 255 0
0 255 0
0 255 0
0 255 0
0 255 0
0 255 0
0 255 0
0 255 0
0 255 0
0 255 0
0 255 0
0 255 0
0 255 0
0 255 0
0 255 0
0 255 0
0 255 0
0 255 0
0 255 0
0 255 0
0 255 0
0 255 0
0 255 0
0 255 0
0 255 0
0 255 0
0 255 0
0 255 0
0 255 0
0 255 0
0 255 0
0 255 0
0 255 0
0 255 0
0 255 0
0 255 0
0 255 0
0 255 0
0 255 0
0 255 0
0 255 0
0 255 0
0 255 0
0 255 0
0 255 0
0 255 0
0 255 0
0 255 0
0 255 0
0 255 0
0 255 0
0 255 0
0 255 0
0 255 0
0 255 0
0 255 0
0 255 0
0 255 0
0 255 0
0 255 0
0 255 0
0 255 0
0 255 0
0 255 0
0 255 0
0 255 0
0 255 0
0 255 0
0 255 0
0 255 0
0 255 0
0 255 0
0 255 0
0 255 0
0 255 0
0 255 0
0 255 0
0 255 0
0 255 0
0 255 0
0 255 0
0 255 0
0 255 0
0 255 0
0 255 0
0 255 0
0 255 0
0 255 0
0 255 0
0 255 0
0 255 0
0 255 0
0 255 0
0 255 0
0 255 0
0 255 0
0 255 0
0 255 0
0 255 0
0 255 0
0 255 0
0 255 0
0 255 0
0 255 0
0 255 0
0 255 0
0 255 0
0 255 0
0 255 0
0 255 0
0 255 0
0 255 0
0 255 0
0 255 0
0 255 0
0 255 0
0 255 0
0 255 0
0 255 0
0 255 0
0 255 0
0 255 0
0 255 0
0 255 0
0 255 0
0 255 0
0 255 0
0 255 0
0 255 0
0 255 0
0 255 0
0 255 0
0 255 0
0 255 0
0 255 0
0 255 0
0 255 0
0 255 0
0 255 0
0 255 0
0 255 0
0 255 0
0 255 0
0 255 0
0 255 0
0 255 0
0 255 0
0 255 0
0 255 0
0 255 0
0 255 0
0 255 0
0 255 0
0 255 0
0 255 0
0 255 0
0 255 0
0 255 0
0 255 0
0 255 0
0 255 0
0 255 0
0 255 0
0 255 0
0 255 0
0 255 0
0 255 0
0 255 0
0 255 0
0 255 0
0 255 0
0 255 0
0 255 0
0 255 0
0 255 0
0 255 0
0 255 0
0 255 0
0 255 0
0 255 0
0 255 0
0 255 0
0 255 0
0 255 0
0 255 0
0 255 0
0 255 0
0 255 0
0 255 0
0 255 0
0 255 0
0 255 0
0 255 0
0 255 0
0 255 0
0 255 0
0 255 0
0 255 0
0 255 0
1 255 0
1 255 0
1 255 0
1 255 0
1 255 0
1 255 0
1 255 0
1 255 0
1 255 0
1 255 0
1 255 0
1 255 0
1 255 0
1 255 0
1 255 0
1 255 0
1 255 0
1 255 0
1 255 0
1 255 0
1 255 0
1 255 0
1 255 0
1 255 0
1 255 0
1 255 0
1 255 0
1 255 0
1 255 0
1 255 0
1 255 0
1 255 0
1 255 0
1 255 0
1 255 0
1 255 0
1 255 0
1 255 0
1 255 0
1 255 0
1 255 0
1 255 0
1 255 0
1 255 0
1 255 0
1 255 0
1 255 0
1 255 0
1 255 0
1 255 0
1 255 0
1 255 0
1 255 0
1 255 0
1 255 0
1 255 0
1 255 0
1 255 0
1 255 0
1 255 0
1 255 0
1 255 0
1 255 0
1 255 0
1 255 0
1 255 0
1 255 0
2 255 0
2 255 0
2 255 0
2 255 0
2 255 0
2 255 0
2 255 0
2 255 0
2 255 0
2 255 0
2 255 0
2 255 0
2 255 0
2 255 0
2 255 0
2 255 0
2 255 0
2 255 0
2 255 0
2 255 0
2 255 0
2 255 0
2 255 0
2 255 0
2 255 0
2 255 0
2 255 0
2 255 0
2 255 0
2 255 0
2 255 0
2 255 0
2 255 0
2 255 0
2 255 0
2 255 0
2 255 0
2 255 0
2 255 0
2 255 0
2 255 0
2 255 0
2 255 0
2 255 0
2 255 0
2 255 0
2 255 0
2 255 0
2 255 0
2 255 0
2 255 0
2 255 0
2 255 0
2 255 0
2 255 0
2 255 0
2 255 0
2 255 0
2 255 0
2 255 0
2 255 0
2 255 0
2 255 0
2 255 0
2 255 0
0 255 0
0 255 0
0 255 0
0 255 0
0 255 0
0 255 0
0 255 0
0 255 0
0 255 0
0 255 0
0 255 0
0 255 0
0 255 0
0 255 0
0 255 0
0 255 0
0 255 0
0 255 0
0 255 0
0 255 0
0 255 0
0 255 0
0 255 0
0 255 0
0 255 0
0 255 0
0 255 0
0 255 0
0 255 0
0 255 0
0 255 0
0 255 0
0 255 0
0 255 0
0 255 0
0 255 0
0 255 0
0 255 0
0 255 0
0 255 0
0 255 0
0 255 0
0 255 0
0 255 0
0 255 0
0 255 0
0 255 0
0 255 0
0 255 0
0 255 0
0 255 0
0 255 0
0 255 0
0 255 0
0 255 0
0 255 0
0 255 0
0 255 0
0 255 0
0 255 0
0 255 0
0 255 0
0 255 0
0 255 0
0 255 0
0 255 0
0 255 0
0 255 0
0 255 0
0 255 0
0 255 0
0 255 0
0 255 0
0 255 0
0 255 0
0 255 0
0 255 0
0 255 0
0 255 0
0 255 0
0 255 0
0 255 0
0 255 0
0 255 0
0 255 0
0 255 0
0 255 0
0 255 0
0 255 0
0 255 0
0 255 0
0 255 0
0 255 0
0 255 0
0 255 0
0 255 0
0 255 0
0 255 0
0 255 0
0 255 0
0 255 0
0 255 0
0 255 0
0 255 0
0 255 0
0 255 0
0 255 0
0 255 0
0 255 0
0 255 0
0 255 0
0 255 0
0 255 0
0 255 0
0 255 0
0 255 0
0 255 0
0 255 0
0 255 0
0 255 0
0 255 0
0 255 0
0 255 0
0 255 0
0 255 0
0 255 0
0 255 0
0 255 0
0 255 0
0 255 0
0 255 0
0 255 0
0 255 0
0 255 0
0 255 0
0 255 0
0 255 0
0 255 0
0 255 0
0 255 0
0 255 0
0 255 0
0 255 0
0 255 0
0 255 0
0 255 0
0 255 0
0 255 0
0 255 0
0 255 0
0 255 0
0 255 0
0 255 0
0 255 0
0 255 0
0 255 0
0 255 0
0 255 0
0 255 0
0 255 0
0 255 0
0 255 0
0 255 0
0 255 0
0 255 0
0 255 0
0 255 0
0 255 0
0 255 0
0 255 0
0 255 0
0 255 0
0 255 0
0 255 0
0 255 0
0 255 0
0 255 0
0 255 0
0 255 0
0 255 0
0 255 0
0 255 0
0 255 0
0 255 0
0 255 0
0 255 0
0 255 0
0 255 0
0 255 0
0 255 0
0 255 0
0 255 0
0 255 0
0 255 0
0 255 0
0 255 0
0 255 0
0 255 0
0 255 0
0 255 0
0 255 0
0 255 0
0 255 0
0 255 0
0 255 0
0 255 0
0 255 0
0 255 0
0 255 0
0 255 0
0 255 0
0 255 0
0 255 0
0 255 0
0 255 0
0 255 0
0 255 0
0 255 0
0 255 0
0 255 0
0 255 0
0 255 0
0 255 0
0 255 0
0 255 0
0 255 0
0 255 0
0 255 0
0 255 0
0 255 0
0 255 0
0 255 0
0 255 0
0 255 0
0 255 0
0 255 0
0 255 0
0 255 0
0 255 0
0 255 0
0 255 0
0 255 0
0 255 0
0 255 0
0 255 0
0 255 0
0 255 0
0 255 0
0 255 0
0 255 0
0 255 0
0 255 0
0 255 0
0 255 0
0 255 0
0 255 0
0 255 0
0 255 0
0 255 0
0 255 0
0 255 0
0 255 0
0 255 0
0 255 0
0 255 0
0 255 0
0 255 0
0 255 0
1 255 0
1 255 0
1 255 0
1 255 0
1 255 0
1 255 0
1 255 0
1 255 0
1 255 0
1 255 0
1 255 0
1 255 0
1 255 0
1 255 0
1 255 0
1 255 0
1 255 0
1 255 0
1 255 0
1 255 0
1 255 0
1 255 0
1 255 0
1 255 0
1 255 0
1 255 0
1 255 0
1 255 0
1 255 0
1 255 0
1 255 0
1 255 0
1 255 0
1 255 0
1 255 0
1 255 0
1 255 0
1 255 0
1 255 0
1 255 0
1 255 0
1 255 0
1 255 0
1 255 0
1 255 0
1 255 0
1 255 0
1 255 0
1 255 0
1 255 0
1 255 0
1 255 0
1 255 0
1 255 0
1 255 0
1 255 0
1 255 0
1 255 0
1 255 0
1 255 0
1 255 0
1 255 0
1 255 0
1 255 0
1 255 0
1 255 0
1 255 0
1 255 0
2 255 0
2 255 0
2 255 0
2 255 0
2 255 0
2 255 0
2 255 0
2 255 0
2 255 0
2 255 0
2 255 0
2 255 0
2 255 0
2 255 0
2 255 0
2 255 0
2 255 0
2 255 0
2 255 0
2 255 0
2 255 0
2 255 0
2 255 0
2 255 0
2 255 0
2 255 0
2 255 0
2 255 0
2 255 0
2 255 0
2 255 0
2 255 0
2 255 0
2 255 0
2 255 0
2 255 0
2 255 0
2 255 0
2 255 0
2 255 0
2 255 0
2 255 0
2 255 0
2 255 0
2 255 0
2 255 0
2 255 0
2 255 0
2 255 0
2 255 0
2 255 0
2 255 0
2 255 0
2 255 0
2 255 0
2 255 0
2 255 0
2 255 0
2 255 0
2 255 0
2 255 0
2 255 0
2 255 0
2 255 0
0 255 0
0 255 0
0 255 0
0 255 0
0 255 0
0 255 0
0 255 0
0 255 0
0 255 0
0 255 0
0 255 0
0 255 0
0 255 0
0 255 0
0 255 0
0 255 0
0 255 0
0 255 0
0 255 0
0 255 0
0 255 0
0 255 0
0 255 0
0 255 0
0 255 0
0 255 0
0 255 0
0 255 0
0 255 0
0 255 0
0 255 0
0 255 0
0 255 0
0 255 0
0 255 0
0 255 0
0 255 0
0 255 0
0 255 0
0 255 0
0 255 0
0 255 0
0 255 0
0 255 0
0 255 0
0 255 0
0 255 0
0 255 0
0 255 0
0 255 0
0 255 0
0 255 0
0 255 0
0 255 0
0 255 0
0 255 0
0 255 0
0 255 0
0 255 0
0 255 0
0 255 0
0 255 0
0 255 0
0 255 0
0 255 0
0 255 0
0 255 0
0 255 0
0 255 0
0 255 0
0 255 0
0 255 0
0 255 0
0 255 0
0 255 0
0 255 0
0 255 0
0 255 0
0 255 0
0 255 0
0 255 0
0 255 0
0 255 0
0 255 0
0 255 0
0 255 0
0 255 0
0 255 0
0 255 0
0 255 0
0 255 0
0 255 0
0 255 0
0 255 0
0 255 0
0 255 0
0 255 0
0 255 0
0 255 0
0 255 0
0 255 0
0 255 0
0 255 0
0 255 0
0 255 0
0 255 0
0 255 0
0 255 0
0 255 0
0 255 0
0 255 0
0 255 0
0 255 0
0 255 0
0 255 0
0 255 0
0 255 0
0 255 0
0 255 0
0 255 0
0 255 0
0 255 0
0 255 0
0 255 0
0 255 0
0 255 0
0 255 0
0 255 0
0 255 0
0 255 0
0 255 0
0 255 0
0 255 0
0 255 0
0 255 0
0 255 0
0 255 0
0 255 0
0 255 0
0 255 0
0 255 0
0 255 0
0 255 0
0 255 0
0 255 0
0 255 0
0 255 0
0 255 0
0 255 0
0 255 0
0 255 0
0 255 0
0 255 0
0 255 0
0 255 0
0 255 0
0 255 0
0 255 0
0 255 0
0 255 0
0 255 0
0 255 0
0 255 0
0 255 0
0 255 0
0 255 0
0 255 0
0 255 0
0 255 0
0 255 0
0 255 0
0 255 0
0 255 0
0 255 0
0 255 0
0 255 0
0 255 0
0 255 0
0 255 0
0 255 0
0 255 0
0 255 0
0 255 0
0 255 0
0 255 0
0 255 0
0 255 0
0 255 0
0 255 0
0 255 0
0 255 0
0 255 0
0 255 0
0 255 0
0 255 0
0 255 0
0 255 0
0 255 0
0 255 0
0 255 0
0 255 0
0 255 0
0 255 0
0 255 0
0 255 0
0 255 0
0 255 0
0 255 0
0 255 0
0 255 0
0 255 0
0 255 0
0 255 0
0 255 0
0 255 0
0 255 0
0 255 0
0 255 0
0 255 0
0 255 0
0 255 0
0 255 0
0 255 0
0 255 0
0 255 0
0 255 0
0 255 0
0 255 0
0 255 0
0 255 0
0 255 0
0 255 0
0 255 0
0 255 0
0 255 0
0 255 0
0 255 0
0 255 0
0 255 0
0 255 0
0 255 0
0 255 0
0 255 0
0 255 0
0 255 0
0 255 0
0 255 0
0 255 0
0 255 0
0 255 0
0 255 0
0 255 0
0 255 0
0 255 0
0 255 0
0 255 0
0 255 0
0 255 0
0 255 0
0 255 0
0 255 0
0 255 0
0 255 0
0 255 0
0 255 0
0 255 0
0 255 0
0 255 0
0 255 0
1 255 0
1 255 0
1 255 0
1 255 0
1 255 0
1 255 0
1 255 0
1 255 0
1 255 0
1 255 0
1 255 0
1 255 0
1 255 0
1 255 0
1 255 0
1 255 0
1 255 0
1 255 0
1 255 0
1 255 0
1 255 0
1 255 0
1 255 0
1 255 0
1 255 0
1 255 0
1 255 0
1 255 0
1 255 0
1 255 0
1 255 0
1 255 0
1 255 0
1 255 0
1 255 0
1 255 0
1 255 0
1 255 0
1 255 0
1 255 0
1 255 0
1 255 0
1 255 0
1 255 0
1 255 0
1 255 0
1 255 0
1 255 0
1 255 0
1 255 0
1 255 0
1 255 0
1 255 0
1 255 0
1 255 0
1 255 0
1 255 0
1 255 0
1 255 0
1 255 0
1 255 0
1 255 0
1 255 0
1 255 0
1 255 0
1 255 0
1 255 0
1 255 0
1 255 0
2 255 0
2 255 0
2 255 0
2 255 0
2 255 0
2 255 0
2 255 0
2 255 0
2 255 0
2 255 0
2 255 0
2 255 0
2 255 0
2 255 0
2 255 0
2 255 0
2 255 0
2 255 0
2 255 0
2 255 0
2 255 0
2 255 0
2 255 0
2 255 0
2 255 0
2 255 0
2 255 0
2 255 0
2 255 0
2 255 0
2 255 0
2 255 0
2 255 0
2 255 0
2 255 0
2 255 0
2 255 0
2 255 0
2 255 0
2 255 0
2 255 0
2 255 0
2 255 0
2 255 0
2 255 0
2 255 0
2 255 0
2 255 0
2 255 0
2 255 0
2 255 0
2 255 0
2 255 0
2 255 0
2 255 0
2 255 0
2 255 0
2 255 0
2 255 0
2 255 0
2 255 0
2 255 0
0 255 0
0 255 0
0 255 0
0 255 0
0 255 0
0 255 0
0 255 0
0 255 0
0 255 0
0 255 0
0 255 0
0 255 0
0 255 0
0 255 0
0 255 0
0 255 0
0 255 0
0 255 0
0 255 0
0 255 0
0 255 0
0 255 0
0 255 0
0 255 0
0 255 0
0 255 0
0 255 0
0 255 0
0 255 0
0 255 0
0 255 0
0 255 0
0 255 0
0 255 0
0 255 0
0 255 0
0 255 0
0 255 0
0 255 0
0 255 0
0 255 0
0 255 0
0 255 0
0 255 0
0 255 0
0 255 0
0 255 0
0 255 0
0 255 0
0 255 0
0 255 0
0 255 0
0 255 0
0 255 0
0 255 0
0 255 0
0 255 0
0 255 0
0 255 0
0 255 0
0 255 0
0 255 0
0 255 0
0 255 0
0 255 0
0 255 0
0 255 0
0 255 0
0 255 0
0 255 0
0 255 0
0 255 0
0 255 0
0 255 0
0 255 0
0 255 0
0 255 0
0 255 0
0 255 0
0 255 0
0 255 0
0 255 0
0 255 0
0 255 0
0 255 0
0 255 0
0 255 0
0 255 0
0 255 0
0 255 0
0 255 0
0 255 0
0 255 0
0 255 0
0 255 0
0 255 0
0 255 0
0 255 0
0 255 0
0 255 0
0 255 0
0 255 0
0 255 0
0 255 0
0 255 0
0 255 0
0 255 0
0 255 0
0 255 0
0 255 0
0 255 0
0 255 0
0 255 0
0 255 0
0 255 0
0 255 0
0 255 0
0 255 0
0 255 0
0 255 0
0 255 0
0 255 0
0 255 0
0 255 0
0 255 0
0 255 0
0 255 0
0 255 0
0 255 0
0 255 0
0 255 0
0 255 0
0 255 0
0 255 0
0 255 0
0 255 0
0 255 0
0 255 0
0 255 0
0 255 0
0 255 0
0 255 0
0 255 0
0 255 0
0 255 0
0 255 0
0 255 0
0 255 0
0 255 0
0 255 0
0 255 0
0 255 0
0 255 0
0 255 0
0 255 0
0 255 0
0 255 0
0 255 0
0 255 0
0 255 0
0 255 0
0 255 0
0 255 0
0 255 0
0 255 0
0 255 0
0 255 0
0 255 0
0 255 0
0 255 0
0 255 0
0 255 0
0 255 0
0 255 0
0 255 0
0 255 0
0 255 0
0 255 0
0 255 0
0 255 0
0 255 0
0 255 0
0 255 0
0 255 0
0 255 0
0 255 0
0 255 0
0 255 0
0 255 0
0 255 0
0 255 0
0 255 0
0 255 0
0 255 0
0 255 0
0 255 0
0 255 0
0 255 0
0 255 0
0 255 0
0 255 0
0 255 0
0 255 0
0 255 0
0 255 0
0 255 0
0 255 0
0 255 0
0 255 0
0 255 0
0 255 0
0 255 0
0 255 0
0 255 0
0 255 0
0 255 0
0 255 0
0 255 0
0 255 0
0 255 0
0 255 0
0 255 0
0 255 0
0 255 0
0 255 0
0 255 0
0 255 0
0 255 0
0 255 0
0 255 0
0 255 0
0 255 0
0 255 0
0 255 0
0 255 0
0 255 0
0 255 0
0 255 0
0 255 0
0 255 0
0 255 0
0 255 0
0 255 0
0 255 0
0 255 0
0 255 0
0 255 0
0 255 0
0 255 0
0 255 0
0 255 0
0 255 0
0 255 0
0 255 0
0 255 0
0 255 0
0 255 0
0 255 0
0 255 0
0 255 0
0 255 0
0 255 0
0 255 0
0 255 0
0 255 0
0 255 0
0 255 0
0 255 0
0 255 0
0 255 0
1 255 0
1 255 0
1 255 0
1 255 0
1 255 0
1 255 0
1 255 0
1 255 0
1 255 0
1 255 0
1 255 0
1 255 0
1 255 0
1 255 0
1 255 0
1 255 0
1 255 0
1 255 0
1 255 0
1 255 0
1 255 0
1 255 0
1 255 0
1 255 0
1 255 0
1 255 0
1 255 0
1 255 0
1 255 0
1 255 0
1 255 0
1 255 0
1 255 0
1 255 0
1 255 0
1 255 0
1 255 0
1 255 0
1 255 0
1 255 0
1 255 0
1 255 0
1 255 0
1 255 0
1 255 0
1 255 0
1 255 0
1 255 0
1 255 0
1 255 0
1 255 0
1 255 0
1 255 0
1 255 0
1 255 0
1 255 0
1 255 0
1 255 0
1 255 0
1 255 0
1 255 0
1 255 0
1 255 0
1 255 0
1 255 0
1 255 0
1 255 0
1 255 0
1 255 0
1 255 0
2 255 0
2 255 0
2 255 0
2 255 0
2 255 0
2 255 0
2 255 0
2 255 0
2 255 0
2 255 0
2 255 0
2 255 0
2 255 0
2 255 0
2 255 0
2 255 0
2 255 0
2 255 0
2 255 0
2 255 0
2 255 0
2 255 0
2 255 0
2 255 0
2 255 0
2 255 0
2 255 0
2 255 0
2 255 0
2 255 0
2 255 0
2 255 0
2 255 0
2 255 0
2 255 0
2 255 0
2 255 0
2 255 0
2 255 0
2 255 0
2 255 0
2 255 0
2 255 0
2 255 0
2 255 0
2 255 0
2 255 0
2 255 0
2 255 0
2 255 0
2 255 0
2 255 0
2 255 0
2 255 0
2 255 0
2 255 0
2 255 0
2 255 0
2 255 0
2 255 0
0 255 0
0 255 0
0 255 0
0 255 0
0 255 0
0 255 0
0 255 0
0 255 0
0 255 0
0 255 0
0 255 0
0 255 0
0 255 0
0 255 0
0 255 0
0 255 0
0 255 0
0 255 0
0 255 0
0 255 0
0 255 0
0 255 0
0 255 0
0 255 0
0 255 0
0 255 0
0 255 0
0 255 0
0 255 0
0 255 0
0 255 0
0 255 0
0 255 0
0 255 0
0 255 0
0 255 0
0 255 0
0 255 0
0 255 0
0 255 0
0 255 0
0 255 0
0 255 0
0 255 0
0 255 0
0 255 0
0 255 0
0 255 0
0 255 0
0 255 0
0 255 0
0 255 0
0 255 0
0 255 0
0 255 0
0 255 0
0 255 0
0 255 0
0 255 0
0 255 0
0 255 0
0 255 0
0 255 0
0 255 0
0 255 0
0 255 0
0 255 0
0 255 0
0 255 0
0 255 0
0 255 0
0 255 0
0 255 0
0 255 0
0 255 0
0 255 0
0 255 0
0 255 0
0 255 0
0 255 0
0 255 0
0 255 0
0 255 0
0 255 0
0 255 0
0 255 0
0 255 0
0 255 0
0 255 0
0 255 0
0 255 0
0 255 0
0 255 0
0 255 0
0 255 0
0 255 0
0 255 0
0 255 0
0 255 0
0 255 0
0 255 0
0 255 0
0 255 0
0 255 0
0 255 0
0 255 0
0 255 0
0 255 0
0 255 0
0 255 0
0 255 0
0 255 0
0 255 0
0 255 0
0 255 0
0 255 0
0 255 0
0 255 0
0 255 0
0 255 0
0 255 0
0 255 0
0 255 0
0 255 0
0 255 0
0 255 0
0 255 0
0 255 0
0 255 0
0 255 0
0 255 0
0 255 0
0 255 0
0 255 0
0 255 0
0 255 0
0 255 0
0 255 0
0 255 0
0 255 0
0 255 0
0 255 0
0 255 0
0 255 0
0 255 0
0 255 0
0 255 0
0 255 0
0 255 0
0 255 0
0 255 0
0 255 0
0 255 0
0 255 0
0 255 0
0 255 0
0 255 0
0 255 0
0 255 0
0 255 0
0 255 0
0 255 0
0 255 0
0 255 0
0 255 0
0 255 0
0 255 0
0 255 0
0 255 0
0 255 0
0 255 0
0 255 0
0 255 0
0 255 0
0 255 0
0 255 0
0 255 0
0 255 0
0 255 0
0 255 0
0 255 0
0 255 0
0 255 0
0 255 0
0 255 0
0 255 0
0 255 0
0 255 0
0 255 0
0 255 0
0 255 0
0 255 0
0 255 0
0 255 0
0 255 0
0 255 0
0 255 0
0 255 0
0 255 0
0 255 0
0 255 0
0 255 0
0 255 0
0 255 0
0 255 0
0 255 0
0 255 0
0 255 0
0 255 0
0 255 0
0 255 0
0 255 0
0 255 0
0 255 0
0 255 0
0 255 0
0 255 0
0 255 0
0 255 0
0 255 0
0 255 0
0 255 0
0 255 0
0 255 0
0 255 0
0 255 0
0 255 0
0 255 0
0 255 0
0 255 0
0 255 0
0 255 0
0 255 0
0 255 0
0 255 0
0 255 0
0 255 0
0 255 0
0 255 0
0 255 0
0 255 0
0 255 0
0 255 0
0 255 0
0 255 0
0 255 0
0 255 0
0 255 0
0 255 0
0 255 0
0 255 0
0 255 0
0 255 0
0 255 0
0 255 0
0 255 0
0 255 0
0 255 0
0 255 0
0 255 0
0 255 0
0 255 0
0 255 0
0 255 0
0 255 0
0 255 0
0 255 0
0 255 0
0 255 0
0 255 0
0 255 0
1 255 0
1 255 0
1 255 0
1 255 0
1 255 0
1 255 0
1 255 0
1 255 0
1 255 0
1 255 0
1 255 0
1 255 0
1 255 0
1 255 0
1 255 0
1 255 0
1 255 0
1 255 0
1 255 0
1 255 0
1 255 0
1 255 0
1 255 0
1 255 0
1 255 0
1 255 0
1 255 0
1 255 0
1 255 0
1 255 0
1 255 0
1 255 0
1 255 0
1 255 0
1 255 0
1 255 0
1 255 0
1 255 0
1 255 0
1 255 0
1 255 0
1 255 0
1 255 0
1 255 0
1 255 0
1 255 0
1 255 0
1 255 0
1 255 0
1 255 0
1 255 0
1 255 0
1 255 0
1 255 0
1 255 0
1 255 0
1 255 0
1 255 0
1 255 0
1 255 0
1 255 0
1 255 0
1 255 0
1 255 0
1 255 0
1 255 0
1 255 0
1 255 0
1 255 0
1 255 0
2 255 0
2 255 0
2 255 0
2 255 0
2 255 0
2 255 0
2 255 0
2 255 0
2 255 0
2 255 0
2 255 0
2 255 0
2 255 0
2 255 0
2 255 0
2 255 0
2 255 0
2 255 0
2 255 0
2 255 0
2 255 0
2 255 0
2 255 0
2 255 0
2 255 0
2 255 0
2 255 0
2 255 0
2 255 0
2 255 0
2 255 0
2 255 0
2 255 0
2 255 0
2 255 0
2 255 0
2 255 0
2 255 0
2 255 0
2 255 0
2 255 0
2 255 0
2 255 0
2 255 0
2 255 0
2 255 0
2 255 0
2 255 0
2 255 0
2 255 0
2 255 0
2 255 0
2 255 0
2 255 0
2 255 0
2 255 0
2 255 0
2 255 0
2 255 0
0 255 0
0 255 0
0 255 0
0 255 0
0 255 0
0 255 0
0 255 0
0 255 0
0 255 0
0 255 0
0 255 0
0 255 0
0 255 0
0 255 0
0 255 0
0 255 0
0 255 0
0 255 0
0 255 0
0 255 0
0 255 0
0 255 0
0 255 0
0 255 0
0 255 0
0 255 0
0 255 0
0 255 0
0 255 0
0 255 0
0 255 0
0 255 0
0 255 0
0 255 0
0 255 0
0 255 0
0 255 0
0 255 0
0 255 0
0 255 0
0 255 0
0 255 0
0 255 0
0 255 0
0 255 0
0 255 0
0 255 0
0 255 0
0 255 0
0 255 0
0 255 0
0 255 0
0 255 0
0 255 0
0 255 0
0 255 0
0 255 0
0 255 0
0 255 0
0 255 0
0 255 0
0 255 0
0 255 0
0 255 0
0 255 0
0 255 0
0 255 0
0 255 0
0 255 0
0 255 0
0 255 0
0 255 0
0 255 0
0 255 0
0 255 0
0 255 0
0 255 0
0 255 0
0 255 0
0 255 0
0 255 0
0 255 0
0 255 0
0 255 0
0 255 0
0 255 0
0 255 0
0 255 0
0 255 0
0 255 0
0 255 0
0 255 0
0 255 0
0 255 0
0 255 0
0 255 0
0 255 0
0 255 0
0 255 0
0 255 0
0 255 0
0 255 0
0 255 0
0 255 0
0 255 0
0 255 0
0 255 0
0 255 0
0 255 0
0 255 0
0 255 0
0 255 0
0 255 0
0 255 0
0 255 0
0 255 0
0 255 0
0 255 0
0 255 0
0 255 0
0 255 0
0 255 0
0 255 0
0 255 0
0 255 0
0 255 0
0 255 0
0 255 0
0 255 0
0 255 0
0 255 0
0 255 0
0 255 0
0 255 0
0 255 0
0 255 0
0 255 0
0 255 0
0 255 0
0 255 0
0 255 0
0 255 0
0 255 0
0 255 0
0 255 0
0 255 0
0 255 0
0 255 0
0 255 0
0 255 0
0 255 0
0 255 0
0 255 0
0 255 0
0 255 0
0 255 0
0 255 0
0 255 0
0 255 0
0 255 0
0 255 0
0 255 0
0 255 0
0 255 0
0 255 0
0 255 0
0 255 0
0 255 0
0 255 0
0 255 0
0 255 0
0 255 0
0 255 0
0 255 0
0 255 0
0 255 0
0 255 0
0 255 0
0 255 0
0 255 0
0 255 0
0 255 0
0 255 0
0 255 0
0 255 0
0 255 0
0 255 0
0 255 0
0 255 0
0 255 0
0 255 0
0 255 0
0 255 0
0 255 0
0 255 0
0 255 0
0 255 0
0 255 0
0 255 0
0 255 0
0 255 0
0 255 0
0 255 0
0 255 0
0 255 0
0 255 0
0 255 0
0 255 0
0 255 0
0 255 0
0 255 0
0 255 0
0 255 0
0 255 0
0 255 0
0 255 0
0 255 0
0 255 0
0 255 0
0 255 0
0 255 0
0 255 0
0 255 0
0 255 0
0 255 0
0 255 0
0 255 0
0 255 0
0 255 0
0 255 0
0 255 0
0 255 0
0 255 0
0 255 0
0 255 0
0 255 0
0 255 0
0 255 0
0 255 0
0 255 0
0 255 0
0 255 0
0 255 0
0 255 0
0 255 0
0 255 0
0 255 0
0 255 0
0 255 0
0 255 0
0 255 0
0 255 0
0 255 0
0 255 0
0 255 0
0 255 0
0 255 0
0 255 0
0 255 0
0 255 0
0 255 0
0 255 0
0 255 0
0 255 0
0 255 0
0 255 0
0 255 0
0 255 0
0 255 0
0 255 0
0 255 0
0 255 0
1 255 0
1 255 0
1 255 0
1 255 0
1 255 0
1 255 0
1 255 0
1 255 0
1 255 0
1 255 0
1 255 0
1 255 0
1 255 0
1 255 0
1 255 0
1 255 0
1 255 0
1 255 0
1 255 0
1 255 0
1 255 0
1 255 0
1 255 0
1 255 0
1 255 0
1 255 0
1 255 0
1 255 0
1 255 0
1 255 0
1 255 0
1 255 0
1 255 0
1 255 0
1 255 0
1 255 0
1 255 0
1 255 0
1 255 0
1 255 0
1 255 0
1 255 0
1 255 0
1 255 0
1 255 0
1 255 0
1 255 0
1 255 0
1 255 0
1 255 0
1 255 0
1 255 0
1 255 0
1 255 0
1 255 0
1 255 0
1 255 0
1 255 0
1 255 0
1 255 0
1 255 0
1 255 0
1 255 0
1 255 0
1 255 0
1 255 0
1 255 0
1 255 0
1 255 0
1 255 0
1 255 0
2 255 0
2 255 0
2 255 0
2 255 0
2 255 0
2 255 0
2 255 0
2 255 0
2 255 0
2 255 0
2 255 0
2 255 0
2 255 0
2 255 0
2 255 0
2 255 0
2 255 0
2 255 0
2 255 0
2 255 0
2 255 0
2 255 0
2 255 0
2 255 0
2 255 0
2 255 0
2 255 0
2 255 0
2 255 0
2 255 0
2 255 0
2 255 0
2 255 0
2 255 0
2 255 0
2 255 0
2 255 0
2 255 0
2 255 0
2 255 0
2 255 0
2 255 0
2 255 0
2 255 0
2 255 0
2 255 0
2 255 0
2 255 0
2 255 0
2 255 0
2 255 0
2 255 0
2 255 0
2 255 0
2 255 0
2 255 0
2 255 0
0 255 0
0 255 0
0 255 0
0 255 0
0 255 0
0 255 0
0 255 0
0 255 0
0 255 0
0 255 0
0 255 0
0 255 0
0 255 0
0 255 0
0 255 0
0 255 0
0 255 0
0 255 0
0 255 0
0 255 0
0 255 0
0 255 0
0 255 0
0 255 0
0 255 0
0 255 0
0 255 0
0 255 0
0 255 0
0 255 0
0 255 0
0 255 0
0 255 0
0 255 0
0 255 0
0 255 0
0 255 0
0 255 0
0 255 0
0 255 0
0 255 0
0 255 0
0 255 0
0 255 0
0 255 0
0 255 0
0 255 0
0 255 0
0 255 0
0 255 0
0 255 0
0 255 0
0 255 0
0 255 0
0 255 1
0 255 0
0 255 0
0 255 0
0 255 1
0 255 1
0 255 1
0 255 1
0 255 0
0 255 1
0 255 1
0 255 1
0 255 1
0 255 1
0 255 1
0 255 1
0 255 1
0 255 1
0 255 1
0 255 1
0 255 1
0 255 1
0 255 1
0 255 1
0 255 1
0 255 1
0 255 1
0 255 1
0 255 1
0 255 1
0 255 1
0 255 1
0 255 1
0 255 1
0 255 1
0 255 1
0 255 1
0 255 1
0 255 1
0 255 1
0 255 1
0 255 1
0 255 1
0 255 1
0 255 1
0 255 1
0 255 1
0 255 1
0 255 1
0 255 1
0 255 1
0 255 1
0 255 1
0 255 1
0 255 1
0 255 1
0 255 1
0 255 1
0 255 1
0 255 1
0 255 1
0 255 1
0 255 1
0 255 1
0 255 1
0 255 1
0 255 1
0 255 1
0 255 1
0 255 1
0 255 1
0 255 1
0 255 1
0 255 1
0 255 1
0 255 1
0 255 1
0 255 1
0 255 1
0 255 1
0 255 1
0 255 1
0 255 1
0 255 1
0 255 1
0 255 1
0 255 1
0 255 1
0 255 1
0 255 1
0 255 1
0 255 1
0 255 1
0 255 1
0 255 1
0 255 1
0 255 1
0 255 1
0 255 1
0 255 1
0 255 1
0 255 1
0 255 1
0 255 1
0 255 1
0 255 1
0 255 1
0 255 1
0 255 1
0 255 1
0 255 1
0 255 1
0 255 1
0 255 1
0 255 1
0 255 1
0 255 1
0 255 1
0 255 1
0 255 1
0 255 1
0 255 1
0 255 1
0 255 1
0 255 1
0 255 1
0 255 1
0 255 1
0 255 1
0 255 1
0 255 1
0 255 1
0 255 1
0 255 1
0 255 1
0 255 1
0 255 1
0 255 1
0 255 1
0 255 1
0 255 1
0 255 1
0 255 1
0 255 1
0 255 1
0 255 1
0 255 1
0 255 1
0 255 1
0 255 1
0 255 1
0 255 1
0 255 1
0 255 1
0 255 1
0 255 1
0 255 1
0 255 1
0 255 1
0 255 1
0 255 1
0 255 1
0 255 1
0 255 1
0 255 1
0 255 1
0 255 1
0 255 1
0 255 1
0 255 1
0 255 1
0 255 1
0 255 1
0 255 1
0 255 1
0 255 1
0 255 1
0 255 1
0 255 1
0 255 1
0 255 1
0 255 1
0 255 1
0 255 1
0 255 1
0 255 1
0 255 1
0 255 1
0 255 1
0 255 1
0 255 1
0 255 1
0 255 1
0 255 1
0 255 1
0 255 1
0 255 1
0 255 1
0 255 1
0 255 1
0 255 1
0 255 1
0 255 1
0 255 1
0 255 1
0 255 1
0 255 1
0 255 1
0 255 1
0 255 1
0 255 1
0 255 1
0 255 1
0 255 1
0 255 1
0 255 1
0 255 1
0 255 1
1 255 1
1 255 1
1 255 1
1 255 1
1 255 1
1 255 1
1 255 1
1 255 1
1 255 1
1 255 1
1 255 1
1 255 1
1 255 1
1 255 1
1 255 1
1 255 1
1 255 1
1 255 1
1 255 1
1 255 1
1 255 1
1 255 1
1 255 1
1 255 1
1 255 1
1 255 1
1 255 1
1 255 1
1 255 1
1 255 1
1 255 1
1 255 1
1 255 1
1 255 1
1 255 1
1 255 1
1 255 1
1 255 1
1 255 1
1 255 1
1 255 1
1 255 1
1 255 1
1 255 1
1 255 1
1 255 1
1 255 1
1 255 1
1 255 1
1 255 1
1 255 1
1 255 1
1 255 1
1 255 1
1 255 1
1 255 1
1 255 1
1 255 1
1 255 1
1 255 1
1 255 1
1 255 1
1 255 1
1 255 1
1 255 1
1 255 1
1 255 0
1 255 0
1 255 1
1 255 0
1 255 0
1 255 1
2 255 0
2 255 1
2 255 0
2 255 0
2 255 0
2 255 0
2 255 0
2 255 0
2 255 0
2 255 0
2 255 0
2 255 0
2 255 0
2 255 0
2 255 0
2 255 0
2 255 0
2 255 0
2 255 0
2 255 0
2 255 0
2 255 0
2 255 0
2 255 0
2 255 0
2 255 0
2 255 0
2 255 0
2 255 0
2 255 0
2 255 0
2 255 0
2 255 0
2 255 0
2 255 0
2 255 0
2 255 0
2 255 0
2 255 0
2 255 0
2 255 0
2 255 0
2 255 0
2 255 0
2 255 0
2 255 0
2 255 0
2 255 0
2 255 0
2 255 0
2 255 0
2 255 0
2 255 0
2 255 0
2 255 0
2 255 0
0 255 1
0 255 1
0 255 1
0 255 1
0 255 1
0 255 1
0 255 1
0 255 1
0 255 1
0 255 1
0 255 1
0 255 1
0 255 1
0 255 1
0 255 1
0 255 1
0 255 1
0 255 1
0 255 1
0 255 1
0 255 1
0 255 1
0 255 1
0 255 1
0 255 1
0 255 1
0 255 1
0 255 1
0 255 1
0 255 1
0 255 1
0 255 1
0 255 1
0 255 1
0 255 1
0 255 1
0 255 1
0 255 1
0 255 1
0 255 1
0 255 1
0 255 1
0 255 1
0 255 1
0 255 1
0 255 1
0 255 1
0 255 1
0 255 1
0 255 1
0 255 1
0 255 1
0 255 1
0 255 1
0 255 1
0 255 1
0 255 1
0 255 1
0 255 1
0 255 1
0 255 1
0 255 1
0 255 1
0 255 1
0 255 1
0 255 1
0 255 1
0 255 1
0 255 1
0 255 1
0 255 1
0 255 1
0 255 1
0 255 1
0 255 1
0 255 1
0 255 1
0 255 1
0 255 1
0 255 1
0 255 1
0 255 1
0 255 1
0 255 1
0 255 1
0 255 1
0 255 1
0 255 1
0 255 1
0 255 1
0 255 1
0 255 1
0 255 1
0 255 1
0 255 1
0 255 1
0 255 1
0 255 1
0 255 1
0 255 1
0 255 1
0 255 1
0 255 1
0 255 1
0 255 1
0 255 1
0 255 1
0 255 1
0 255 1
0 255 1
0 255 1
0 255 1
0 255 1
0 255 1
0 255 1
0 255 1
0 255 1
0 255 1
0 255 1
0 255 1
0 255 1
0 255 1
0 255 1
0 255 1
0 255 1
0 255 1
0 255 1
0 255 1
0 255 1
0 255 1
0 255 1
0 255 1
0 255 1
0 255 1
0 255 1
0 255 1
0 255 1
0 255 1
0 255 1
0 255 1
0 255 1
0 255 1
0 255 1
0 255 1
0 255 1
0 255 1
0 255 1
0 255 1
0 255 1
0 255 1
0 255 1
0 255 1
0 255 1
0 255 1
0 255 1
0 255 1
0 255 1
0 255 1
0 255 1
0 255 1
0 255 1
0 255 1
0 255 1
0 255 1
0 255 1
0 255 1
0 255 1
0 255 1
0 255 1
0 255 1
0 255 1
0 255 1
0 255 1
0 255 1
0 255 1
0 255 1
0 255 1
0 255 1
0 255 1
0 255 1
0 255 1
0 255 1
0 255 1
0 255 1
0 255 1
0 255 1
0 255 1
0 255 1
0 255 1
0 255 1
0 255 1
0 255 1
0 255 1
0 255 1
0 255 1
0 255 1
0 255 1
0 255 1
0 255 1
0 255 1
0 255 1
0 255 1
0 255 1
0 255 1
0 255 1
0 255 1
0 255 1
0 255 1
0 255 1
0 255 1
0 255 1
0 255 1
0 255 1
0 255 1
0 255 1
0 255 1
0 255 1
0 255 1
0 255 1
0 255 1
0 255 1
0 255 1
0 255 1
0 255 1
0 255 1
0 255 1
0 255 1
0 255 1
0 255 1
0 255 1
0 255 1
0 255 1
0 255 1
0 255 1
0 255 1
0 255 1
0 255 1
0 255 1
0 255 1
0 255 1
0 255 1
0 255 1
0 255 1
0 255 1
0 255 1
0 255 1
0 255 1
0 255 1
0 255 1
0 255 1
0 255 1
0 255 1
0 255 1
0 255 1
0 255 1
0 255 1
0 255 1
0 255 1
0 255 1
0 255 1
0 255 1
0 255 1
0 255 1
0 255 1
0 255 1
0 255 1
0 255 1
0 255 1
0 255 1
0 255 1
0 255 1
0 255 1
0 255 1
1 255 1
1 255 1
1 255 1
1 255 1
1 255 1
1 255 1
1 255 1
1 255 1
1 255 1
1 255 1
1 255 1
1 255 1
1 255 1
1 255 1
1 255 1
1 255 1
1 255 1
1 255 1
1 255 1
1 255 1
1 255 1
1 255 1
1 255 1
1 255 1
1 255 1
1 255 1
1 255 1
1 255 1
1 255 1
1 255 1
1 255 1
1 255 1
1 255 1
1 255 1
1 255 1
1 255 1
1 255 1
1 255 1
1 255 1
1 255 1
1 255 1
1 255 1
1 255 1
1 255 1
1 255 1
1 255 1
1 255 1
1 255 1
1 255 1
1 255 1
1 255 1
1 255 1
1 255 1
1 255 1
1 255 1
1 255 1
1 255 1
1 255 1
1 255 1
1 255 1
1 255 1
1 255 1
1 255 1
1 255 1
1 255 1
1 255 1
1 255 1
1 255 1
1 255 1
1 255 1
1 255 1
1 255 1
1 255 1
2 255 1
2 255 1
2 255 1
2 255 1
2 255 1
2 255 1
2 255 1
2 255 1
2 255 1
2 255 1
2 255 1
2 255 1
2 255 1
2 255 1
2 255 1
2 255 1
2 255 1
2 255 1
2 255 1
2 255 1
2 255 1
2 255 1
2 255 1
2 255 1
2 255 1
2 255 1
2 255 1
2 255 1
2 255 1
2 255 1
2 255 1
2 255 1
2 255 1
2 255 1
2 255 1
2 255 1
2 255 1
2 255 1
2 255 1
2 255 1
2 255 1
2 255 1
2 255 1
2 255 1
2 255 1
2 255 1
2 255 1
2 255 1
2 255 1
2 255 1
2 255 1
2 255 1
2 255 1
2 255 1
0 255 1
0 255 1
0 255 1
0 255 1
0 255 1
0 255 1
0 255 1
0 255 1
0 255 1
0 255 1
0 255 1
0 255 1
0 255 1
0 255 1
0 255 1
0 255 1
0 255 1
0 255 1
0 255 1
0 255 1
0 255 1
0 255 1
0 255 1
0 255 1
0 255 1
0 255 1
0 255 1
0 255 1
0 255 1
0 255 1
0 255 1
0 255 1
0 255 1
0 255 1
0 255 1
0 255 1
0 255 1
0 255 1
0 255 1
0 255 1
0 255 1
0 255 1
0 255 1
0 255 1
0 255 1
0 255 1
0 255 1
0 255 1
0 255 1
0 255 1
0 255 1
0 255 1
0 255 1
0 255 1
0 255 1
0 255 1
0 255 1
0 255 1
0 255 1
0 255 1
0 255 1
0 255 1
0 255 1
0 255 1
0 255 1
0 255 1
0 255 1
0 255 1
0 255 1
0 255 1
0 255 1
0 255 1
0 255 1
0 255 1
0 255 1
0 255 1
0 255 1
0 255 1
0 255 1
0 255 1
0 255 1
0 255 1
0 255 1
0 255 1
0 255 1
0 255 1
0 255 1
0 255 1
0 255 1
0 255 1
0 255 1
0 255 1
0 255 1
0 255 1
0 255 1
0 255 1
0 255 1
0 255 1
0 255 1
0 255 1
0 255 1
0 255 1
0 255 1
0 255 1
0 255 1
0 255 1
0 255 1
0 255 1
0 255 1
0 255 1
0 255 1
0 255 1
0 255 1
0 255 1
0 255 1
0 255 1
0 255 1
0 255 1
0 255 1
0 255 1
0 255 1
0 255 1
0 255 1
0 255 1
0 255 1
0 255 1
0 255 1
0 255 1
0 255 1
0 255 1
0 255 1
0 255 1
0 255 1
0 255 1
0 255 1
0 255 1
0 255 1
0 255 1
0 255 1
0 255 1
0 255 1
0 255 1
0 255 1
0 255 1
0 255 1
0 255 1
0 255 1
0 255 1
0 255 1
0 255 1
0 255 1
0 255 1
0 255 1
0 255 1
0 255 1
0 255 1
0 255 1
0 255 1
0 255 1
0 255 1
0 255 1
0 255 1
0 255 1
0 255 1
0 255 1
0 255 1
0 255 1
0 255 1
0 255 1
0 255 1
0 255 1
0 255 1
0 255 1
0 255 1
0 255 1
0 255 1
0 255 1
0 255 1
0 255 1
0 255 1
0 255 1
0 255 1
0 255 1
0 255 1
0 255 1
0 255 1
0 255 1
0 255 1
0 255 1
0 255 1
0 255 1
0 255 1
0 255 1
0 255 1
0 255 1
0 255 1
0 255 1
0 255 1
0 255 1
0 255 1
0 255 1
0 255 1
0 255 1
0 255 1
0 255 1
0 255 1
0 255 1
0 255 1
0 255 1
0 255 1
0 255 1
0 255 1
0 255 1
0 255 1
0 255 1
0 255 1
0 255 1
0 255 1
0 255 1
0 255 1
0 255 1
0 255 1
0 255 1
0 255 1
0 255 1
0 255 1
0 255 1
0 255 1
0 255 1
0 255 1
0 255 1
0 255 1
0 255 1
0 255 1
0 255 1
0 255 1
0 255 1
0 255 1
0 255 1
0 255 1
0 255 1
0 255 1
0 255 1
0 255 1
0 255 1
0 255 1
0 255 1
0 255 1
0 255 1
0 255 1
0 255 1
0 255 1
0 255 1
0 255 1
0 255 1
0 255 1
0 255 1
0 255 1
0 255 1
0 255 1
0 255 1
0 255 1
0 255 1
0 255 1
0 255 1
0 255 1
0 255 1
0 255 1
0 255 1
0 255 1
0 255 1
0 255 1
0 255 1
0 255 1
1 255 1
1 255 1
1 255 1
1 255 1
1 255 1
1 255 1
1 255 1
1 255 1
1 255 1
1 255 1
1 255 1
1 255 1
1 255 1
1 255 1
1 255 1
1 255 1
1 255 1
1 255 1
1 255 1
1 255 1
1 255 1
1 255 1
1 255 1
1 255 1
1 255 1
1 255 1
1 255 1
1 255 1
1 255 1
1 255 1
1 255 1
1 255 1
1 255 1
1 255 1
1 255 1
1 255 1
1 255 1
1 255 1
1 255 1
1 255 1
1 255 1
1 255 1
1 255 1
1 255 1
1 255 1
1 255 1
1 255 1
1 255 1
1 255 1
1 255 1
1 255 1
1 255 1
1 255 1
1 255 1
1 255 1
1 255 1
1 255 1
1 255 1
1 255 1
1 255 1
1 255 1
1 255 1
1 255 1
1 255 1
1 255 1
1 255 1
1 255 1
1 255 1
1 255 1
1 255 1
1 255 1
1 255 1
1 255 1
2 255 1
2 255 1
2 255 1
2 255 1
2 255 1
2 255 1
2 255 1
2 255 1
2 255 1
2 255 1
2 255 1
2 255 1
2 255 1
2 255 1
2 255 1
2 255 1
2 255 1
2 255 1
2 255 1
2 255 1
2 255 1
2 255 1
2 255 1
2 255 1
2 255 1
2 255 1
2 255 1
2 255 1
2 255 1
2 255 1
2 255 1
2 255 1
2 255 1
2 255 1
2 255 1
2 255 1
2 255 1
2 255 1
2 255 1
2 255 1
2 255 1
2 255 1
2 255 1
2 255 1
2 255 1
2 255 1
2 255 1
2 255 1
2 255 1
2 255 1
2 255 1
2 255 1
2 255 1
0 255 1
0 255 1
0 255 1
0 255 1
0 255 1
0 255 1
0 255 1
0 255 1
0 255 1
0 255 1
0 255 1
0 255 1
0 255 1
0 255 1
0 255 1
0 255 1
0 255 1
0 255 1
0 255 1
0 255 1
0 255 1
0 255 1
0 255 1
0 255 1
0 255 1
0 255 1
0 255 1
0 255 1
0 255 1
0 255 1
0 255 1
0 255 1
0 255 1
0 255 1
0 255 1
0 255 1
0 255 1
0 255 1
0 255 1
0 255 1
0 255 1
0 255 1
0 255 1
0 255 1
0 255 1
0 255 1
0 255 1
0 255 1
0 255 1
0 255 1
0 255 1
0 255 1
0 255 1
0 255 1
0 255 1
0 255 1
0 255 1
0 255 1
0 255 1
0 255 1
0 255 1
0 255 1
0 255 1
0 255 1
0 255 1
0 255 1
0 255 1
0 255 1
0 255 1
0 255 1
0 255 1
0 255 1
0 255 1
0 255 1
0 255 1
0 255 1
0 255 1
0 255 1
0 255 1
0 255 1
0 255 1
0 255 1
0 255 1
0 255 1
0 255 1
0 255 1
0 255 1
0 255 1
0 255 1
0 255 1
0 255 1
0 255 1
0 255 1
0 255 1
0 255 1
0 255 1
0 255 1
0 255 1
0 255 1
0 255 1
0 255 1
0 255 1
0 255 1
0 255 1
0 255 1
0 255 1
0 255 1
0 255 1
0 255 1
0 255 1
0 255 1
0 255 1
0 255 1
0 255 1
0 255 1
0 255 1
0 255 1
0 255 1
0 255 1
0 255 1
0 255 1
0 255 1
0 255 1
0 255 1
0 255 1
0 255 1
0 255 1
0 255 1
0 255 1
0 255 1
0 255 1
0 255 1
0 255 1
0 255 1
0 255 1
0 255 1
0 255 1
0 255 1
0 255 1
0 255 1
0 255 1
0 255 1
0 255 1
0 255 1
0 255 1
0 255 1
0 255 1
0 255 1
0 255 1
0 255 1
0 255 1
0 255 1
0 255 1
0 255 1
0 255 1
0 255 1
0 255 1
0 255 1
0 255 1
0 255 1
0 255 1
0 255 1
0 255 1
0 255 1
0 255 1
0 255 1
0 255 1
0 255 1
0 255 1
0 255 1
0 255 1
0 255 1
0 255 1
0 255 1
0 255 1
0 255 1
0 255 1
0 255 1
0 255 1
0 255 1
0 255 1
0 255 1
0 255 1
0 255 1
0 255 1
0 255 1
0 255 1
0 255 1
0 255 1
0 255 1
0 255 1
0 255 1
0 255 1
0 255 1
0 255 1
0 255 1
0 255 1
0 255 1
0 255 1
0 255 1
0 255 1
0 255 1
0 255 1
0 255 1
0 255 1
0 255 1
0 255 1
0 255 1
0 255 1
0 255 1
0 255 1
0 255 1
0 255 1
0 255 1
0 255 1
0 255 1
0 255 1
0 255 1
0 255 1
0 255 1
0 255 1
0 255 1
0 255 1
0 255 1
0 255 1
0 255 1
0 255 1
0 255 1
0 255 1
0 255 1
0 255 1
0 255 1
0 255 1
0 255 1
0 255 1
0 255 1
0 255 1
0 255 1
0 255 1
0 255 1
0 255 1
0 255 1
0 255 1
0 255 1
0 255 1
0 255 1
0 255 1
0 255 1
0 255 1
0 255 1
0 255 1
0 255 1
0 255 1
0 255 1
0 255 1
0 255 1
0 255 1
0 255 1
0 255 1
0 255 1
0 255 1
0 255 1
0 255 1
0 255 1
0 255 1
0 255 1
0 255 1
0 255 1
0 255 1
0 255 1
0 255 1
0 255 1
0 255 1
0 255 1
0 255 1
1 255 1
1 255 1
1 255 1
1 255 1
1 255 1
1 255 1
1 255 1
1 255 1
1 255 1
1 255 1
1 255 1
1 255 1
1 255 1
1 255 1
1 255 1
1 255 1
1 255 1
1 255 1
1 255 1
1 255 1
1 255 1
1 255 1
1 255 1
1 255 1
1 255 1
1 255 1
1 255 1
1 255 1
1 255 1
1 255 1
1 255 1
1 255 1
1 255 1
1 255 1
1 255 1
1 255 1
1 255 1
1 255 1
1 255 1
1 255 1
1 255 1
1 255 1
1 255 1
1 255 1
1 255 1
1 255 1
1 255 1
1 255 1
1 255 1
1 255 1
1 255 1
1 255 1
1 255 1
1 255 1
1 255 1
1 255 1
1 255 1
1 255 1
1 255 1
1 255 1
1 255 1
1 255 1
1 255 1
1 255 1
1 255 1
1 255 1
1 255 1
1 255 1
1 255 1
1 255 1
1 255 1
1 255 1
1 255 1
1 255 1
2 255 1
2 255 1
2 255 1
2 255 1
2 255 1
2 255 1
2 255 1
2 255 1
2 255 1
2 255 1
2 255 1
2 255 1
2 255 1
2 255 1
2 255 1
2 255 1
2 255 1
2 255 1
2 255 1
2 255 1
2 255 1
2 255 1
2 255 1
2 255 1
2 255 1
2 255 1
2 255 1
2 255 1
2 255 1
2 255 1
2 255 1
2 255 1
2 255 1
2 255 1
2 255 1
2 255 1
2 255 1
2 255 1
2 255 1
2 255 1
2 255 1
2 255 1
2 255 1
2 255 1
2 255 1
2 255 1
2 255 1
2 255 1
2 255 1
2 255 1
2 255 1
0 255 1
0 255 1
0 255 1
0 255 1
0 255 1
0 255 1
0 255 1
0 255 1
0 255 1
0 255 1
0 255 1
0 255 1
0 255 1
0 255 1
0 255 1
0 255 1
0 255 1
0 255 1
0 255 1
0 255 1
0 255 1
0 255 1
0 255 1
0 255 1
0 255 1
0 255 1
0 255 1
0 255 1
0 255 1
0 255 1
0 255 1
0 255 1
0 255 1
0 255 1
0 255 1
0 255 1
0 255 1
0 255 1
0 255 1
0 255 1
0 255 1
0 255 1
0 255 1
0 255 1
0 255 1
0 255 1
0 255 1
0 255 1
0 255 1
0 255 1
0 255 1
0 255 1
0 255 1
0 255 1
0 255 1
0 255 1
0 255 1
0 255 1
0 255 1
0 255 1
0 255 1
0 255 1
0 255 1
0 255 1
0 255 1
0 255 1
0 255 1
0 255 1
0 255 1
0 255 1
0 255 1
0 255 1
0 255 1
0 255 1
0 255 1
0 255 1
0 255 1
0 255 1
0 255 1
0 255 1
0 255 1
0 255 1
0 255 1
0 255 1
0 255 1
0 255 1
0 255 1
0 255 1
0 255 1
0 255 1
0 255 1
0 255 1
0 255 1
0 255 1
0 255 1
0 255 1
0 255 1
0 255 1
0 255 1
0 255 1
0 255 1
0 255 1
0 255 1
0 255 1
0 255 1
0 255 1
0 255 1
0 255 1
0 255 1
0 255 1
0 255 1
0 255 1
0 255 1
0 255 1
0 255 1
0 255 1
0 255 1
0 255 1
0 255 1
0 255 1
0 255 1
0 255 1
0 255 1
0 255 1
0 255 1
0 255 1
0 255 1
0 255 1
0 255 1
0 255 1
0 255 1
0 255 1
0 255 1
0 255 1
0 255 1
0 255 1
0 255 1
0 255 1
0 255 1
0 255 1
0 255 1
0 255 1
0 255 1
0 255 1
0 255 1
0 255 1
0 255 1
0 255 1
0 255 1
0 255 1
0 255 1
0 255 1
0 255 1
0 255 1
0 255 1
0 255 1
0 255 1
0 255 1
0 255 1
0 255 1
0 255 1
0 255 1
0 255 1
0 255 1
0 255 1
0 255 1
0 255 1
0 255 1
0 255 1
0 255 1
0 255 1
0 255 1
0 255 1
0 255 1
0 255 1
0 255 1
0 255 1
0 255 1
0 255 1
0 255 1
0 255 1
0 255 1
0 255 1
0 255 1
0 255 1
0 255 1
0 255 1
0 255 1
0 255 1
0 255 1
0 255 1
0 255 1
0 255 1
0 255 1
0 255 1
0 255 1
0 255 1
0 255 1
0 255 1
0 255 1
0 255 1
0 255 1
0 255 1
0 255 1
0 255 1
0 255 1
0 255 1
0 255 1
0 255 1
0 255 1
0 255 1
0 255 1
0 255 1
0 255 1
0 255 1
0 255 1
0 255 1
0 255 1
0 255 1
0 255 1
0 255 1
0 255 1
0 255 1
0 255 1
0 255 1
0 255 1
0 255 1
0 255 1
0 255 1
0 255 1
0 255 1
0 255 1
0 255 1
0 255 1
0 255 1
0 255 1
0 255 1
0 255 1
0 255 1
0 255 1
0 255 1
0 255 1
0 255 1
0 255 1
0 255 1
0 255 1
0 255 1
0 255 1
0 255 1
0 255 1
0 255 1
0 255 1
0 255 1
0 255 1
0 255 1
0 255 1
0 255 1
0 255 1
0 255 1
0 255 1
0 255 1
0 255 1
0 255 1
0 255 1
0 255 1
0 255 1
0 255 1
0 255 1
0 255 1
0 255 1
0 255 1
0 255 1
0 255 1
0 255 1
0 255 1
0 255 1
1 255 1
1 255 1
1 255 1
1 255 1
1 255 1
1 255 1
1 255 1
1 255 1
1 255 1
1 255 1
1 255 1
1 255 1
1 255 1
1 255 1
1 255 1
1 255 1
1 255 1
1 255 1
1 255 1
1 255 1
1 255 1
1 255 1
1 255 1
1 255 1
1 255 1
1 255 1
1 255 1
1 255 1
1 255 1
1 255 1
1 255 1
1 255 1
1 255 1
1 255 1
1 255 1
1 255 1
1 255 1
1 255 1
1 255 1
1 255 1
1 255 1
1 255 1
1 255 1
1 255 1
1 255 1
1 255 1
1 255 1
1 255 1
1 255 1
1 255 1
1 255 1
1 255 1
1 255 1
1 255 1
1 255 1
1 255 1
1 255 1
1 255 1
1 255 1
1 255 1
1 255 1
1 255 1
1 255 1
1 255 1
1 255 1
1 255 1
1 255 1
1 255 1
1 255 1
1 255 1
1 255 1
1 255 1
1 255 1
1 255 1
2 255 1
2 255 1
2 255 1
2 255 1
2 255 1
2 255 1
2 255 1
2 255 1
2 255 1
2 255 1
2 255 1
2 255 1
2 255 1
2 255 1
2 255 1
2 255 1
2 255 1
2 255 1
2 255 1
2 255 1
2 255 1
2 255 1
2 255 1
2 255 1
2 255 1
2 255 1
2 255 1
2 255 1
2 255 1
2 255 1
2 255 1
2 255 1
2 255 1
2 255 1
2 255 1
2 255 1
2 255 1
2 255 1
2 255 1
2 255 1
2 255 1
2 255 1
2 255 1
2 255 1
2 255 1
2 255 1
2 255 1
2 255 1
2 255 1
2 255 1
0 255 1
0 255 1
0 255 1
0 255 1
0 255 1
0 255 1
0 255 1
0 255 1
0 255 1
0 255 1
0 255 1
0 255 1
0 255 1
0 255 1
0 255 1
0 255 1
0 255 1
0 255 1
0 255 1
0 255 1
0 255 1
0 255 1
0 255 1
0 255 1
0 255 1
0 255 1
0 255 1
0 255 1
0 255 1
0 255 1
0 255 1
0 255 1
0 255 1
0 255 1
0 255 1
0 255 1
0 255 1
0 255 1
0 255 1
0 255 1
0 255 1
0 255 1
0 255 1
0 255 1
0 255 1
0 255 1
0 255 1
0 255 1
0 255 1
0 255 1
0 255 1
0 255 1
0 255 1
0 255 1
0 255 1
0 255 1
0 255 1
0 255 1
0 255 1
0 255 1
0 255 1
0 255 1
0 255 1
0 255 1
0 255 1
0 255 1
0 255 1
0 255 1
0 255 1
0 255 1
0 255 1
0 255 1
0 255 1
0 255 1
0 255 1
0 255 1
0 255 1
0 255 1
0 255 1
0 255 1
0 255 1
0 255 1
0 255 1
0 255 1
0 255 1
0 255 1
0 255 1
0 255 1
0 255 1
0 255 1
0 255 1
0 255 1
0 255 1
0 255 1
0 255 1
0 255 1
0 255 1
0 255 1
0 255 1
0 255 1
0 255 1
0 255 1
0 255 1
0 255 1
0 255 1
0 255 1
0 255 1
0 255 1
0 255 1
0 255 1
0 255 1
0 255 1
0 255 1
0 255 1
0 255 1
0 255 1
0 255 1
0 255 1
0 255 1
0 255 1
0 255 1
0 255 1
0 255 1
0 255 1
0 255 1
0 255 1
0 255 1
0 255 1
0 255 1
0 255 1
0 255 1
0 255 1
0 255 1
0 255 1
0 255 1
0 255 1
0 255 1
0 255 1
0 255 1
0 255 1
0 255 1
0 255 1
0 255 1
0 255 1
0 255 1
0 255 1
0 255 1
0 255 1
0 255 1
0 255 1
0 255 1
0 255 1
0 255 1
0 255 1
0 255 1
0 255 1
0 255 1
0 255 1
0 255 1
0 255 1
0 255 1
0 255 1
0 255 1
0 255 1
0 255 1
0 255 1
0 255 1
0 255 1
0 255 1
0 255 1
0 255 1
0 255 1
0 255 1
0 255 1
0 255 1
0 255 1
0 255 1
0 255 1
0 255 1
0 255 1
0 255 1
0 255 1
0 255 1
0 255 1
0 255 1
0 255 1
0 255 1
0 255 1
0 255 1
0 255 1
0 255 1
0 255 1
0 255 1
0 255 1
0 255 1
0 255 1
0 255 1
0 255 1
0 255 1
0 255 1
0 255 1
0 255 1
0 255 1
0 255 1
0 255 1
0 255 1
0 255 1
0 255 1
0 255 1
0 255 1
0 255 1
0 255 1
0 255 1
0 255 1
0 255 1
0 255 1
0 255 1
0 255 1
0 255 1
0 255 1
0 255 1
0 255 1
0 255 1
0 255 1
0 255 1
0 255 1
0 255 1
0 255 1
0 255 1
0 255 1
0 255 1
0 255 1
0 255 1
0 255 1
0 255 1
0 255 1
0 255 1
0 255 1
0 255 1
0 255 1
0 255 1
0 255 1
0 255 1
0 255 1
0 255 1
0 255 1
0 255 1
0 255 1
0 255 1
0 255 1
0 255 1
0 255 1
0 255 1
0 255 1
0 255 1
0 255 1
0 255 1
0 255 1
0 255 1
0 255 1
0 255 1
0 255 1
0 255 1
0 255 1
0 255 1
0 255 1
0 255 1
0 255 1
0 255 1
0 255 1
0 255 1
0 255 1
0 255 1
0 255 1
0 255 1
0 255 1
1 255 1
1 255 1
1 255 1
1 255 1
1 255 1
1 255 1
1 255 1
1 255 1
1 255 1
1 255 1
1 255 1
1 255 1
1 255 1
1 255 1
1 255 1
1 255 1
1 255 1
1 255 1
1 255 1
1 255 1
1 255 1
1 255 1
1 255 1
1 255 1
1 255 1
1 255 1
1 255 1
1 255 1
1 255 1
1 255 1
1 255 1
1 255 1
1 255 1
1 255 1
1 255 1
1 255 1
1 255 1
1 255 1
1 255 1
1 255 1
1 255 1
1 255 1
1 255 1
1 255 1
1 255 1
1 255 1
1 255 1
1 255 1
1 255 1
1 255 1
1 255 1
1 255 1
1 255 1
1 255 1
1 255 1
1 255 1
1 255 1
1 255 1
1 255 1
1 255 1
1 255 1
1 255 1
1 255 1
1 255 1
1 255 1
1 255 1
1 255 1
1 255 1
1 255 1
1 255 1
1 255 1
1 255 1
1 255 1
1 255 1
1 255 1
1 255 1
2 255 1
2 255 1
2 255 1
2 255 1
2 255 1
2 255 1
2 255 1
2 255 1
2 255 1
2 255 1
2 255 1
2 255 1
2 255 1
2 255 1
2 255 1
2 255 1
2 255 1
2 255 1
2 255 1
2 255 1
2 255 1
2 255 1
2 255 1
2 255 1
2 255 1
2 255 1
2 255 1
2 255 1
2 255 1
2 255 1
2 255 1
2 255 1
2 255 1
2 255 1
2 255 1
2 255 1
2 255 1
2 255 1
2 255 1
2 255 1
2 255 1
2 255 1
2 255 1
2 255 1
2 255 1
2 255 1
2 255 1
2 255 1
0 255 1
0 255 1
0 255 1
0 255 1
0 255 1
0 255 1
0 255 1
0 255 1
0 255 1
0 255 1
0 255 1
0 255 1
0 255 1
0 255 1
0 255 1
0 255 1
0 255 1
0 255 1
0 255 1
0 255 1
0 255 1
0 255 1
0 255 1
0 255 1
0 255 1
0 255 1
0 255 1
0 255 1
0 255 1
0 255 1
0 255 1
0 255 1
0 255 1
0 255 1
0 255 1
0 255 1
0 255 1
0 255 1
0 255 1
0 255 1
0 255 1
0 255 1
0 255 1
0 255 1
0 255 1
0 255 1
0 255 1
0 255 1
0 255 1
0 255 1
0 255 1
0 255 1
0 255 1
0 255 1
0 255 1
0 255 1
0 255 1
0 255 1
0 255 1
0 255 1
0 255 1
0 255 1
0 255 1
0 255 1
0 255 1
0 255 1
0 255 1
0 255 1
0 255 1
0 255 1
0 255 1
0 255 1
0 255 1
0 255 1
0 255 1
0 255 1
0 255 1
0 255 1
0 255 1
0 255 1
0 255 1
0 255 1
0 255 1
0 255 1
0 255 1
0 255 1
0 255 1
0 255 1
0 255 1
0 255 1
0 255 1
0 255 1
0 255 1
0 255 1
0 255 1
0 255 1
0 255 1
0 255 1
0 255 1
0 255 1
0 255 1
0 255 1
0 255 1
0 255 1
0 255 1
0 255 1
0 255 1
0 255 1
0 255 1
0 255 1
0 255 1
0 255 1
0 255 1
0 255 1
0 255 1
0 255 1
0 255 1
0 255 1
0 255 1
0 255 1
0 255 1
0 255 1
0 255 1
0 255 1
0 255 1
0 255 1
0 255 1
0 255 1
0 255 1
0 255 1
0 255 1
0 255 1
0 255 1
0 255 1
0 255 1
0 255 1
0 255 1
0 255 1
0 255 1
0 255 1
0 255 1
0 255 1
0 255 1
0 255 1
0 255 1
0 255 1
0 255 1
0 255 1
0 255 1
0 255 1
0 255 1
0 255 1
0 255 1
0 255 1
0 255 1
0 255 1
0 255 1
0 255 1
0 255 1
0 255 1
0 255 1
0 255 1
0 255 1
0 255 1
0 255 1
0 255 1
0 255 1
0 255 1
0 255 1
0 255 1
0 255 1
0 255 1
0 255 1
0 255 1
0 255 1
0 255 1
0 255 1
0 255 1
0 255 1
0 255 1
0 255 1
0 255 1
0 255 1
0 255 1
0 255 1
0 255 1
0 255 1
0 255 1
0 255 1
0 255 1
0 255 1
0 255 1
0 255 1
0 255 1
0 255 1
0 255 1
0 255 1
0 255 1
0 255 1
0 255 1
0 255 1
0 255 1
0 255 1
0 255 1
0 255 1
0 255 1
0 255 1
0 255 1
0 255 1
0 255 1
0 255 1
0 255 1
0 255 1
0 255 1
0 255 1
0 255 1
0 255 1
0 255 1
0 255 1
0 255 1
0 255 1
0 255 1
0 255 1
0 255 1
0 255 1
0 255 1
0 255 1
0 255 1
0 255 1
0 255 1
0 255 1
0 255 1
0 255 1
0 255 1
0 255 1
0 255 1
0 255 1
0 255 1
0 255 1
0 255 1
0 255 1
0 255 1
0 255 1
0 255 1
0 255 1
0 255 1
0 255 1
0 255 1
0 255 1
0 255 1
0 255 1
0 255 1
0 255 1
0 255 1
0 255 1
0 255 1
0 255 1
0 255 1
0 255 1
0 255 1
0 255 1
0 255 1
0 255 1
0 255 1
0 255 1
0 255 1
0 255 1
0 255 1
0 255 1
0 255 1
0 255 1
0 255 1
0 255 1
0 255 1
0 255 1
0 255 1
0 255 1
1 255 1
1 255 1
1 255 1
1 255 1
1 255 1
1 255 1
1 255 1
1 255 1
1 255 1
1 255 1
1 255 1
1 255 1
1 255 1
1 255 1
1 255 1
1 255 1
1 255 1
1 255 1
1 255 1
1 255 1
1 255 1
1 255 1
1 255 1
1 255 1
1 255 1
1 255 1
1 255 1
1 255 1
1 255 1
1 255 1
1 255 1
1 255 1
1 255 1
1 255 1
1 255 1
1 255 1
1 255 1
1 255 1
1 255 1
1 255 1
1 255 1
1 255 1
1 255 1
1 255 1
1 255 1
1 255 1
1 255 1
1 255 1
1 255 1
1 255 1
1 255 1
1 255 1
1 255 1
1 255 1
1 255 1
1 255 1
1 255 1
1 255 1
1 255 1
1 255 1
1 255 1
1 255 1
1 255 1
1 255 1
1 255 1
1 255 1
1 255 1
1 255 1
1 255 1
1 255 1
1 255 1
1 255 1
1 255 1
1 255 1
1 255 1
1 255 1
2 255 1
2 255 1
2 255 1
2 255 1
2 255 1
2 255 1
2 255 1
2 255 1
2 255 1
2 255 1
2 255 1
2 255 1
2 255 1
2 255 1
2 255 1
2 255 1
2 255 1
2 255 1
2 255 1
2 255 1
2 255 1
2 255 1
2 255 1
2 255 1
2 255 1
2 255 1
2 255 1
2 255 1
2 255 1
2 255 1
2 255 1
2 255 1
2 255 1
2 255 1
2 255 1
2 255 1
2 255 1
2 255 1
2 255 1
2 255 1
2 255 1
2 255 1
2 255 1
2 255 1
2 255 1
2 255 1
2 255 1
0 255 1
0 255 1
0 255 1
0 255 1
0 255 1
0 255 1
0 255 1
0 255 1
0 255 1
0 255 1
0 255 1
0 255 1
0 255 1
0 255 1
0 255 1
0 255 1
0 255 1
0 255 1
0 255 1
0 255 1
0 255 1
0 255 1
0 255 1
0 255 1
0 255 1
0 255 1
0 255 1
0 255 1
0 255 1
0 255 1
0 255 1
0 255 1
0 255 1
0 255 1
0 255 1
0 255 1
0 255 1
0 255 1
0 255 1
0 255 1
0 255 1
0 255 1
0 255 1
0 255 1
0 255 1
0 255 1
0 255 1
0 255 1
0 255 1
0 255 1
0 255 1
0 255 1
0 255 1
0 255 1
0 255 1
0 255 1
0 255 1
0 255 1
0 255 1
0 255 1
0 255 1
0 255 1
0 255 1
0 255 1
0 255 1
0 255 1
0 255 1
0 255 1
0 255 1
0 255 1
0 255 1
0 255 1
0 255 1
0 255 1
0 255 1
0 255 1
0 255 1
0 255 1
0 255 1
0 255 1
0 255 1
0 255 1
0 255 1
0 255 1
0 255 1
0 255 1
0 255 1
0 255 1
0 255 1
0 255 1
0 255 1
0 255 1
0 255 1
0 255 1
0 255 1
0 255 1
0 255 1
0 255 1
0 255 1
0 255 1
0 255 1
0 255 1
0 255 1
0 255 1
0 255 1
0 255 1
0 255 1
0 255 1
0 255 1
0 255 1
0 255 1
0 255 1
0 255 1
0 255 1
0 255 1
0 255 1
0 255 1
0 255 1
0 255 1
0 255 1
0 255 1
0 255 1
0 255 1
0 255 1
0 255 1
0 255 1
0 255 1
0 255 1
0 255 1
0 255 1
0 255 1
0 255 1
0 255 1
0 255 1
0 255 1
0 255 1
0 255 1
0 255 1
0 255 1
0 255 1
0 255 1
0 255 1
0 255 1
0 255 1
0 255 1
0 255 1
0 255 1
0 255 1
0 255 1
0 255 1
0 255 1
0 255 1
0 255 1
0 255 1
0 255 1
0 255 1
0 255 1
0 255 1
0 255 1
0 255 1
0 255 1
0 255 1
0 255 1
0 255 1
0 255 1
0 255 1
0 255 1
0 255 1
0 255 1
0 255 1
0 255 1
0 255 1
0 255 1
0 255 1
0 255 1
0 255 1
0 255 1
0 255 1
0 255 1
0 255 1
0 255 1
0 255 1
0 255 1
0 255 1
0 255 1
0 255 1
0 255 1
0 255 1
0 255 1
0 255 1
0 255 1
0 255 1
0 255 1
0 255 1
0 255 1
0 255 1
0 255 1
0 255 1
0 255 1
0 255 1
0 255 1
0 255 1
0 255 1
0 255 1
0 255 1
0 255 1
0 255 1
0 255 1
0 255 1
0 255 1
0 255 1
0 255 1
0 255 1
0 255 1
0 255 1
0 255 1
0 255 1
0 255 1
0 255 1
0 255 1
0 255 1
0 255 1
0 255 1
0 255 1
0 255 1
0 255 1
0 255 1
0 255 1
0 255 1
0 255 1
0 255 1
0 255 1
0 255 1
0 255 1
0 255 1
0 255 1
0 255 1
0 255 1
0 255 1
0 255 1
0 255 1
0 255 1
0 255 1
0 255 1
0 255 1
0 255 1
0 255 1
0 255 1
0 255 1
0 255 1
0 255 1
0 255 1
0 255 1
0 255 1
0 255 1
0 255 1
0 255 1
0 255 1
0 255 1
0 255 1
0 255 1
0 255 1
0 255 1
0 255 1
0 255 1
0 255 1
0 255 1
0 255 1
0 255 1
0 255 1
0 255 1
0 255 1
0 255 1
0 255 1
0 255 1
0 255 1
0 255 1
0 255 1
1 255 1
1 255 1
1 255 1
1 255 1
1 255 1
1 255 1
1 255 1
1 255 1
1 255 1
1 255 1
1 255 1
1 255 1
1 255 1
1 255 1
1 255 1
1 255 1
1 255 1
1 255 1
1 255 1
1 255 1
1 255 1
1 255 1
1 255 1
1 255 1
1 255 1
1 255 1
1 255 1
1 255 1
1 255 1
1 255 1
1 255 1
1 255 1
1 255 1
1 255 1
1 255 1
1 255 1
1 255 1
1 255 1
1 255 1
1 255 1
1 255 1
1 255 1
1 255 1
1 255 1
1 255 1
1 255 1
1 255 1
1 255 1
1 255 1
1 255 1
1 255 1
1 255 1
1 255 1
1 255 1
1 255 1
1 255 1
1 255 1
1 255 1
1 255 1
1 255 1
1 255 1
1 255 1
1 255 1
1 255 1
1 255 1
1 255 1
1 255 1
1 255 1
1 255 1
1 255 1
1 255 1
1 255 1
1 255 1
1 255 1
1 255 1
1 255 1
1 255 1
2 255 1
2 255 1
2 255 1
2 255 1
2 255 1
2 255 1
2 255 1
2 255 1
2 255 1
2 255 1
2 255 1
2 255 1
2 255 1
2 255 1
2 255 1
2 255 1
2 255 1
2 255 1
2 255 1
2 255 1
2 255 1
2 255 1
2 255 1
2 255 1
2 255 1
2 255 1
2 255 1
2 255 1
2 255 1
2 255 1
2 255 1
2 255 1
2 255 1
2 255 1
2 255 1
2 255 1
2 255 1
2 255 1
2 255 1
2 255 1
2 255 1
2 255 1
2 255 1
2 255 1
2 255 1
0 255 1
0 255 1
0 255 1
0 255 1
0 255 1
0 255 1
0 255 1
0 255 1
0 255 1
0 255 1
0 255 1
0 255 1
0 255 1
0 255 1
0 255 1
0 255 1
0 255 1
0 255 1
0 255 1
0 255 1
0 255 1
0 255 1
0 255 1
0 255 1
0 255 1
0 255 1
0 255 1
0 255 1
0 255 1
0 255 1
0 255 1
0 255 1
0 255 1
0 255 1
0 255 1
0 255 1
0 255 1
0 255 1
0 255 1
0 255 1
0 255 1
0 255 1
0 255 1
0 255 1
0 255 1
0 255 1
0 255 1
0 255 1
0 255 1
0 255 1
0 255 1
0 255 1
0 255 1
0 255 1
0 255 1
0 255 1
0 255 1
0 255 1
0 255 1
0 255 1
0 255 1
0 255 1
0 255 1
0 255 1
0 255 1
0 255 1
0 255 1
0 255 1
0 255 1
0 255 1
0 255 1
0 255 1
0 255 1
0 255 1
0 255 1
0 255 1
0 255 1
0 255 1
0 255 1
0 255 1
0 255 1
0 255 1
0 255 1
0 255 1
0 255 1
0 255 1
0 255 1
0 255 1
0 255 1
0 255 1
0 255 1
0 255 1
0 255 1
0 255 1
0 255 1
0 255 1
0 255 1
0 255 1
0 255 1
0 255 1
0 255 1
0 255 1
0 255 1
0 255 1
0 255 1
0 255 1
0 255 1
0 255 1
0 255 1
0 255 1
0 255 1
0 255 1
0 255 1
0 255 1
0 255 1
0 255 1
0 255 1
0 255 1
0 255 1
0 255 1
0 255 1
0 255 1
0 255 1
0 255 1
0 255 1
0 255 1
0 255 1
0 255 1
0 255 1
0 255 1
0 255 1
0 255 1
0 255 1
0 255 1
0 255 1
0 255 1
0 255 1
0 255 1
0 255 1
0 255 1
0 255 1
0 255 1
0 255 1
0 255 1
0 255 1
0 255 1
0 255 1
0 255 1
0 255 1
0 255 1
0 255 1
0 255 1
0 255 1
0 255 1
0 255 1
0 255 1
0 255 1
0 255 1
0 255 1
0 255 1
0 255 1
0 255 1
0 255 1
0 255 1
0 255 1
0 255 1
0 255 1
0 255 1
0 255 1
0 255 1
0 255 1
0 255 1
0 255 1
0 255 1
0 255 1
0 255 1
0 255 1
0 255 1
0 255 1
0 255 1
0 255 1
0 255 1
0 255 1
0 255 1
0 255 1
0 255 1
0 255 1
0 255 1
0 255 1
0 255 1
0 255 1
0 255 1
0 255 1
0 255 1
0 255 1
0 255 1
0 255 1
0 255 1
0 255 1
0 255 1
0 255 1
0 255 1
0 255 1
0 255 1
0 255 1
0 255 1
0 255 1
0 255 1
0 255 1
0 255 1
0 255 1
0 255 1
0 255 1
0 255 1
0 255 1
0 255 1
0 255 1
0 255 1
0 255 1
0 255 1
0 255 1
0 255 1
0 255 1
0 255 1
0 255 1
0 255 1
0 255 1
0 255 1
0 255 1
0 255 1
0 255 1
0 255 1
0 255 1
0 255 1
0 255 1
0 255 1
0 255 1
0 255 1
0 255 1
0 255 1
0 255 1
0 255 1
0 255 1
0 255 1
0 255 1
0 255 1
0 255 1
0 255 1
0 255 1
0 255 1
0 255 1
0 255 1
0 255 1
0 255 1
0 255 1
0 255 1
0 255 1
0 255 1
0 255 1
0 255 1
0 255 1
0 255 1
0 255 1
0 255 1
0 255 1
0 255 1
0 255 1
0 255 1
0 255 1
0 255 1
0 255 1
0 255 1
0 255 1
0 255 1
0 255 1
0 255 1
0 255 1
0 255 1
0 255 1
1 255 1
1 255 1
1 255 1
1 255 1
1 255 1
1 255 1
1 255 1
1 255 1
1 255 1
1 255 1
1 255 1
1 255 1
1 255 1
1 255 1
1 255 1
1 255 1
1 255 1
1 255 1
1 255 1
1 255 1
1 255 1
1 255 1
1 255 1
1 255 1
1 255 1
1 255 1
1 255 1
1 255 1
1 255 1
1 255 1
1 255 1
1 255 1
1 255 1
1 255 1
1 255 1
1 255 1
1 255 1
1 255 1
1 255 1
1 255 1
1 255 1
1 255 1
1 255 1
1 255 1
1 255 1
1 255 1
1 255 1
1 255 1
1 255 1
1 255 1
1 255 1
1 255 1
1 255 1
1 255 1
1 255 1
1 255 1
1 255 1
1 255 1
1 255 1
1 255 1
1 255 1
1 255 1
1 255 1
1 255 1
1 255 1
1 255 1
1 255 1
1 255 1
1 255 1
1 255 1
1 255 1
1 255 1
1 255 1
1 255 1
1 255 1
1 255 1
1 255 1
1 255 1
2 255 1
2 255 1
2 255 1
2 255 1
2 255 1
2 255 1
2 255 1
2 255 1
2 255 1
2 255 1
2 255 1
2 255 1
2 255 1
2 255 1
2 255 1
2 255 1
2 255 1
2 255 1
2 255 1
2 255 1
2 255 1
2 255 1
2 255 1
2 255 1
2 255 1
2 255 1
2 255 1
2 255 1
2 255 1
2 255 1
2 255 1
2 255 1
2 255 1
2 255 1
2 255 1
2 255 1
2 255 1
2 255 1
2 255 1
2 255 1
2 255 1
2 255 1
2 255 1
0 255 1
0 255 1
0 255 1
0 255 1
0 255 1
0 255 1
0 255 1
0 255 1
0 255 1
0 255 1
0 255 1
0 255 1
0 255 1
0 255 1
0 255 1
0 255 1
0 255 1
0 255 1
0 255 1
0 255 1
0 255 1
0 255 1
0 255 1
0 255 1
0 255 1
0 255 1
0 255 1
0 255 1
0 255 1
0 255 1
0 255 1
0 255 1
0 255 1
0 255 1
0 255 1
0 255 1
0 255 1
0 255 1
0 255 1
0 255 1
0 255 1
0 255 1
0 255 1
0 255 1
0 255 1
0 255 1
0 255 1
0 255 1
0 255 1
0 255 1
0 255 1
0 255 1
0 255 1
0 255 1
0 255 1
0 255 1
0 255 1
0 255 1
0 255 1
0 255 1
0 255 1
0 255 1
0 255 1
0 255 1
0 255 1
0 255 1
0 255 1
0 255 1
0 255 1
0 255 1
0 255 1
0 255 1
0 255 1
0 255 1
0 255 1
0 255 1
0 255 1
0 255 1
0 255 1
0 255 1
0 255 1
0 255 1
0 255 1
0 255 1
0 255 1
0 255 1
0 255 1
0 255 1
0 255 1
0 255 1
0 255 1
0 255 1
0 255 1
0 255 1
0 255 1
0 255 1
0 255 1
0 255 1
0 255 1
0 255 1
0 255 1
0 255 1
0 255 1
0 255 1
0 255 1
0 255 1
0 255 1
0 255 1
0 255 1
0 255 1
0 255 1
0 255 1
0 255 1
0 255 1
0 255 1
0 255 1
0 255 1
0 255 1
0 255 1
0 255 1
0 255 1
0 255 1
0 255 1
0 255 1
0 255 1
0 255 1
0 255 1
0 255 1
0 255 1
0 255 1
0 255 1
0 255 1
0 255 1
0 255 1
0 255 1
0 255 1
0 255 1
0 255 1
0 255 1
0 255 1
0 255 1
0 255 1
0 255 1
0 255 1
0 255 1
0 255 1
0 255 1
0 255 1
0 255 1
0 255 1
0 255 1
0 255 1
0 255 1
0 255 1
0 255 1
0 255 1
0 255 1
0 255 1
0 255 1
0 255 1
0 255 1
0 255 1
0 255 1
0 255 1
0 255 1
0 255 1
0 255 1
0 255 1
0 255 1
0 255 1
0 255 1
0 255 1
0 255 1
0 255 1
0 255 1
0 255 1
0 255 1
0 255 1
0 255 1
0 255 1
0 255 1
0 255 1
0 255 1
0 255 1
0 255 1
0 255 1
0 255 1
0 255 1
0 255 1
0 255 1
0 255 1
0 255 1
0 255 1
0 255 1
0 255 1
0 255 1
0 255 1
0 255 1
0 255 1
0 255 1
0 255 1
0 255 1
0 255 1
0 255 1
0 255 1
0 255 1
0 255 1
0 255 1
0 255 1
0 255 1
0 255 1
0 255 1
0 255 1
0 255 1
0 255 1
0 255 1
0 255 1
0 255 1
0 255 1
0 255 1
0 255 1
0 255 1
0 255 1
0 255 1
0 255 1
0 255 1
0 255 1
0 255 1
0 255 1
0 255 1
0 255 1
0 255 1
0 255 1
0 255 1
0 255 1
0 255 1
0 255 1
0 255 1
0 255 1
0 255 1
0 255 1
0 255 1
0 255 1
0 255 1
0 255 1
0 255 1
0 255 1
0 255 1
0 255 1
0 255 1
0 255 1
0 255 1
0 255 1
0 255 1
0 255 1
0 255 1
0 255 1
0 255 1
0 255 1
0 255 1
0 255 1
0 255 1
0 255 1
0 255 1
0 255 1
0 255 1
0 255 1
0 255 1
0 255 1
0 255 1
0 255 1
0 255 1
0 255 1
0 255 1
0 255 1
0 255 1
0 255 1
0 255 1
0 255 1
1 255 1
1 255 1
1 255 1
1 255 1
1 255 1
1 255 1
1 255 1
1 255 1
1 255 1
1 255 1
1 255 1
1 255 1
1 255 1
1 255 1
1 255 1
1 255 1
1 255 1
1 255 1
1 255 1
1 255 1
1 255 1
1 255 1
1 255 1
1 255 1
1 255 1
1 255 1
1 255 1
1 255 1
1 255 1
1 255 1
1 255 1
1 255 1
1 255 1
1 255 1
1 255 1
1 255 1
1 255 1
1 255 1
1 255 1
1 255 1
1 255 1
1 255 1
1 255 1
1 255 1
1 255 1
1 255 1
1 255 1
1 255 1
1 255 1
1 255 1
1 255 1
1 255 1
1 255 1
1 255 1
1 255 1
1 255 1
1 255 1
1 255 1
1 255 1
1 255 1
1 255 1
1 255 1
1 255 1
1 255 1
1 255 1
1 255 1
1 255 1
1 255 1
1 255 1
1 255 1
1 255 1
1 255 1
1 255 1
1 255 1
1 255 1
1 255 1
1 255 1
1 255 1
1 255 1
2 255 1
2 255 1
2 255 1
2 255 1
2 255 1
2 255 1
2 255 1
2 255 1
2 255 1
2 255 1
2 255 1
2 255 1
2 255 1
2 255 1
2 255 1
2 255 1
2 255 1
2 255 1
2 255 1
2 255 1
2 255 1
2 255 1
2 255 1
2 255 1
2 255 1
2 255 1
2 255 1
2 255 1
2 255 1
2 255 1
2 255 1
2 255 1
2 255 1
2 255 1
2 255 1
2 255 1
2 255 1
2 255 1
2 255 1
2 255 1
2 255 1
2 255 1
0 255 1
0 255 1
0 255 1
0 255 1
0 255 1
0 255 1
0 255 1
0 255 1
0 255 1
0 255 1
0 255 1
0 255 1
0 255 1
0 255 1
0 255 1
0 255 1
0 255 1
0 255 1
0 255 1
0 255 1
0 255 1
0 255 1
0 255 1
0 255 1
0 255 1
0 255 1
0 255 1
0 255 1
0 255 1
0 255 1
0 255 1
0 255 1
0 255 1
0 255 1
0 255 1
0 255 1
0 255 1
0 255 1
0 255 1
0 255 1
0 255 1
0 255 1
0 255 1
0 255 1
0 255 1
0 255 1
0 255 1
0 255 1
0 255 1
0 255 1
0 255 1
0 255 1
0 255 1
0 255 1
0 255 1
0 255 1
0 255 1
0 255 1
0 255 1
0 255 1
0 255 1
0 255 1
0 255 1
0 255 1
0 255 1
0 255 1
0 255 1
0 255 1
0 255 1
0 255 1
0 255 1
0 255 1
0 255 1
0 255 1
0 255 1
0 255 1
0 255 1
0 255 1
0 255 1
0 255 1
0 255 1
0 255 1
0 255 1
0 255 1
0 255 1
0 255 1
0 255 1
0 255 1
0 255 1
0 255 1
0 255 1
0 255 1
0 255 1
0 255 1
0 255 1
0 255 1
0 255 1
0 255 1
0 255 1
0 255 1
0 255 1
0 255 1
0 255 1
0 255 1
0 255 1
0 255 1
0 255 1
0 255 1
0 255 1
0 255 1
0 255 1
0 255 1
0 255 1
0 255 1
0 255 1
0 255 1
0 255 1
0 255 1
0 255 1
0 255 1
0 255 1
0 255 1
0 255 1
0 255 1
0 255 1
0 255 1
0 255 1
0 255 1
0 255 1
0 255 1
0 255 1
0 255 1
0 255 1
0 255 1
0 255 1
0 255 1
0 255 1
0 255 1
0 255 1
0 255 1
0 255 1
0 255 1
0 255 1
0 255 1
0 255 1
0 255 1
0 255 1
0 255 1
0 255 1
0 255 1
0 255 1
0 255 1
0 255 1
0 255 1
0 255 1
0 255 1
0 255 1
0 255 1
0 255 1
0 255 1
0 255 1
0 255 1
0 255 1
0 255 1
0 255 1
0 255 1
0 255 1
0 255 1
0 255 1
0 255 1
0 255 1
0 255 1
0 255 1
0 255 1
0 255 1
0 255 1
0 255 1
0 255 1
0 255 1
0 255 1
0 255 1
0 255 1
0 255 1
0 255 1
0 255 1
0 255 1
0 255 1
0 255 1
0 255 1
0 255 1
0 255 1
0 255 1
0 255 1
0 255 1
0 255 1
0 255 1
0 255 1
0 255 1
0 255 1
0 255 1
0 255 1
0 255 1
0 255 1
0 255 1
0 255 1
0 255 1
0 255 1
0 255 1
0 255 1
0 255 1
0 255 1
0 255 1
0 255 1
0 255 1
0 255 1
0 255 1
0 255 1
0 255 1
0 255 1
0 255 1
0 255 1
0 255 1
0 255 1
0 255 1
0 255 1
0 255 1
0 255 1
0 255 1
0 255 1
0 255 1
0 255 1
0 255 1
0 255 1
0 255 1
0 255 1
0 255 1
0 255 1
0 255 1
0 255 1
0 255 1
0 255 1
0 255 1
0 255 1
0 255 1
0 255 1
0 255 1
0 255 1
0 255 1
0 255 1
0 255 1
0 255 1
0 255 1
0 255 1
0 255 1
0 255 1
0 255 1
0 255 1
0 255 1
0 255 1
0 255 1
0 255 1
0 255 1
0 255 1
0 255 1
0 255 1
0 255 1
0 255 1
0 255 1
0 255 1
0 255 1
0 255 1
0 255 1
0 255 1
0 255 1
0 255 1
0 255 1
0 255 1
0 255 1
0 255 1
0 255 1
1 255 1
1 255 1
1 255 1
1 255 1
1 255 1
1 255 1
1 255 1
1 255 1
1 255 1
1 255 1
1 255 1
1 255 1
1 255 1
1 255 1
1 255 1
1 255 1
1 255 1
1 255 1
1 255 1
1 255 1
1 255 1
1 255 1
1 255 1
1 255 1
1 255 1
1 255 1
1 255 1
1 255 1
1 255 1
1 255 1
1 255 1
1 255 1
1 255 1
1 255 1
1 255 1
1 255 1
1 255 1
1 255 1
1 255 1
1 255 1
1 255 1
1 255 1
1 255 1
1 255 1
1 255 1
1 255 1
1 255 1
1 255 1
1 255 1
1 255 1
1 255 1
1 255 1
1 255 1
1 255 1
1 255 1
1 255 1
1 255 1
1 255 1
1 255 1
1 255 1
1 255 1
1 255 1
1 255 1
1 255 1
1 255 1
1 255 1
1 255 1
1 255 1
1 255 1
1 255 1
1 255 1
1 255 1
1 255 1
1 255 1
1 255 1
1 255 1
1 255 1
1 255 1
1 255 1
1 255 1
2 255 1
2 255 1
2 255 1
2 255 1
2 255 1
2 255 1
2 255 1
2 255 1
2 255 1
2 255 1
2 255 1
2 255 1
2 255 1
2 255 1
2 255 1
2 255 1
2 255 1
2 255 1
2 255 1
2 255 1
2 255 1
2 255 1
2 255 1
2 255 1
2 255 1
2 255 1
2 255 1
2 255 1
2 255 1
2 255 1
2 255 1
2 255 1
2 255 1
2 255 1
2 255 1
2 255 1
2 255 1
2 255 1
2 255 1
2 255 1
0 255 1
0 255 1
0 255 1
0 255 1
0 255 1
0 255 1
0 255 1
0 255 1
0 255 1
0 255 1
0 255 1
0 255 1
0 255 1
0 255 1
0 255 1
0 255 1
0 255 1
0 255 1
0 255 1
0 255 1
0 255 1
0 255 1
0 255 1
0 255 1
0 255 1
0 255 1
0 255 1
0 255 1
0 255 1
0 255 1
0 255 1
0 255 1
0 255 1
0 255 1
0 255 1
0 255 1
0 255 1
0 255 1
0 255 1
0 255 1
0 255 1
0 255 1
0 255 1
0 255 1
0 255 1
0 255 1
0 255 1
0 255 1
0 255 1
0 255 1
0 255 1
0 255 1
0 255 1
0 255 1
0 255 1
0 255 1
0 255 1
0 255 1
0 255 1
0 255 1
0 255 1
0 255 1
0 255 1
0 255 1
0 255 1
0 255 1
0 255 1
0 255 1
0 255 1
0 255 1
0 255 1
0 255 1
0 255 1
0 255 1
0 255 1
0 255 1
0 255 1
0 255 1
0 255 1
0 255 1
0 255 1
0 255 1
0 255 1
0 255 1
0 255 1
0 255 1
0 255 1
0 255 1
0 255 1
0 255 1
0 255 1
0 255 1
0 255 1
0 255 1
0 255 1
0 255 1
0 255 1
0 255 1
0 255 1
0 255 1
0 255 1
0 255 1
0 255 1
0 255 1
0 255 1
0 255 1
0 255 1
0 255 1
0 255 1
0 255 1
0 255 1
0 255 1
0 255 1
0 255 1
0 255 1
0 255 1
0 255 1
0 255 1
0 255 1
0 255 1
0 255 1
0 255 1
0 255 1
0 255 1
0 255 1
0 255 1
0 255 1
0 255 1
0 255 1
0 255 1
0 255 1
0 255 1
0 255 1
0 255 1
0 255 1
0 255 1
0 255 1
0 255 1
0 255 1
0 255 1
0 255 1
0 255 1
0 255 1
0 255 1
0 255 1
0 255 1
0 255 1
0 255 1
0 255 1
0 255 1
0 255 1
0 255 1
0 255 1
0 255 1
0 255 1
0 255 1
0 255 1
0 255 1
0 255 1
0 255 1
0 255 1
0 255 1
0 255 1
0 255 1
0 255 1
0 255 1
0 255 1
0 255 1
0 255 1
0 255 1
0 255 1
0 255 1
0 255 1
0 255 1
0 255 1
0 255 1
0 255 1
0 255 1
0 255 1
0 255 1
0 255 1
0 255 1
0 255 1
0 255 1
0 255 1
0 255 1
0 255 1
0 255 1
0 255 1
0 255 1
0 255 1
0 255 1
0 255 1
0 255 1
0 255 1
0 255 1
0 255 1
0 255 1
0 255 1
0 255 1
0 255 1
0 255 1
0 255 1
0 255 1
0 255 1
0 255 1
0 255 1
0 255 1
0 255 1
0 255 1
0 255 1
0 255 1
0 255 1
0 255 1
0 255 1
0 255 1
0 255 1
0 255 1
0 255 1
0 255 1
0 255 1
0 255 1
0 255 1
0 255 1
0 255 1
0 255 1
0 255 1
0 255 1
0 255 1
0 255 1
0 255 1
0 255 1
0 255 1
0 255 1
0 255 1
0 255 1
0 255 1
0 255 1
0 255 1
0 255 1
0 255 1
0 255 1
0 255 1
0 255 1
0 255 1
0 255 1
0 255 1
0 255 1
0 255 1
0 255 1
0 255 1
0 255 1
0 255 1
0 255 1
0 255 1
0 255 1
0 255 1
0 255 1
0 255 1
0 255 1
0 255 1
0 255 1
0 255 1
0 255 1
0 255 1
0 255 1
0 255 1
0 255 1
0 255 1
0 255 1
0 255 1
0 255 1
0 255 1
0 255 1
0 255 1
0 255 1
0 255 1
0 255 1
0 255 1
0 255 1
0 255 1
1 255 1
1 255 1
1 255 1
1 255 1
1 255 1
1 255 1
1 255 1
1 255 1
1 255 1
1 255 1
1 255 1
1 255 1
1 255 1
1 255 1
1 255 1
1 255 1
1 255 1
1 255 1
1 255 1
1 255 1
1 255 1
1 255 1
1 255 1
1 255 1
1 255 1
1 255 1
1 255 1
1 255 1
1 255 1
1 255 1
1 255 1
1 255 1
1 255 1
1 255 1
1 255 1
1 255 1
1 255 1
1 255 1
1 255 1
1 255 1
1 255 1
1 255 1
1 255 1
1 255 1
1 255 1
1 255 1
1 255 1
1 255 1
1 255 1
1 255 1
1 255 1
1 255 1
1 255 1
1 255 1
1 255 1
1 255 1
1 255 1
1 255 1
1 255 1
1 255 1
1 255 1
1 255 1
1 255 1
1 255 1
1 255 1
1 255 1
1 255 1
1 255 1
1 255 1
1 255 1
1 255 1
1 255 1
1 255 1
1 255 1
1 255 1
1 255 1
1 255 1
1 255 1
1 255 1
1 255 1
2 255 1
2 255 1
2 255 1
2 255 1
2 255 1
2 255 1
2 255 1
2 255 1
2 255 1
2 255 1
2 255 1
2 255 1
2 255 1
2 255 1
2 255 1
2 255 1
2 255 1
2 255 1
2 255 1
2 255 1
2 255 1
2 255 1
2 255 1
2 255 1
2 255 1
2 255 1
2 255 1
2 255 1
2 255 1
2 255 1
2 255 1
2 255 1
2 255 1
2 255 1
2 255 1
2 255 1
2 255 1
2 255 1
2 255 1
0 255 1
0 255 1
0 255 1
0 255 1
0 255 1
0 255 1
0 255 1
0 255 1
0 255 1
0 255 1
0 255 1
0 255 1
0 255 1
0 255 1
0 255 1
0 255 1
0 255 1
0 255 1
0 255 1
0 255 1
0 255 1
0 255 1
0 255 1
0 255 1
0 255 1
0 255 1
0 255 1
0 255 1
0 255 1
0 255 1
0 255 1
0 255 1
0 255 1
0 255 1
0 255 1
0 255 1
0 255 1
0 255 1
0 255 1
0 255 1
0 255 1
0 255 1
0 255 1
0 255 1
0 255 1
0 255 1
0 255 1
0 255 1
0 255 1
0 255 1
0 255 1
0 255 1
0 255 1
0 255 1
0 255 1
0 255 1
0 255 1
0 255 1
0 255 1
0 255 1
0 255 1
0 255 1
0 255 1
0 255 1
0 255 1
0 255 1
0 255 1
0 255 1
0 255 1
0 255 1
0 255 1
0 255 1
0 255 1
0 255 1
0 255 1
0 255 1
0 255 1
0 255 1
0 255 1
0 255 1
0 255 1
0 255 1
0 255 1
0 255 1
0 255 1
0 255 1
0 255 1
0 255 1
0 255 1
0 255 1
0 255 1
0 255 1
0 255 1
0 255 1
0 255 1
0 255 1
0 255 1
0 255 1
0 255 1
0 255 1
0 255 1
0 255 1
0 255 1
0 255 1
0 255 1
0 255 1
0 255 1
0 255 1
0 255 1
0 255 1
0 255 1
0 255 1
0 255 1
0 255 1
0 255 1
0 255 1
0 255 1
0 255 1
0 255 1
0 255 1
0 255 1
0 255 1
0 255 1
0 255 1
0 255 1
0 255 1
0 255 1
0 255 1
0 255 1
0 255 1
0 255 1
0 255 1
0 255 1
0 255 1
0 255 1
0 255 1
0 255 1
0 255 1
0 255 1
0 255 1
0 255 1
0 255 1
0 255 1
0 255 1
0 255 1
0 255 1
0 255 1
0 255 1
0 255 1
0 255 1
0 255 1
0 255 1
0 255 1
0 255 1
0 255 1
0 255 1
0 255 1
0 255 1
0 255 1
0 255 1
0 255 1
0 255 1
0 255 1
0 255 1
0 255 1
0 255 1
0 255 1
0 255 1
0 255 1
0 255 1
0 255 1
0 255 1
0 255 1
0 255 1
0 255 1
0 255 1
0 255 1
0 255 1
0 255 1
0 255 1
0 255 1
0 255 1
0 255 1
0 255 1
0 255 1
0 255 1
0 255 1
0 255 1
0 255 1
0 255 1
0 255 1
0 255 1
0 255 1
0 255 1
0 255 1
0 255 1
0 255 1
0 255 1
0 255 1
0 255 1
0 255 1
0 255 1
0 255 1
0 255 1
0 255 1
0 255 1
0 255 1
0 255 1
0 255 1
0 255 1
0 255 1
0 255 1
0 255 1
0 255 1
0 255 1
0 255 1
0 255 1
0 255 1
0 255 1
0 255 1
0 255 1
0 255 1
0 255 1
0 255 1
0 255 1
0 255 1
0 255 1
0 255 1
0 255 1
0 255 1
0 255 1
0 255 1
0 255 1
0 255 1
0 255 1
0 255 1
0 255 1
0 255 1
0 255 1
0 255 1
0 255 1
0 255 1
0 255 1
0 255 1
0 255 1
0 255 1
0 255 1
0 255 1
0 255 1
0 255 1
0 255 1
0 255 1
0 255 1
0 255 1
0 255 1
0 255 1
0 255 1
0 255 1
0 255 1
0 255 1
0 255 1
0 255 1
0 255 1
0 255 1
0 255 1
0 255 1
0 255 1
0 255 1
0 255 1
0 255 1
0 255 1
0 255 1
0 255 1
0 255 1
0 255 1
0 255 1
0 255 1
0 255 1
0 255 1
0 255 1
0 255 1
0 255 1
1 255 1
1 255 1
1 255 1
1 255 1
1 255 1
1 255 1
1 255 1
1 255 1
1 255 1
1 255 1
1 255 1
1 255 1
1 255 1
1 255 1
1 255 1
1 255 1
1 255 1
1 255 1
1 255 1
1 255 1
1 255 1
1 255 1
1 255 1
1 255 1
1 255 1
1 255 1
1 255 1
1 255 1
1 255 1
1 255 1
1 255 1
1 255 1
1 255 1
1 255 1
1 255 1
1 255 1
1 255 1
1 255 1
1 255 1
1 255 1
1 255 1
1 255 1
1 255 1
1 255 1
1 255 1
1 255 1
1 255 1
1 255 1
1 255 1
1 255 1
1 255 1
1 255 1
1 255 1
1 255 1
1 255 1
1 255 1
1 255 1
1 255 1
1 255 1
1 255 1
1 255 1
1 255 1
1 255 1
1 255 1
1 255 1
1 255 1
1 255 1
1 255 1
1 255 1
1 255 1
1 255 1
1 255 1
1 255 1
1 255 1
1 255 1
1 255 1
1 255 1
1 255 1
1 255 1
1 255 1
1 255 1
2 255 1
2 255 1
2 255 1
2 255 1
2 255 1
2 255 1
2 255 1
2 255 1
2 255 1
2 255 1
2 255 1
2 255 1
2 255 1
2 255 1
2 255 1
2 255 1
2 255 1
2 255 1
2 255 1
2 255 1
2 255 1
2 255 1
2 255 1
2 255 1
2 255 1
2 255 1
2 255 1
2 255 1
2 255 1
2 255 1
2 255 1
2 255 1
2 255 1
2 255 1
2 255 1
2 255 1
2 255 1
0 255 1
0 255 1
0 255 1
0 255 1
0 255 1
0 255 1
0 255 1
0 255 1
0 255 1
0 255 1
0 255 1
0 255 1
0 255 1
0 255 1
0 255 1
0 255 1
0 255 1
0 255 1
0 255 1
0 255 1
0 255 1
0 255 1
0 255 1
0 255 1
0 255 1
0 255 1
0 255 1
0 255 1
0 255 1
0 255 1
0 255 1
0 255 1
0 255 1
0 255 1
0 255 1
0 255 1
0 255 1
0 255 1
0 255 1
0 255 1
0 255 1
0 255 1
0 255 1
0 255 1
0 255 1
0 255 1
0 255 1
0 255 1
0 255 1
0 255 1
0 255 1
0 255 1
0 255 1
0 255 1
0 255 1
0 255 1
0 255 1
0 255 1
0 255 1
0 255 1
0 255 1
0 255 1
0 255 1
0 255 1
0 255 1
0 255 1
0 255 1
0 255 1
0 255 1
0 255 1
0 255 1
0 255 1
0 255 1
0 255 1
0 255 1
0 255 1
0 255 1
0 255 1
0 255 1
0 255 1
0 255 1
0 255 1
0 255 1
0 255 1
0 255 1
0 255 1
0 255 1
0 255 1
0 255 1
0 255 1
0 255 1
0 255 1
0 255 1
0 255 1
0 255 1
0 255 1
0 255 1
0 255 1
0 255 1
0 255 1
0 255 1
0 255 1
0 255 1
0 255 1
0 255 1
0 255 1
0 255 1
0 255 1
0 255 1
0 255 1
0 255 1
0 255 1
0 255 1
0 255 1
0 255 1
0 255 1
0 255 1
0 255 1
0 255 1
0 255 1
0 255 1
0 255 1
0 255 1
0 255 1
0 255 1
0 255 1
0 255 1
0 255 1
0 255 1
0 255 1
0 255 1
0 255 1
0 255 1
0 255 1
0 255 1
0 255 1
0 255 1
0 255 1
0 255 1
0 255 1
0 255 1
0 255 1
0 255 1
0 255 1
0 255 1
0 255 1
0 255 1
0 255 1
0 255 1
0 255 1
0 255 1
0 255 1
0 255 1
0 255 1
0 255 1
0 255 1
0 255 1
0 255 1
0 255 1
0 255 1
0 255 1
0 255 1
0 255 1
0 255 1
0 255 1
0 255 1
0 255 1
0 255 1
0 255 1
0 255 1
0 255 1
0 255 1
0 255 1
0 255 1
0 255 1
0 255 1
0 255 1
0 255 1
0 255 1
0 255 1
0 255 1
0 255 1
0 255 1
0 255 1
0 255 1
0 255 1
0 255 1
0 255 1
0 255 1
0 255 1
0 255 1
0 255 1
0 255 1
0 255 1
0 255 1
0 255 1
0 255 1
0 255 1
0 255 1
0 255 1
0 255 1
0 255 1
0 255 1
0 255 1
0 255 1
0 255 1
0 255 1
0 255 1
0 255 1
0 255 1
0 255 1
0 255 1
0 255 1
0 255 1
0 255 1
0 255 1
0 255 1
0 255 1
0 255 1
0 255 1
0 255 1
0 255 1
0 255 1
0 255 1
0 255 1
0 255 1
0 255 1
0 255 1
0 255 1
0 255 1
0 255 1
0 255 1
0 255 1
0 255 1
0 255 1
0 255 1
0 255 1
0 255 1
0 255 1
0 255 1
0 255 1
0 255 1
0 255 1
0 255 1
0 255 1
0 255 1
0 255 1
0 255 1
0 255 1
0 255 1
0 255 1
0 255 1
0 255 1
0 255 1
0 255 1
0 255 1
0 255 1
0 255 1
0 255 1
0 255 1
0 255 1
0 255 1
0 255 1
0 255 1
0 255 1
0 255 1
0 255 1
0 255 1
0 255 1
0 255 1
0 255 1
0 255 1
0 255 1
0 255 1
0 255 1
0 255 1
0 255 1
0 255 1
0 255 1
0 255 1
0 255 1
0 255 1
0 255 1
1 255 1
1 255 1
1 255 1
1 255 1
1 255 1
1 255 1
1 255 1
1 255 1
1 255 1
1 255 1
1 255 1
1 255 1
1 255 1
1 255 1
1 255 1
1 255 1
1 255 1
1 255 1
1 255 1
1 255 1
1 255 1
1 255 1
1 255 1
1 255 1
1 255 1
1 255 1
1 255 1
1 255 1
1 255 1
1 255 1
1 255 1
1 255 1
1 255 1
1 255 1
1 255 1
1 255 1
1 255 1
1 255 1
1 255 1
1 255 1
1 255 1
1 255 1
1 255 1
1 255 1
1 255 1
1 255 1
1 255 1
1 255 1
1 255 1
1 255 1
1 255 1
1 255 1
1 255 1
1 255 1
1 255 1
1 255 1
1 255 1
1 255 1
1 255 1
1 255 1
1 255 1
1 255 1
1 255 1
1 255 1
1 255 1
1 255 1
1 255 1
1 255 1
1 255 1
1 255 1
1 255 1
1 255 1
1 255 1
1 255 1
1 255 1
1 255 1
1 255 1
1 255 1
1 255 1
1 255 1
1 255 1
2 255 1
2 255 1
2 255 1
2 255 1
2 255 1
2 255 1
2 255 1
2 255 1
2 255 1
2 255 1
2 255 1
2 255 1
2 255 1
2 255 1
2 255 1
2 255 1
2 255 1
2 255 1
2 255 1
2 255 1
2 255 1
2 255 1
2 255 1
2 255 1
2 255 1
2 255 1
2 255 1
2 255 1
2 255 1
2 255 1
2 255 1
2 255 1
2 255 1
2 255 1
2 255 1
2 255 1
0 255 1
0 255 1
0 255 1
0 255 1
0 255 1
0 255 1
0 255 1
0 255 1
0 255 1
0 255 1
0 255 1
0 255 1
0 255 1
0 255 1
0 255 1
0 255 1
0 255 1
0 255 1
0 255 1
0 255 1
0 255 1
0 255 1
0 255 1
0 255 1
0 255 1
0 255 1
0 255 1
0 255 1
0 255 1
0 255 1
0 255 1
0 255 1
0 255 1
0 255 1
0 255 1
0 255 1
0 255 1
0 255 1
0 255 1
0 255 1
0 255 1
0 255 1
0 255 1
0 255 1
0 255 1
0 255 1
0 255 1
0 255 1
0 255 1
0 255 1
0 255 1
0 255 1
0 255 1
0 255 1
0 255 1
0 255 1
0 255 1
0 255 1
0 255 1
0 255 1
0 255 1
0 255 1
0 255 1
0 255 1
0 255 1
0 255 1
0 255 1
0 255 1
0 255 1
0 255 1
0 255 1
0 255 1
0 255 1
0 255 1
0 255 1
0 255 1
0 255 1
0 255 1
0 255 1
0 255 1
0 255 1
0 255 1
0 255 1
0 255 1
0 255 1
0 255 1
0 255 1
0 255 1
0 255 1
0 255 1
0 255 1
0 255 1
0 255 1
0 255 1
0 255 1
0 255 1
0 255 1
0 255 1
0 255 1
0 255 1
0 255 1
0 255 1
0 255 1
0 255 1
0 255 1
0 255 1
0 255 1
0 255 1
0 255 1
0 255 1
0 255 1
0 255 1
0 255 1
0 255 1
0 255 1
0 255 1
0 255 1
0 255 1
0 255 1
0 255 1
0 255 1
0 255 1
0 255 1
0 255 1
0 255 1
0 255 1
0 255 1
0 255 1
0 255 1
0 255 1
0 255 1
0 255 1
0 255 1
0 255 1
0 255 1
0 255 1
0 255 1
0 255 1
0 255 1
0 255 1
0 255 1
0 255 1
0 255 1
0 255 1
0 255 1
0 255 1
0 255 1
0 255 1
0 255 1
0 255 1
0 255 1
0 255 1
0 255 1
0 255 1
0 255 1
0 255 1
0 255 1
0 255 1
0 255 1
0 255 1
0 255 1
0 255 1
0 255 1
0 255 1
0 255 1
0 255 1
0 255 1
0 255 1
0 255 1
0 255 1
0 255 1
0 255 1
0 255 1
0 255 1
0 255 1
0 255 1
0 255 1
0 255 1
0 255 1
0 255 1
0 255 1
0 255 1
0 255 1
0 255 1
0 255 1
0 255 1
0 255 1
0 255 1
0 255 1
0 255 1
0 255 1
0 255 1
0 255 1
0 255 1
0 255 1
0 255 1
0 255 1
0 255 1
0 255 1
0 255 1
0 255 1
0 255 1
0 255 1
0 255 1
0 255 1
0 255 1
0 255 1
0 255 1
0 255 1
0 255 1
0 255 1
0 255 1
0 255 1
0 255 1
0 255 1
0 255 1
0 255 1
0 255 1
0 255 1
0 255 1
0 255 1
0 255 1
0 255 1
0 255 1
0 255 1
0 255 1
0 255 1
0 255 1
0 255 1
0 255 1
0 255 1
0 255 1
0 255 1
0 255 1
0 255 1
0 255 1
0 255 1
0 255 1
0 255 1
0 255 1
0 255 1
0 255 1
0 255 1
0 255 1
0 255 1
0 255 1
0 255 1
0 255 1
0 255 1
0 255 1
0 255 1
0 255 1
0 255 1
0 255 1
0 255 1
0 255 1
0 255 1
0 255 1
0 255 1
0 255 1
0 255 1
0 255 1
0 255 1
0 255 1
0 255 1
0 255 1
0 255 1
0 255 1
0 255 1
0 255 1
0 255 1
0 255 1
0 255 1
0 255 1
0 255 1
0 255 1
0 255 1
0 255 1
0 255 1
0 255 1
0 255 1
0 255 1
0 255 1
1 255 1
1 255 1
1 255 1
1 255 1
1 255 1
1 255 1
1 255 1
1 255 1
1 255 1
1 255 1
1 255 1
1 255 1
1 255 1
1 255 1
1 255 1
1 255 1
1 255 1
1 255 1
1 255 1
1 255 1
1 255 1
1 255 1
1 255 1
1 255 1
1 255 1
1 255 1
1 255 1
1 255 1
1 255 1
1 255 1
1 255 1
1 255 1
1 255 1
1 255 1
1 255 1
1 255 1
1 255 1
1 255 1
1 255 1
1 255 1
1 255 1
1 255 1
1 255 1
1 255 1
1 255 1
1 255 1
1 255 1
1 255 1
1 255 1
1 255 1
1 255 1
1 255 1
1 255 1
1 255 1
1 255 1
1 255 1
1 255 1
1 255 1
1 255 1
1 255 1
1 255 1
1 255 1
1 255 1
1 255 1
1 255 1
1 255 1
1 255 1
1 255 1
1 255 1
1 255 1
1 255 1
1 255 1
1 255 1
1 255 1
1 255 1
1 255 1
1 255 1
1 255 1
1 255 1
1 255 1
1 255 1
1 255 1
1 255 1
2 255 1
2 255 1
2 255 1
2 255 1
2 255 1
2 255 1
2 255 1
2 255 1
2 255 1
2 255 1
2 255 1
2 255 1
2 255 1
2 255 1
2 255 1
2 255 1
2 255 1
2 255 1
2 255 1
2 255 1
2 255 1
2 255 1
2 255 1
2 255 1
2 255 1
2 255 1
2 255 1
2 255 1
2 255 1
2 255 1
2 255 1
2 255 1
2 255 1
2 255 1
0 255 1
0 255 1
0 255 1
0 255 1
0 255 1
0 255 1
0 255 1
0 255 1
0 255 1
0 255 1
0 255 1
0 255 1
0 255 1
0 255 1
0 255 1
0 255 1
0 255 1
0 255 1
0 255 1
0 255 1
0 255 1
0 255 1
0 255 1
0 255 1
0 255 1
0 255 1
0 255 1
0 255 1
0 255 1
0 255 1
0 255 1
0 255 1
0 255 1
0 255 1
0 255 1
0 255 1
0 255 1
0 255 1
0 255 1
0 255 1
0 255 1
0 255 1
0 255 1
0 255 1
0 255 1
0 255 1
0 255 1
0 255 1
0 255 1
0 255 1
0 255 1
0 255 1
0 255 1
0 255 1
0 255 1
0 255 1
0 255 1
0 255 1
0 255 1
0 255 1
0 255 1
0 255 1
0 255 1
0 255 1
0 255 1
0 255 1
0 255 1
0 255 1
0 255 1
0 255 1
0 255 1
0 255 1
0 255 1
0 255 1
0 255 1
0 255 1
0 255 1
0 255 1
0 255 1
0 255 1
0 255 1
0 255 1
0 255 1
0 255 1
0 255 1
0 255 1
0 255 1
0 255 1
0 255 1
0 255 1
0 255 1
0 255 1
0 255 1
0 255 1
0 255 1
0 255 1
0 255 1
0 255 1
0 255 1
0 255 1
0 255 1
0 255 1
0 255 1
0 255 1
0 255 1
0 255 1
0 255 1
0 255 1
0 255 1
0 255 1
0 255 1
0 255 1
0 255 1
0 255 1
0 255 1
0 255 1
0 255 1
0 255 1
0 255 1
0 255 1
0 255 1
0 255 1
0 255 1
0 255 1
0 255 1
0 255 1
0 255 1
0 255 1
0 255 1
0 255 1
0 255 1
0 255 1
0 255 1
0 255 1
0 255 1
0 255 1
0 255 1
0 255 1
0 255 1
0 255 1
0 255 1
0 255 1
0 255 1
0 255 1
0 255 1
0 255 1
0 255 1
0 255 1
0 255 1
0 255 1
0 255 1
0 255 1
0 255 1
0 255 1
0 255 1
0 255 1
0 255 1
0 255 1
0 255 1
0 255 1
0 255 1
0 255 1
0 255 1
0 255 1
0 255 1
0 255 1
0 255 1
0 255 1
0 255 1
0 255 1
0 255 1
0 255 1
0 255 1
0 255 1
0 255 1
0 255 1
0 255 1
0 255 1
0 255 1
0 255 1
0 255 1
0 255 1
0 255 1
0 255 1
0 255 1
0 255 1
0 255 1
0 255 1
0 255 1
0 255 1
0 255 1
0 255 1
0 255 1
0 255 1
0 255 1
0 255 1
0 255 1
0 255 1
0 255 1
0 255 1
0 255 1
0 255 1
0 255 1
0 255 1
0 255 1
0 255 1
0 255 1
0 255 1
0 255 1
0 255 1
0 255 1
0 255 1
0 255 1
0 255 1
0 255 1
0 255 1
0 255 1
0 255 1
0 255 1
0 255 1
0 255 1
0 255 1
0 255 1
0 255 1
0 255 1
0 255 1
0 255 1
0 255 1
0 255 1
0 255 1
0 255 1
0 255 1
0 255 1
0 255 1
0 255 1
0 255 1
0 255 1
0 255 1
0 255 1
0 255 1
0 255 1
0 255 1
0 255 1
0 255 1
0 255 1
0 255 1
0 255 1
0 255 1
0 255 1
0 255 1
0 255 1
0 255 1
0 255 1
0 255 1
0 255 1
0 255 1
0 255 1
0 255 1
0 255 1
0 255 1
0 255 1
0 255 1
0 255 1
0 255 1
0 255 1
0 255 1
0 255 1
0 255 1
0 255 1
0 255 1
0 255 1
0 255 1
0 255 1
0 255 1
0 255 1
0 255 1
0 255 1
0 255 1
0 255 1
0 255 1
0 255 1
0 255 1
0 255 1
0 255 1
1 255 1
1 255 1
1 255 1
1 255 1
1 255 1
1 255 1
1 255 1
1 255 1
1 255 1
1 255 1
1 255 1
1 255 1
1 255 1
1 255 1
1 255 1
1 255 1
1 255 1
1 255 1
1 255 1
1 255 1
1 255 1
1 255 1
1 255 1
1 255 1
1 255 1
1 255 1
1 255 1
1 255 1
1 255 1
1 255 1
1 255 1
1 255 1
1 255 1
1 255 1
1 255 1
1 255 1
1 255 1
1 255 1
1 255 1
1 255 1
1 255 1
1 255 1
1 255 1
1 255 1
1 255 1
1 255 1
1 255 1
1 255 1
1 255 1
1 255 1
1 255 1
1 255 1
1 255 1
1 255 1
1 255 1
1 255 1
1 255 1
1 255 1
1 255 1
1 255 1
1 255 1
1 255 1
1 255 1
1 255 1
1 255 1
1 255 1
1 255 1
1 255 1
1 255 1
1 255 1
1 255 1
1 255 1
1 255 1
1 255 1
1 255 1
1 255 1
1 255 1
1 255 1
1 255 1
1 255 1
1 255 1
1 255 1
1 255 1
2 255 1
2 255 1
2 255 1
2 255 1
2 255 1
2 255 1
2 255 1
2 255 1
2 255 1
2 255 1
2 255 1
2 255 1
2 255 1
2 255 1
2 255 1
2 255 1
2 255 1
2 255 1
2 255 1
2 255 1
2 255 1
2 255 1
2 255 1
2 255 1
2 255 1
2 255 1
2 255 1
2 255 1
2 255 1
2 255 1
2 255 1
2 255 1
2 255 1
0 255 1
0 255 1
0 255 1
0 255 1
0 255 1
0 255 1
0 255 1
0 255 1
0 255 1
0 255 1
0 255 1
0 255 1
0 255 1
0 255 1
0 255 1
0 255 1
0 255 1
0 255 1
0 255 1
0 255 1
0 255 1
0 255 1
0 255 1
0 255 1
0 255 1
0 255 1
0 255 1
0 255 1
0 255 1
0 255 1
0 255 1
0 255 1
0 255 1
0 255 1
0 255 1
0 255 1
0 255 1
0 255 1
0 255 1
0 255 1
0 255 1
0 255 1
0 255 1
0 255 1
0 255 1
0 255 1
0 255 1
0 255 1
0 255 1
0 255 1
0 255 1
0 255 1
0 255 1
0 255 1
0 255 1
0 255 1
0 255 1
0 255 1
0 255 1
0 255 1
0 255 1
0 255 1
0 255 1
0 255 1
0 255 1
0 255 1
0 255 1
0 255 1
0 255 1
0 255 1
0 255 1
0 255 1
0 255 1
0 255 1
0 255 1
0 255 1
0 255 1
0 255 1
0 255 1
0 255 1
0 255 1
0 255 1
0 255 1
0 255 1
0 255 1
0 255 1
0 255 1
0 255 1
0 255 1
0 255 1
0 255 1
0 255 1
0 255 1
0 255 1
0 255 1
0 255 1
0 255 1
0 255 1
0 255 1
0 255 1
0 255 1
0 255 1
0 255 1
0 255 1
0 255 1
0 255 1
0 255 1
0 255 1
0 255 1
0 255 1
0 255 1
0 255 1
0 255 1
0 255 1
0 255 1
0 255 1
0 255 1
0 255 1
0 255 1
0 255 1
0 255 1
0 255 1
0 255 1
0 255 1
0 255 1
0 255 1
0 255 1
0 255 1
0 255 1
0 255 1
0 255 1
0 255 1
0 255 1
0 255 1
0 255 1
0 255 1
0 255 1
0 255 1
0 255 1
0 255 1
0 255 1
0 255 1
0 255 1
0 255 1
0 255 1
0 255 1
0 255 1
0 255 1
0 255 1
0 255 1
0 255 1
0 255 1
0 255 1
0 255 1
0 255 1
0 255 1
0 255 1
0 255 1
0 255 1
0 255 1
0 255 1
0 255 1
0 255 1
0 255 1
0 255 1
0 255 1
0 255 1
0 255 1
0 255 1
0 255 1
0 255 1
0 255 1
0 255 1
0 255 1
0 255 1
0 255 1
0 255 1
0 255 1
0 255 1
0 255 1
0 255 1
0 255 1
0 255 1
0 255 1
0 255 1
0 255 1
0 255 1
0 255 1
0 255 1
0 255 1
0 255 1
0 255 1
0 255 1
0 255 1
0 255 1
0 255 1
0 255 1
0 255 1
0 255 1
0 255 1
0 255 1
0 255 1
0 255 1
0 255 1
0 255 1
0 255 1
0 255 1
0 255 1
0 255 1
0 255 1
0 255 1
0 255 1
0 255 1
0 255 1
0 255 1
0 255 1
0 255 1
0 255 1
0 255 1
0 255 1
0 255 1
0 255 1
0 255 1
0 255 1
0 255 1
0 255 1
0 255 1
0 255 1
0 255 1
0 255 1
0 255 1
0 255 1
0 255 1
0 255 1
0 255 1
0 255 1
0 255 1
0 255 1
0 255 1
0 255 1
0 255 1
0 255 1
0 255 1
0 255 1
0 255 1
0 255 1
0 255 1
0 255 1
0 255 1
0 255 1
0 255 1
0 255 1
0 255 1
0 255 1
0 255 1
0 255 1
0 255 1
0 255 1
0 255 1
0 255 1
0 255 1
0 255 1
0 255 1
0 255 1
0 255 1
0 255 1
0 255 1
0 255 1
0 255 1
0 255 1
0 255 1
0 255 1
0 255 1
0 255 1
0 255 1
0 255 1
0 255 1
0 255 1
0 255 1
0 255 1
0 255 1
0 255 1
0 255 1
0 255 1
0 255 1
1 255 1
1 255 1
1 255 1
1 255 1
1 255 1
1 255 1
1 255 1
1 255 1
1 255 1
1 255 1
1 255 1
1 255 1
1 255 1
1 255 1
1 255 1
1 255 1
1 255 1
1 255 1
1 255 1
1 255 1
1 255 1
1 255 1
1 255 1
1 255 1
1 255 1
1 255 1
1 255 1
1 255 1
1 255 1
1 255 1
1 255 1
1 255 1
1 255 1
1 255 1
1 255 1
1 255 1
1 255 1
1 255 1
1 255 1
1 255 1
1 255 1
1 255 1
1 255 1
1 255 1
1 255 1
1 255 1
1 255 1
1 255 1
1 255 1
1 255 1
1 255 1
1 255 1
1 255 1
1 255 1
1 255 1
1 255 1
1 255 1
1 255 1
1 255 1
1 255 1
1 255 1
1 255 1
1 255 1
1 255 1
1 255 1
1 255 1
1 255 1
1 255 1
1 255 1
1 255 1
1 255 1
1 255 1
1 255 1
1 255 1
1 255 1
1 255 1
1 255 1
1 255 1
1 255 1
1 255 1
1 255 1
1 255 1
1 255 1
1 255 1
2 255 1
2 255 1
2 255 1
2 255 1
2 255 1
2 255 1
2 255 1
2 255 1
2 255 1
2 255 1
2 255 1
2 255 1
2 255 1
2 255 1
2 255 1
2 255 1
2 255 1
2 255 1
2 255 1
2 255 1
2 255 1
2 255 1
2 255 1
2 255 1
2 255 1
2 255 1
2 255 1
2 255 1
2 255 1
2 255 1
2 255 1
0 255 1
0 255 1
0 255 1
0 255 1
0 255 1
0 255 1
0 255 1
0 255 1
0 255 1
0 255 1
0 255 1
0 255 1
0 255 1
0 255 1
0 255 1
0 255 1
0 255 1
0 255 1
0 255 1
0 255 1
0 255 1
0 255 1
0 255 1
0 255 1
0 255 1
0 255 1
0 255 1
0 255 1
0 255 1
0 255 1
0 255 1
0 255 1
0 255 1
0 255 1
0 255 1
0 255 1
0 255 1
0 255 1
0 255 1
0 255 1
0 255 1
0 255 1
0 255 1
0 255 1
0 255 1
0 255 1
0 255 1
0 255 1
0 255 1
0 255 1
0 255 1
0 255 1
0 255 1
0 255 1
0 255 1
0 255 1
0 255 1
0 255 1
0 255 1
0 255 1
0 255 1
0 255 1
0 255 1
0 255 1
0 255 1
0 255 1
0 255 1
0 255 1
0 255 1
0 255 1
0 255 1
0 255 1
0 255 1
0 255 1
0 255 1
0 255 1
0 255 1
0 255 1
0 255 1
0 255 1
0 255 1
0 255 1
0 255 1
0 255 1
0 255 1
0 255 1
0 255 1
0 255 1
0 255 1
0 255 1
0 255 1
0 255 1
0 255 1
0 255 1
0 255 1
0 255 1
0 255 1
0 255 1
0 255 1
0 255 1
0 255 1
0 255 1
0 255 1
0 255 1
0 255 1
0 255 1
0 255 1
0 255 1
0 255 1
0 255 1
0 255 1
0 255 1
0 255 1
0 255 1
0 255 1
0 255 1
0 255 1
0 255 1
0 255 1
0 255 1
0 255 1
0 255 1
0 255 1
0 255 1
0 255 1
0 255 1
0 255 1
0 255 1
0 255 1
0 255 1
0 255 1
0 255 1
0 255 1
0 255 1
0 255 1
0 255 1
0 255 1
0 255 1
0 255 1
0 255 1
0 255 1
0 255 1
0 255 1
0 255 1
0 255 1
0 255 1
0 255 1
0 255 1
0 255 1
0 255 1
0 255 1
0 255 1
0 255 1
0 255 1
0 255 1
0 255 1
0 255 1
0 255 1
0 255 1
0 255 1
0 255 1
0 255 1
0 255 1
0 255 1
0 255 1
0 255 1
0 255 1
0 255 1
0 255 1
0 255 1
0 255 1
0 255 1
0 255 1
0 255 1
0 255 1
0 255 1
0 255 1
0 255 1
0 255 1
0 255 1
0 255 1
0 255 1
0 255 1
0 255 1
0 255 1
0 255 1
0 255 1
0 255 1
0 255 1
0 255 1
0 255 1
0 255 1
0 255 1
0 255 1
0 255 1
0 255 1
0 255 1
0 255 1
0 255 1
0 255 1
0 255 1
0 255 1
0 255 1
0 255 1
0 255 1
0 255 1
0 255 1
0 255 1
0 255 1
0 255 1
0 255 1
0 255 1
0 255 1
0 255 1
0 255 1
0 255 1
0 255 1
0 255 1
0 255 1
0 255 1
0 255 1
0 255 1
0 255 1
0 255 1
0 255 1
0 255 1
0 255 1
0 255 1
0 255 1
0 255 1
0 255 1
0 255 1
0 255 1
0 255 1
0 255 1
0 255 1
0 255 1
0 255 1
0 255 1
0 255 1
0 255 1
0 255 1
0 255 1
0 255 1
0 255 1
0 255 1
0 255 1
0 255 1
0 255 1
0 255 1
0 255 1
0 255 1
0 255 1
0 255 1
0 255 1
0 255 1
0 255 1
0 255 1
0 255 1
0 255 1
0 255 1
0 255 1
0 255 1
0 255 1
0 255 1
0 255 1
0 255 1
0 255 1
0 255 1
0 255 1
0 255 1
0 255 1
0 255 1
0 255 1
0 255 1
0 255 1
0 255 1
0 255 1
0 255 1
0 255 1
0 255 1
0 255 1
0 255 1
0 255 1
0 255 1
0 255 1
1 255 1
1 255 1
1 255 1
1 255 1
1 255 1
1 255 1
1 255 1
1 255 1
1 255 1
1 255 1
1 255 1
1 255 1
1 255 1
1 255 1
1 255 1
1 255 1
1 255 1
1 255 1
1 255 1
1 255 1
1 255 1
1 255 1
1 255 1
1 255 1
1 255 1
1 255 1
1 255 1
1 255 1
1 255 1
1 255 1
1 255 1
1 255 1
1 255 1
1 255 1
1 255 1
1 255 1
1 255 1
1 255 1
1 255 1
1 255 1
1 255 1
1 255 1
1 255 1
1 255 1
1 255 1
1 255 1
1 255 1
1 255 1
1 255 1
1 255 1
1 255 1
1 255 1
1 255 1
1 255 1
1 255 1
1 255 1
1 255 1
1 255 1
1 255 1
1 255 1
1 255 1
1 255 1
1 255 1
1 255 1
1 255 1
1 255 1
1 255 1
1 255 1
1 255 1
1 255 1
1 255 1
1 255 1
1 255 1
1 255 1
1 255 1
1 255 1
1 255 1
1 255 1
1 255 1
1 255 1
1 255 1
1 255 1
1 255 1
1 255 1
2 255 1
2 255 1
2 255 1
2 255 1
2 255 1
2 255 1
2 255 1
2 255 1
2 255 1
2 255 1
2 255 1
2 255 1
2 255 1
2 255 1
2 255 1
2 255 1
2 255 1
2 255 1
2 255 1
2 255 1
2 255 1
2 255 1
2 255 1
2 255 1
2 255 1
2 255 1
2 255 1
2 255 1
2 255 1
2 255 1
0 255 1
0 255 1
0 255 1
0 255 1
0 255 1
0 255 1
0 255 1
0 255 1
0 255 1
0 255 1
0 255 1
0 255 1
0 255 1
0 255 1
0 255 1
0 255 1
0 255 1
0 255 1
0 255 1
0 255 1
0 255 1
0 255 1
0 255 1
0 255 1
0 255 1
0 255 1
0 255 1
0 255 1
0 255 1
0 255 1
0 255 1
0 255 1
0 255 1
0 255 1
0 255 1
0 255 1
0 255 1
0 255 1
0 255 1
0 255 1
0 255 1
0 255 1
0 255 1
0 255 1
0 255 1
0 255 1
0 255 1
0 255 1
0 255 1
0 255 1
0 255 1
0 255 1
0 255 1
0 255 1
0 255 1
0 255 1
0 255 1
0 255 1
0 255 1
0 255 1
0 255 1
0 255 1
0 255 1
0 255 1
0 255 1
0 255 1
0 255 1
0 255 1
0 255 1
0 255 1
0 255 1
0 255 1
0 255 1
0 255 1
0 255 1
0 255 1
0 255 1
0 255 1
0 255 1
0 255 1
0 255 1
0 255 1
0 255 1
0 255 1
0 255 1
0 255 1
0 255 1
0 255 1
0 255 1
0 255 1
0 255 1
0 255 1
0 255 1
0 255 1
0 255 1
0 255 1
0 255 1
0 255 1
0 255 1
0 255 1
0 255 1
0 255 1
0 255 1
0 255 1
0 255 1
0 255 1
0 255 1
0 255 1
0 255 1
0 255 1
0 255 1
0 255 1
0 255 1
0 255 1
0 255 1
0 255 1
0 255 1
0 255 1
0 255 1
0 255 1
0 255 1
0 255 1
0 255 1
0 255 1
0 255 1
0 255 1
0 255 1
0 255 1
0 255 1
0 255 1
0 255 1
0 255 1
0 255 1
0 255 1
0 255 1
0 255 1
0 255 1
0 255 1
0 255 1
0 255 1
0 255 1
0 255 1
0 255 1
0 255 1
0 255 1
0 255 1
0 255 1
0 255 1
0 255 1
0 255 1
0 255 1
0 255 1
0 255 1
0 255 1
0 255 1
0 255 1
0 255 1
0 255 1
0 255 1
0 255 1
0 255 1
0 255 1
0 255 1
0 255 1
0 255 1
0 255 1
0 255 1
0 255 1
0 255 1
0 255 1
0 255 1
0 255 1
0 255 1
0 255 1
0 255 1
0 255 1
0 255 1
0 255 1
0 255 1
0 255 1
0 255 1
0 255 1
0 255 1
0 255 1
0 255 1
0 255 1
0 255 1
0 255 1
0 255 1
0 255 1
0 255 1
0 255 1
0 255 1
0 255 1
0 255 1
0 255 1
0 255 1
0 255 1
0 255 1
0 255 1
0 255 1
0 255 1
0 255 1
0 255 1
0 255 1
0 255 1
0 255 1
0 255 1
0 255 1
0 255 1
0 255 1
0 255 1
0 255 1
0 255 1
0 255 1
0 255 1
0 255 1
0 255 1
0 255 1
0 255 1
0 255 1
0 255 1
0 255 1
0 255 1
0 255 1
0 255 1
0 255 1
0 255 1
0 255 1
0 255 1
0 255 1
0 255 1
0 255 1
0 255 1
0 255 1
0 255 1
0 255 1
0 255 1
0 255 1
0 255 1
0 255 1
0 255 1
0 255 1
0 255 1
0 255 1
0 255 1
0 255 1
0 255 1
0 255 1
0 255 1
0 255 1
0 255 1
0 255 1
0 255 1
0 255 1
0 255 1
0 255 1
0 255 1
0 255 1
0 255 1
0 255 1
0 255 1
0 255 1
0 255 1
0 255 1
0 255 1
0 255 1
0 255 1
0 255 1
0 255 1
0 255 1
0 255 1
0 255 1
0 255 1
0 255 1
0 255 1
0 255 1
0 255 1
0 255 1
0 255 1
0 255 1
0 255 1
0 255 1
0 255 1
0 255 1
0 255 1
1 255 1
1 255 1
1 255 1
1 255 1
1 255 1
1 255 1
1 255 1
1 255 1
1 255 1
1 255 1
1 255 1
1 255 1
1 255 1
1 255 1
1 255 1
1 255 1
1 255 1
1 255 1
1 255 1
1 255 1
1 255 1
1 255 1
1 255 1
1 255 1
1 255 1
1 255 1
1 255 1
1 255 1
1 255 1
1 255 1
1 255 1
1 255 1
1 255 1
1 255 1
1 255 1
1 255 1
1 255 1
1 255 1
1 255 1
1 255 1
1 255 1
1 255 1
1 255 1
1 255 1
1 255 1
1 255 1
1 255 1
1 255 1
1 255 1
1 255 1
1 255 1
1 255 1
1 255 1
1 255 1
1 255 1
1 255 1
1 255 1
1 255 1
1 255 1
1 255 1
1 255 1
1 255 1
1 255 1
1 255 1
1 255 1
1 255 1
1 255 1
1 255 1
1 255 1
1 255 1
1 255 1
1 255 1
1 255 1
1 255 1
1 255 1
1 255 1
1 255 1
1 255 1
1 255 1
1 255 1
1 255 1
1 255 1
1 255 1
1 255 1
1 255 1
1 255 1
2 255 1
2 255 1
2 255 1
2 255 1
2 255 1
2 255 1
2 255 1
2 255 1
2 255 1
2 255 1
2 255 1
2 255 1
2 255 1
2 255 1
2 255 1
2 255 1
2 255 1
2 255 1
2 255 1
2 255 1
2 255 1
2 255 1
2 255 1
2 255 1
2 255 1
2 255 1
2 255 1
2 255 1
0 255 1
0 255 1
0 255 1
0 255 1
0 255 1
0 255 1
0 255 1
0 255 1
0 255 1
0 255 1
0 255 1
0 255 1
0 255 1
0 255 1
0 255 1
0 255 1
0 255 1
0 255 1
0 255 1
0 255 1
0 255 1
0 255 1
0 255 1
0 255 1
0 255 1
0 255 1
0 255 1
0 255 1
0 255 1
0 255 1
0 255 1
0 255 1
0 255 1
0 255 1
0 255 1
0 255 1
0 255 1
0 255 1
0 255 1
0 255 1
0 255 1
0 255 1
0 255 1
0 255 1
0 255 1
0 255 1
0 255 1
0 255 1
0 255 1
0 255 1
0 255 1
0 255 1
0 255 1
0 255 1
0 255 1
0 255 1
0 255 1
0 255 1
0 255 1
0 255 1
0 255 1
0 255 1
0 255 1
0 255 1
0 255 1
0 255 1
0 255 1
0 255 1
0 255 1
0 255 1
0 255 1
0 255 1
0 255 1
0 255 1
0 255 1
0 255 1
0 255 1
0 255 1
0 255 1
0 255 1
0 255 1
0 255 1
0 255 1
0 255 1
0 255 1
0 255 1
0 255 1
0 255 1
0 255 1
0 255 1
0 255 1
0 255 1
0 255 1
0 255 1
0 255 1
0 255 1
0 255 1
0 255 1
0 255 1
0 255 1
0 255 1
0 255 1
0 255 1
0 255 1
0 255 1
0 255 1
0 255 1
0 255 1
0 255 1
0 255 1
0 255 1
0 255 1
0 255 1
0 255 1
0 255 1
0 255 1
0 255 1
0 255 1
0 255 1
0 255 1
0 255 1
0 255 1
0 255 1
0 255 1
0 255 1
0 255 1
0 255 1
0 255 1
0 255 1
0 255 1
0 255 1
0 255 1
0 255 1
0 255 1
0 255 1
0 255 1
0 255 1
0 255 1
0 255 1
0 255 1
0 255 1
0 255 1
0 255 1
0 255 1
0 255 1
0 255 1
0 255 1
0 255 1
0 255 1
0 255 1
0 255 1
0 255 1
0 255 1
0 255 1
0 255 1
0 255 1
0 255 1
0 255 1
0 255 1
0 255 1
0 255 1
0 255 1
0 255 1
0 255 1
0 255 1
0 255 1
0 255 1
0 255 1
0 255 1
0 255 1
0 255 1
0 255 1
0 255 1
0 255 1
0 255 1
0 255 1
0 255 1
0 255 1
0 255 1
0 255 1
0 255 1
0 255 1
0 255 1
0 255 1
0 255 1
0 255 1
0 255 1
0 255 1
0 255 1
0 255 1
0 255 1
0 255 1
0 255 1
0 255 1
0 255 1
0 255 1
0 255 1
0 255 1
0 255 1
0 255 1
0 255 1
0 255 1
0 255 1
0 255 1
0 255 1
0 255 1
0 255 1
0 255 1
0 255 1
0 255 1
0 255 1
0 255 1
0 255 1
0 255 1
0 255 1
0 255 1
0 255 1
0 255 1
0 255 1
0 255 1
0 255 1
0 255 1
0 255 1
0 255 1
0 255 1
0 255 1
0 255 1
0 255 1
0 255 1
0 255 1
0 255 1
0 255 1
0 255 1
0 255 1
0 255 1
0 255 1
0 255 1
0 255 1
0 255 1
0 255 1
0 255 1
0 255 1
0 255 1
0 255 1
0 255 1
0 255 1
0 255 1
0 255 1
0 255 1
0 255 1
0 255 1
0 255 1
0 255 1
0 255 1
0 255 1
0 255 1
0 255 1
0 255 1
0 255 1
0 255 1
0 255 1
0 255 1
0 255 1
0 255 1
0 255 1
0 255 1
0 255 1
0 255 1
0 255 1
0 255 1
0 255 1
0 255 1
0 255 1
0 255 1
0 255 1
0 255 1
0 255 1
0 255 1
0 255 1
0 255 1
0 255 1
0 255 1
0 255 1
0 255 1
0 255 1
0 255 1
0 255 1
1 255 1
1 255 1
1 255 1
1 255 1
1 255 1
1 255 1
1 255 1
1 255 1
1 255 1
1 255 1
1 255 1
1 255 1
1 255 1
1 255 1
1 255 1
1 255 1
1 255 1
1 255 1
1 255 1
1 255 1
1 255 1
1 255 1
1 255 1
1 255 1
1 255 1
1 255 1
1 255 1
1 255 1
1 255 1
1 255 1
1 255 1
1 255 1
1 255 1
1 255 1
1 255 1
1 255 1
1 255 1
1 255 1
1 255 1
1 255 1
1 255 1
1 255 1
1 255 1
1 255 1
1 255 1
1 255 1
1 255 1
1 255 1
1 255 1
1 255 1
1 255 1
1 255 1
1 255 1
1 255 1
1 255 1
1 255 1
1 255 1
1 255 1
1 255 1
1 255 1
1 255 1
1 255 1
1 255 1
1 255 1
1 255 1
1 255 1
1 255 1
1 255 1
1 255 1
1 255 1
1 255 1
1 255 1
1 255 1
1 255 1
1 255 1
1 255 1
1 255 1
1 255 1
1 255 1
1 255 1
1 255 1
1 255 1
1 255 1
1 255 1
1 255 1
1 255 1
1 255 1
2 255 1
2 255 1
2 255 1
2 255 1
2 255 1
2 255 1
2 255 1
2 255 1
2 255 1
2 255 1
2 255 1
2 255 1
2 255 1
2 255 1
2 255 1
2 255 1
2 255 1
2 255 1
2 255 1
2 255 1
2 255 1
2 255 1
2 255 1
2 255 1
2 255 1
2 255 1
